;FLAVOR:Marlin
;TIME:6249
;Filament used: 3.94464m
;Layer height: 0.2
;MINX:69.7
;MINY:30.4
;MINZ:0.25
;MAXX:165.3
;MAXY:84.6
;MAXZ:10.85
;Generated with Cura_SteamEngine 4.8
M140 S100
M105
M190 S100
M104 S250
M105
M109 S250
M82 ;absolute extrusion mode
G28 ;home
G92 E0 ;Reset Extruder
G1 Z4.0 F3000 ;Move Z Axis up
G1 X1.1 Y20 Z0.28 F5000.0 ;Move to start position
G1 X1.1 Y200.0 Z0.28 F1500.0 E15 ;Draw the first line
G1 X1.4 Y200.0 Z0.28 F5000.0 ;Move to side a little
G1 X1.4 Y20 Z0.28 F1500.0 E30 ;Draw the second line
G92 E0 ;Reset Extruder
G1 Z2.0 F3000 ;Move Z Axis up
G92 E0
G92 E0
G1 F4200 E-5
;LAYER_COUNT:54
;LAYER:0
M107
G0 F2100 X70.251 Y33.848 Z0.25
;TYPE:SKIRT
G1 F4200 E0
G1 F1500 X70.49 Y33.382 E0.01878
G1 X70.781 Y32.935 E0.03791
G1 X71.272 Y32.331 E0.06583
G1 X71.652 Y31.952 E0.08508
G1 X71.77 Y31.843 E0.09084
G1 X72.222 Y31.489 E0.11144
G1 X72.85 Y31.105 E0.13784
G1 X73.304 Y30.894 E0.1558
G1 X74.122 Y30.61 E0.18685
G1 X74.61 Y30.51 E0.20472
G1 X75.259 Y30.434 E0.22816
G1 X75.593 Y30.416 E0.24015
G1 X76.148 Y30.402 E0.26007
G1 X76.507 Y30.4 E0.27294
G1 X158.346 Y30.4 E3.20827
G1 X158.966 Y30.404 E3.23051
G1 X159.286 Y30.414 E3.242
G1 X160.107 Y30.466 E3.2715
G1 X160.728 Y30.582 E3.29416
G1 X161.361 Y30.756 E3.31771
G1 X161.874 Y30.958 E3.33748
G1 X162.374 Y31.22 E3.35773
G1 X162.94 Y31.605 E3.38228
G1 X163.355 Y31.96 E3.40187
G1 X163.809 Y32.413 E3.42487
G1 X164.152 Y32.841 E3.44454
G1 X164.576 Y33.508 E3.47289
G1 X164.794 Y33.968 E3.49115
G1 X164.962 Y34.409 E3.50808
G1 X165.155 Y35.101 E3.53384
G1 X165.254 Y35.735 E3.55686
G1 X165.286 Y36.412 E3.58117
G1 X165.292 Y36.726 E3.59243
G1 X165.3 Y37.572 E3.62278
G1 X165.3 Y77.589 E5.05807
G1 X165.296 Y78.253 E5.08189
G1 X165.285 Y78.631 E5.09545
G1 X165.245 Y79.294 E5.11928
G1 X165.111 Y80.062 E5.14724
G1 X164.964 Y80.598 E5.16717
G1 X164.751 Y81.146 E5.18826
G1 X164.469 Y81.692 E5.2103
G1 X164.125 Y82.2 E5.23231
G1 X163.759 Y82.635 E5.2527
G1 X163.241 Y83.151 E5.27892
G1 X162.721 Y83.553 E5.3025
G1 X162.098 Y83.923 E5.32848
G1 X161.494 Y84.192 E5.3522
G1 X160.865 Y84.393 E5.37588
G1 X160.39 Y84.49 E5.39327
G1 X159.741 Y84.566 E5.41671
G1 X159.407 Y84.584 E5.42871
G1 X158.852 Y84.598 E5.44862
G1 X158.493 Y84.6 E5.4615
G1 X76.657 Y84.6 E8.39672
G1 X76.037 Y84.596 E8.41896
G1 X75.793 Y84.588 E8.42771
G1 X74.787 Y84.523 E8.46387
G1 X74.23 Y84.417 E8.48421
G1 X73.727 Y84.269 E8.50301
G1 X73.147 Y84.045 E8.52532
G1 X73.111 Y84.028 E8.52674
G1 X72.534 Y83.72 E8.5502
G1 X71.973 Y83.328 E8.57475
G1 X71.465 Y82.879 E8.59907
G1 X71.011 Y82.378 E8.62332
G1 X70.626 Y81.839 E8.64707
G1 X70.327 Y81.308 E8.66893
G1 X70.091 Y80.753 E8.69056
G1 X70.07 Y80.689 E8.69298
G1 X69.854 Y79.892 E8.7226
G1 X69.775 Y79.441 E8.73902
G1 X69.717 Y78.774 E8.76303
G1 X69.705 Y78.318 E8.77939
G1 X69.7 Y77.59 E8.80551
G1 X69.7 Y37.169 E10.25529
G1 X69.714 Y36.397 E10.28299
G1 X69.763 Y35.616 E10.31105
G1 X69.817 Y35.291 E10.32287
G1 X70.023 Y34.444 E10.35413
G1 X70.251 Y33.848 E10.37702
G0 F2100 X70.634 Y33.942
G1 F1500 X70.891 Y33.464 E10.39649
G1 X71.235 Y32.971 E10.41805
G1 X71.611 Y32.537 E10.43865
G1 X72.071 Y32.093 E10.46158
G1 X72.534 Y31.744 E10.48237
G1 X73.091 Y31.416 E10.50556
G1 X73.664 Y31.165 E10.52799
G1 X74.258 Y30.977 E10.55034
G1 X74.798 Y30.871 E10.57008
G1 X75.354 Y30.816 E10.59012
G1 X75.614 Y30.806 E10.59945
G1 X76.154 Y30.8 E10.61882
G1 X158.766 Y30.8 E13.58188
G1 X159.543 Y30.811 E13.60975
G1 X160.068 Y30.854 E13.62864
G1 X160.666 Y30.968 E13.65048
G1 X161.271 Y31.137 E13.67301
G1 X161.74 Y31.326 E13.69114
G1 X162.211 Y31.576 E13.71027
G1 X162.708 Y31.919 E13.73193
G1 X163.187 Y32.332 E13.75461
G1 X163.607 Y32.769 E13.77635
G1 X163.947 Y33.22 E13.79661
G1 X164.242 Y33.71 E13.81712
G1 X164.463 Y34.18 E13.83575
G1 X164.638 Y34.66 E13.85408
G1 X164.779 Y35.205 E13.87427
G1 X164.868 Y35.79 E13.89549
G1 X164.876 Y35.904 E13.89959
G1 X164.9 Y37.172 E13.94508
G1 X164.9 Y78.059 E15.41158
G1 X164.889 Y78.833 E15.43934
G1 X164.847 Y79.364 E15.45845
G1 X164.736 Y79.953 E15.47995
G1 X164.606 Y80.441 E15.49806
G1 X164.373 Y81.042 E15.52118
G1 X164.121 Y81.516 E15.54043
G1 X163.789 Y81.998 E15.56143
G1 X163.345 Y82.514 E15.58584
G1 X162.948 Y82.893 E15.60553
G1 X162.458 Y83.262 E15.62753
G1 X161.883 Y83.597 E15.6514
G1 X161.341 Y83.833 E15.6726
G1 X160.742 Y84.023 E15.69514
G1 X160.202 Y84.129 E15.71488
G1 X159.646 Y84.184 E15.73492
G1 X159.386 Y84.194 E15.74425
G1 X158.846 Y84.2 E15.76362
G1 X76.237 Y84.2 E18.72657
G1 X75.46 Y84.189 E18.75444
G1 X74.848 Y84.137 E18.77647
G1 X74.298 Y84.033 E18.79655
G1 X73.76 Y83.872 E18.81669
G1 X73.204 Y83.647 E18.8382
G1 X72.661 Y83.344 E18.8605
G1 X72.195 Y83.007 E18.88113
G1 X71.706 Y82.57 E18.90465
G1 X71.292 Y82.107 E18.92693
G1 X70.945 Y81.615 E18.94852
G1 X70.666 Y81.115 E18.96906
G1 X70.453 Y80.605 E18.98888
G1 X70.37 Y80.349 E18.99854
G1 X70.225 Y79.766 E19.02008
G1 X70.138 Y79.24 E19.03921
G1 X70.112 Y78.855 E19.05305
G1 X70.1 Y78.026 E19.08278
G1 X70.1 Y36.934 E20.55664
G1 X70.111 Y36.15 E20.58476
G1 X70.153 Y35.636 E20.60326
G1 X70.268 Y35.034 E20.62524
G1 X70.398 Y34.544 E20.64342
G1 X70.634 Y33.942 E20.66661
G1 F4200 E15.66661
;MESH:suporte18650_novo-Body.stl
G0 F2100 X74.607 Y36.782
G0 X76.082 Y36.782
G0 X86.343 Y36.772
G0 X88.615 Y37.212
G0 X90.442 Y37.826
G0 X92.134 Y38.749
G0 X93.573 Y39.985
G0 X94.795 Y41.451
G0 X95.656 Y43.118
G0 X97.591 Y49.958
G0 X97.947 Y50.958
G0 X98.297 Y51.718
G0 X98.865 Y52.681
G0 X99.322 Y53.31
G0 X100.102 Y54.191
G0 X100.632 Y54.682
G0 X101.61 Y55.43
G0 X103.331 Y56.351
G0 X105.746 Y57.213
G0 X110.89 Y58.239
G0 X114.226 Y60.347
G0 X116.51 Y63.489
G0 X117.467 Y67.686
G0 X118.703 Y63.127
G0 X120.802 Y60.809
G0 X121.331 Y60.317
G0 X122.31 Y59.57
G0 X124.031 Y58.649
G0 X125.898 Y58.08
G0 X128.098 Y57.683
G0 X130.015 Y57.912
G0 X131.842 Y58.526
G0 X133.534 Y59.449
G0 X134.973 Y60.685
G0 X136.195 Y62.151
G0 X137.056 Y63.818
G0 X137.511 Y65.295
G0 X138.276 Y68.49
G0 X139.347 Y71.66
G0 X139.697 Y72.418
G0 X140.265 Y73.381
G0 X140.722 Y74.01
G0 X141.502 Y74.891
G0 X142.031 Y75.383
G0 X143.011 Y76.129
G0 X144.731 Y77.051
G0 X147.146 Y77.913
G0 X149.245 Y78.013
G0 X151.349 Y77.687
;TYPE:WALL-INNER
G1 F4200 E20.66661
G1 F1200 X153.037 Y77.102 E20.73069
G1 X153.044 Y77.046 E20.73272
G1 X154.746 Y76.061 E20.80325
G1 X154.726 Y75.924 E20.80821
G1 X156.139 Y74.698 E20.87531
G1 X156.121 Y74.634 E20.8777
G1 X157.337 Y73.085 E20.94833
G1 X157.26 Y72.969 E20.95332
G1 X158.086 Y71.365 E21.01803
G1 X158.042 Y71.297 E21.02094
G1 X158.492 Y69.766 E21.07817
G1 X158.675 Y67.849 E21.14724
G1 X158.483 Y65.912 E21.21706
G1 X158.368 Y65.257 E21.24091
G1 X157.884 Y63.664 E21.30063
G1 X157.782 Y63.653 E21.30431
G1 X157.562 Y63.045 E21.3275
G1 X156.998 Y61.991 E21.37037
G1 X156.818 Y61.98 E21.37684
G1 X156.477 Y61.405 E21.40082
G1 X155.752 Y60.522 E21.4418
G1 X155.549 Y60.52 E21.44908
G1 X155.371 Y60.326 E21.45852
G1 X154.981 Y59.851 E21.48057
G1 X154.284 Y59.279 E21.51291
G1 X154.007 Y59.31 E21.5229
G1 X153.791 Y59.151 E21.53252
G1 X153.337 Y58.768 E21.55383
G1 X152.565 Y58.354 E21.58525
G1 X152.265 Y58.422 E21.59628
G1 X151.601 Y58.07 E21.62323
G1 X151.451 Y57.965 E21.6298
G1 X150.705 Y57.738 E21.65777
G1 X150.381 Y57.881 E21.67047
G1 X149.922 Y57.747 E21.68762
G1 X149.823 Y57.719 E21.69131
G1 X149.503 Y57.59 E21.70369
G1 X149.373 Y57.578 E21.70837
G1 X148.98 Y57.538 E21.72254
G1 X148.761 Y57.516 E21.73043
G1 X148.38 Y57.74 E21.74629
G1 X147.525 Y57.799 E21.77703
G1 X147.123 Y57.828 E21.79148
G1 X146.563 Y57.924 E21.81186
G1 X145.251 Y58.281 E21.86063
G1 X144.666 Y58.502 E21.88306
G1 X143.498 Y59.079 E21.92978
G1 X142.919 Y59.437 E21.9542
G1 X141.927 Y60.194 E21.99896
G1 X141.386 Y60.696 E22.02543
G1 X140.597 Y61.588 E22.06814
G1 X140.13 Y62.23 E22.09662
G1 X139.554 Y63.207 E22.13729
G1 X139.197 Y63.98 E22.16783
G1 X138.837 Y64.996 E22.20649
G1 X138.622 Y65.879 E22.23909
G1 X138.477 Y66.867 E22.27491
G1 X138.444 Y67.164 E22.28563
G1 X138.376 Y67.207 E22.28851
G1 X138.376 Y68.313 E22.32818
G1 X138.444 Y68.44 E22.33335
G1 X138.474 Y68.824 E22.34716
G1 X138.622 Y69.824 E22.38342
G1 X138.838 Y70.702 E22.41585
G1 X138.915 Y70.924 E22.42428
G1 X139.198 Y71.72 E22.45458
G1 X139.554 Y72.493 E22.4851
G1 X140.13 Y73.47 E22.52578
G1 X140.597 Y74.111 E22.55423
G1 X141.386 Y75.004 E22.59697
G1 X141.927 Y75.506 E22.62344
G1 X142.92 Y76.262 E22.6682
G1 X143.497 Y76.621 E22.69258
G1 X144.666 Y77.198 E22.73933
G1 X145.249 Y77.42 E22.76171
G1 X146.563 Y77.776 E22.81054
G1 X146.959 Y77.843 E22.82494
G1 X147.003 Y78.049 E22.8325
G1 X147.008 Y78.076 E22.83348
G1 X148.986 Y78.171 E22.90451
G1 X149.381 Y78.19 E22.91869
G1 X149.396 Y78.122 E22.92119
G1 X150.036 Y78.03 E22.94438
G1 X151.35 Y77.84 E22.992
G1 X151.349 Y77.687 E22.99749
G0 F2100 X150.947 Y77.297
;TYPE:WALL-OUTER
G1 F1200 X150.983 Y77.303 E22.9988
G1 X151.145 Y77.334 E23.00472
G1 X152.671 Y76.805 E23.06264
G1 X152.688 Y76.671 E23.06749
G1 X152.904 Y76.665 E23.07524
G1 X154.311 Y75.851 E23.13354
G1 X154.292 Y75.722 E23.13822
G1 X154.421 Y75.658 E23.14338
G1 X155.687 Y74.56 E23.20349
G1 X155.67 Y74.497 E23.20583
G1 X155.798 Y74.398 E23.21163
G1 X156.844 Y73.065 E23.27241
G1 X156.797 Y72.994 E23.27546
G1 X157.625 Y71.387 E23.3403
G1 X157.607 Y71.359 E23.34149
G1 X158.097 Y69.69 E23.40388
G1 X158.273 Y67.85 E23.47018
G1 X158.086 Y65.966 E23.53809
G1 X157.978 Y65.35 E23.56052
G1 X157.578 Y64.032 E23.60992
G1 X157.49 Y64.022 E23.6131
G1 X157.196 Y63.208 E23.64414
G1 X156.751 Y62.377 E23.67795
G1 X156.582 Y62.367 E23.68402
G1 X156.148 Y61.635 E23.71454
G1 X155.561 Y60.92 E23.74772
G1 X155.371 Y60.918 E23.75454
G1 X155.068 Y60.587 E23.77063
G1 X154.697 Y60.135 E23.79161
G1 X154.161 Y59.695 E23.81648
G1 X153.895 Y59.725 E23.82608
G1 X153.535 Y59.458 E23.84216
G1 X153.111 Y59.101 E23.86204
G1 X152.508 Y58.777 E23.88659
G1 X152.217 Y58.843 E23.89729
G1 X151.823 Y58.653 E23.91298
G1 X151.383 Y58.405 E23.9311
G1 X151.274 Y58.329 E23.93586
G1 X150.73 Y58.164 E23.95625
G1 X150.409 Y58.305 E23.96883
G1 X149.684 Y58.095 E23.9959
G1 X149.406 Y57.982 E24.00666
G1 X148.851 Y57.927 E24.02667
G1 X148.502 Y58.132 E24.04118
G1 X147.171 Y58.226 E24.08904
G1 X146.649 Y58.315 E24.10804
G1 X145.374 Y58.662 E24.15543
G1 X144.826 Y58.869 E24.17644
G1 X143.692 Y59.429 E24.2218
G1 X143.146 Y59.767 E24.24483
G1 X142.185 Y60.5 E24.28818
G1 X141.673 Y60.976 E24.31326
G1 X140.909 Y61.839 E24.3546
G1 X140.465 Y62.45 E24.38169
G1 X139.909 Y63.393 E24.42095
G1 X139.568 Y64.131 E24.45011
G1 X139.221 Y65.11 E24.48737
G1 X139.015 Y65.955 E24.51856
G1 X138.874 Y66.919 E24.55351
G1 X138.819 Y67.401 E24.57091
G1 X138.776 Y67.428 E24.57273
G1 X138.776 Y68.213 E24.60088
G1 X138.836 Y68.325 E24.60544
G1 X138.872 Y68.779 E24.62178
G1 X139.015 Y69.747 E24.65687
G1 X139.222 Y70.589 E24.68797
G1 X139.292 Y70.792 E24.69567
G1 X139.569 Y71.569 E24.72526
G1 X139.909 Y72.307 E24.7544
G1 X140.465 Y73.25 E24.79367
G1 X140.909 Y73.86 E24.82073
G1 X141.673 Y74.724 E24.8621
G1 X142.185 Y75.2 E24.88717
G1 X143.147 Y75.932 E24.93053
G1 X143.692 Y76.271 E24.95355
G1 X144.826 Y76.831 E24.99891
G1 X145.373 Y77.039 E25.0199
G1 X146.649 Y77.385 E25.06732
G1 X147.145 Y77.468 E25.08536
G1 X147.3 Y77.526 E25.09129
G1 X147.335 Y77.691 E25.09734
G1 X149.061 Y77.774 E25.15932
G1 X149.075 Y77.707 E25.16178
G1 X149.103 Y77.579 E25.16647
G1 X149.169 Y77.589 E25.16887
G1 X149.219 Y77.705 E25.17016
G1 X149.235 Y77.741
G1 X150.948 Y77.494 E25.23224
G1 X150.948 Y77.336 E25.23578
G1 X150.947 Y77.297
G0 F2100 X150.983 Y77.303
G0 X151.145 Y77.334
G0 X151.242 Y77.617
G0 X152.885 Y76.978
G0 X154.565 Y75.973
G0 X155.951 Y74.64
G0 X157.129 Y73.076
G0 X157.895 Y71.375
G0 X158.333 Y69.735
G0 X158.514 Y67.85
G0 X158.211 Y65.295
G0 X157.756 Y63.818
G0 X156.895 Y62.151
G0 X155.673 Y60.685
G0 X154.234 Y59.449
G0 X150.694 Y57.553
G0 X149.952 Y57.547
G0 X151.349 Y56.987
;TYPE:WALL-INNER
G1 F1200 X153.037 Y56.402 E25.29986
G1 X153.044 Y56.346 E25.30189
G1 X154.746 Y55.361 E25.37242
G1 X154.726 Y55.224 E25.37738
G1 X156.139 Y53.998 E25.44448
G1 X156.121 Y53.934 E25.44687
G1 X157.337 Y52.385 E25.5175
G1 X157.26 Y52.269 E25.52249
G1 X158.086 Y50.665 E25.5872
G1 X158.042 Y50.597 E25.59011
G1 X158.492 Y49.066 E25.64734
G1 X158.675 Y47.149 E25.71641
G1 X158.483 Y45.212 E25.78623
G1 X158.368 Y44.557 E25.81008
G1 X157.884 Y42.964 E25.8698
G1 X157.782 Y42.953 E25.87348
G1 X157.562 Y42.345 E25.89667
G1 X156.998 Y41.291 E25.93954
G1 X156.818 Y41.28 E25.94601
G1 X156.477 Y40.705 E25.96999
G1 X155.752 Y39.822 E26.01097
G1 X155.549 Y39.82 E26.01825
G1 X155.371 Y39.626 E26.02769
G1 X154.981 Y39.151 E26.04974
G1 X154.284 Y38.579 E26.08208
G1 X154.007 Y38.61 E26.09207
G1 X153.791 Y38.451 E26.10169
G1 X153.337 Y38.068 E26.123
G1 X152.565 Y37.654 E26.15442
G1 X152.265 Y37.722 E26.16545
G1 X151.601 Y37.37 E26.1924
G1 X151.451 Y37.265 E26.19897
G1 X150.705 Y37.038 E26.22694
G1 X150.381 Y37.181 E26.23964
G1 X149.823 Y37.019 E26.26048
G1 X149.695 Y36.967 E26.26544
G1 X149.503 Y36.89 E26.27286
G1 X148.761 Y36.816 E26.2996
G1 X148.516 Y36.96 E26.3098
G1 X148.38 Y37.04 E26.31546
G1 X147.123 Y37.128 E26.36065
G1 X146.563 Y37.224 E26.38103
G1 X145.251 Y37.581 E26.4298
G1 X144.666 Y37.802 E26.45223
G1 X143.498 Y38.379 E26.49895
G1 X142.919 Y38.737 E26.52337
G1 X141.927 Y39.494 E26.56813
G1 X141.386 Y39.996 E26.5946
G1 X140.597 Y40.888 E26.63731
G1 X140.13 Y41.53 E26.66579
G1 X139.554 Y42.507 E26.70646
G1 X139.197 Y43.28 E26.737
G1 X138.837 Y44.296 E26.77566
G1 X138.622 Y45.179 E26.80826
G1 X138.477 Y46.167 E26.84408
G1 X138.444 Y46.464 E26.85479
G1 X138.376 Y46.507 E26.85768
G1 X138.376 Y47.613 E26.89735
G1 X138.444 Y47.74 E26.90252
G1 X138.474 Y48.124 E26.91633
G1 X138.622 Y49.124 E26.95259
G1 X138.838 Y50.002 E26.98502
G1 X138.915 Y50.224 E26.99345
G1 X139.198 Y51.02 E27.02375
G1 X139.554 Y51.793 E27.05427
G1 X140.13 Y52.77 E27.09495
G1 X140.597 Y53.411 E27.1234
G1 X141.386 Y54.304 E27.16614
G1 X141.927 Y54.806 E27.19261
G1 X142.92 Y55.562 E27.23737
G1 X143.497 Y55.921 E27.26175
G1 X144.666 Y56.498 E27.3085
G1 X145.249 Y56.72 E27.33088
G1 X146.563 Y57.076 E27.37971
G1 X146.959 Y57.143 E27.39411
G1 X147.008 Y57.376 E27.40265
G1 X147.537 Y57.402 E27.42165
G1 X148.394 Y57.442 E27.44853
G1 X148.763 Y57.46 E27.45402
G1 X148.986 Y57.471 E27.4553
G1 X149.381 Y57.49 E27.45805
G1 X149.396 Y57.422 E27.45876
G1 X149.477 Y57.411 E27.45948
G1 X149.772 Y57.368 E27.46649
G1 X149.874 Y57.354 E27.46998
G1 X151.35 Y57.14 E27.52348
G1 X151.349 Y56.987 E27.52896
G0 F2100 X150.947 Y56.597
;TYPE:WALL-OUTER
G1 F1200 X150.983 Y56.603 E27.53027
G1 X151.145 Y56.634 E27.53619
G1 X152.671 Y56.105 E27.59412
G1 X152.688 Y55.971 E27.59896
G1 X152.904 Y55.965 E27.60671
G1 X154.311 Y55.151 E27.66501
G1 X154.292 Y55.022 E27.66969
G1 X154.421 Y54.958 E27.67486
G1 X155.687 Y53.86 E27.73496
G1 X155.67 Y53.797 E27.7373
G1 X155.798 Y53.698 E27.74311
G1 X156.844 Y52.365 E27.80388
G1 X156.797 Y52.294 E27.80693
G1 X157.625 Y50.687 E27.87177
G1 X157.607 Y50.659 E27.87297
G1 X158.097 Y48.99 E27.93536
G1 X158.273 Y47.15 E28.00165
G1 X158.086 Y45.266 E28.06956
G1 X157.978 Y44.65 E28.09199
G1 X157.578 Y43.332 E28.14139
G1 X157.49 Y43.322 E28.14457
G1 X157.196 Y42.508 E28.17561
G1 X156.751 Y41.677 E28.20942
G1 X156.582 Y41.667 E28.21549
G1 X156.148 Y40.935 E28.24602
G1 X155.561 Y40.22 E28.2792
G1 X155.371 Y40.218 E28.28601
G1 X155.068 Y39.887 E28.30211
G1 X154.697 Y39.435 E28.32308
G1 X154.161 Y38.995 E28.34795
G1 X153.895 Y39.025 E28.35755
G1 X153.535 Y38.758 E28.37363
G1 X153.111 Y38.401 E28.39351
G1 X152.508 Y38.077 E28.41806
G1 X152.217 Y38.143 E28.42876
G1 X151.823 Y37.953 E28.44445
G1 X151.383 Y37.705 E28.46257
G1 X151.274 Y37.629 E28.46734
G1 X150.73 Y37.464 E28.48773
G1 X150.409 Y37.605 E28.5003
G1 X149.684 Y37.395 E28.52737
G1 X149.406 Y37.282 E28.53814
G1 X148.851 Y37.227 E28.55814
G1 X148.502 Y37.432 E28.57266
G1 X147.171 Y37.526 E28.62052
G1 X146.649 Y37.615 E28.63951
G1 X145.374 Y37.962 E28.6869
G1 X144.826 Y38.169 E28.70791
G1 X143.692 Y38.729 E28.75328
G1 X143.146 Y39.067 E28.77631
G1 X142.185 Y39.8 E28.81966
G1 X141.673 Y40.276 E28.84473
G1 X140.909 Y41.139 E28.88607
G1 X140.465 Y41.75 E28.91316
