;FLAVOR:Marlin
;TIME:920
;Filament used: 0.54279m
;Layer height: 0.2
;MINX:101.3
;MINY:41.3
;MINZ:0.25
;MAXX:133.7
;MAXY:73.7
;MAXZ:9.85
;Generated with Cura_SteamEngine 4.8
M140 S100
M105
M190 S100
M104 S250
M105
M109 S250
M82 ;absolute extrusion mode
G28 ;home
G92 E0 ;Reset Extruder
G1 Z4.0 F3000 ;Move Z Axis up
G1 X1.1 Y20 Z0.28 F5000.0 ;Move to start position
G1 X1.1 Y200.0 Z0.28 F1500.0 E15 ;Draw the first line
G1 X1.4 Y200.0 Z0.28 F5000.0 ;Move to side a little
G1 X1.4 Y20 Z0.28 F1500.0 E30 ;Draw the second line
G92 E0 ;Reset Extruder
G1 Z2.0 F3000 ;Move Z Axis up
G92 E0
G92 E0
G1 F4200 E-5
;LAYER_COUNT:49
;LAYER:0
M107
G0 F2100 X101.878 Y44.946 Z0.25
;TYPE:SKIRT
G1 F4200 E0
G1 F1500 X102.155 Y44.402 E0.0219
G1 X102.64 Y43.691 E0.05277
G1 X103.113 Y43.152 E0.07849
G1 X103.758 Y42.584 E0.10931
G1 X104.313 Y42.206 E0.1334
G1 X104.934 Y41.879 E0.15857
G1 X105.542 Y41.64 E0.182
G1 X105.648 Y41.607 E0.18598
G1 X106.231 Y41.455 E0.20759
G1 X106.759 Y41.368 E0.22679
G1 X107.39 Y41.322 E0.24948
G1 X108.579 Y41.3 E0.29213
G1 X126.448 Y41.3 E0.93304
G1 X127.086 Y41.305 E0.95593
G1 X127.468 Y41.316 E0.96963
G1 X128.215 Y41.363 E0.99648
G1 X128.718 Y41.445 E1.01476
G1 X129.403 Y41.625 E1.04016
G1 X130.012 Y41.857 E1.06353
G1 X130.556 Y42.13 E1.08537
G1 X131.27 Y42.611 E1.11624
G1 X131.846 Y43.112 E1.14362
G1 X132.201 Y43.491 E1.16225
G1 X132.556 Y43.947 E1.18298
G1 X132.844 Y44.395 E1.20208
G1 X133.112 Y44.913 E1.223
G1 X133.36 Y45.545 E1.24735
G1 X133.392 Y45.647 E1.25118
G1 X133.536 Y46.193 E1.27144
G1 X133.624 Y46.708 E1.29018
G1 X133.675 Y47.337 E1.31281
G1 X133.699 Y48.555 E1.35651
G1 X133.7 Y66.557 E2.00219
G1 X133.684 Y67.473 E2.03505
G1 X133.641 Y68.188 E2.06074
G1 X133.561 Y68.686 E2.07883
G1 X133.365 Y69.435 E2.1066
G1 X133.144 Y70.008 E2.12862
G1 X132.859 Y70.574 E2.15135
G1 X132.377 Y71.287 E2.18222
G1 X131.913 Y71.821 E2.2076
G1 X131.524 Y72.187 E2.22675
G1 X131.058 Y72.553 E2.24801
G1 X130.589 Y72.852 E2.26795
G1 X130.057 Y73.125 E2.2894
G1 X129.459 Y73.359 E2.31243
G1 X129.352 Y73.393 E2.31646
G1 X128.769 Y73.545 E2.33807
G1 X128.241 Y73.632 E2.35726
G1 X127.61 Y73.678 E2.37996
G1 X126.421 Y73.7 E2.42261
G1 X108.552 Y73.7 E3.06352
G1 X107.914 Y73.695 E3.0864
G1 X107.532 Y73.684 E3.10011
G1 X106.785 Y73.637 E3.12696
G1 X106.282 Y73.555 E3.14524
G1 X105.597 Y73.375 E3.17064
G1 X104.988 Y73.143 E3.19401
G1 X104.426 Y72.859 E3.2166
G1 X103.674 Y72.346 E3.24925
G1 X103.197 Y71.93 E3.27195
G1 X102.8 Y71.51 E3.29268
G1 X102.482 Y71.109 E3.31103
G1 X102.2 Y70.677 E3.32954
G1 X101.875 Y70.058 E3.35461
G1 X101.64 Y69.456 E3.37779
G1 X101.607 Y69.352 E3.38171
G1 X101.455 Y68.769 E3.40332
G1 X101.368 Y68.241 E3.42251
G1 X101.321 Y67.586 E3.44606
G1 X101.3 Y66.42 E3.48789
G1 X101.3 Y48.545 E4.12902
G1 X101.305 Y47.914 E4.15165
G1 X101.316 Y47.532 E4.16536
G1 X101.362 Y46.797 E4.19177
G1 X101.445 Y46.282 E4.21048
G1 X101.626 Y45.59 E4.23613
G1 X101.878 Y44.946 E4.26094
G0 F2100 X102.37 Y44.838
G1 F1500 X102.66 Y44.342 E4.28155
G1 X102.962 Y43.929 E4.2999
G1 X103.404 Y43.426 E4.32391
G1 X104.009 Y42.894 E4.35281
G1 X104.53 Y42.542 E4.37536
G1 X105.111 Y42.238 E4.39888
G1 X105.679 Y42.016 E4.42075
G1 X105.75 Y41.994 E4.42342
G1 X106.32 Y41.845 E4.44455
G1 X107.005 Y41.744 E4.46939
G1 X107.439 Y41.72 E4.48498
G1 X108.586 Y41.7 E4.52612
G1 X126.445 Y41.7 E5.16667
G1 X127.074 Y41.704 E5.18923
G1 X127.444 Y41.716 E5.20251
G1 X128.177 Y41.762 E5.22885
G1 X128.878 Y41.887 E5.25439
G1 X129.533 Y42.089 E5.27898
G1 X130.126 Y42.351 E5.30223
G1 X130.653 Y42.657 E5.32409
G1 X131.218 Y43.077 E5.34934
G1 X131.59 Y43.421 E5.36751
G1 X132.106 Y44.01 E5.3956
G1 X132.455 Y44.523 E5.41785
G1 X132.755 Y45.092 E5.44092
G1 X132.984 Y45.682 E5.46362
G1 X133.005 Y45.749 E5.46614
G1 X133.147 Y46.285 E5.48603
G1 X133.23 Y46.782 E5.5041
G1 X133.276 Y47.358 E5.52483
G1 X133.299 Y48.577 E5.56856
G1 X133.3 Y66.555 E6.21338
G1 X133.284 Y67.462 E6.24591
G1 X133.243 Y68.151 E6.27067
G1 X133.112 Y68.878 E6.29717
G1 X132.911 Y69.533 E6.32174
G1 X132.649 Y70.125 E6.34496
G1 X132.34 Y70.658 E6.36706
G1 X132.04 Y71.069 E6.38531
G1 X131.621 Y71.548 E6.40813
G1 X131.249 Y71.897 E6.42643
G1 X130.823 Y72.229 E6.4458
G1 X130.401 Y72.499 E6.46377
G1 X129.88 Y72.766 E6.48477
G1 X129.322 Y72.983 E6.50624
G1 X129.25 Y73.006 E6.50895
G1 X128.68 Y73.155 E6.53008
G1 X127.995 Y73.256 E6.55492
G1 X127.561 Y73.28 E6.57051
G1 X126.414 Y73.3 E6.61165
G1 X108.555 Y73.3 E7.25221
G1 X107.926 Y73.296 E7.27477
G1 X107.556 Y73.284 E7.28805
G1 X106.823 Y73.238 E7.31439
G1 X106.122 Y73.113 E7.33993
G1 X105.467 Y72.911 E7.36451
G1 X104.874 Y72.649 E7.38776
G1 X104.357 Y72.349 E7.4092
G1 X103.911 Y72.024 E7.429
G1 X103.47 Y71.638 E7.45002
G1 X103.104 Y71.251 E7.46912
G1 X102.793 Y70.856 E7.48715
G1 X102.51 Y70.417 E7.50589
G1 X102.234 Y69.88 E7.52754
G1 X102.016 Y69.319 E7.54913
G1 X101.994 Y69.25 E7.55173
G1 X101.845 Y68.68 E7.57286
G1 X101.744 Y67.995 E7.59769
G1 X101.719 Y67.538 E7.61411
G1 X101.7 Y66.414 E7.65443
G1 X101.7 Y48.548 E8.29523
G1 X101.704 Y47.926 E8.31754
G1 X101.716 Y47.556 E8.33082
G1 X101.766 Y46.771 E8.35903
G1 X101.887 Y46.122 E8.38271
G1 X102.084 Y45.484 E8.40666
G1 X102.37 Y44.838 E8.432
G0 F2100 X102.732 Y45.008
G1 F1500 X103.001 Y44.551 E8.45102
G1 X103.402 Y44.016 E8.475
G1 X103.828 Y43.567 E8.4972
G1 X104.261 Y43.205 E8.51744
G1 X104.747 Y42.878 E8.53845
G1 X105.288 Y42.596 E8.56034
G1 X105.816 Y42.392 E8.58064
G1 X105.851 Y42.381 E8.58195
G1 X106.408 Y42.235 E8.60261
G1 X107.048 Y42.141 E8.62581
G1 X107.446 Y42.12 E8.6401
G1 X108.593 Y42.1 E8.68125
G1 X126.443 Y42.1 E9.32148
G1 X127.063 Y42.104 E9.34372
G1 X127.419 Y42.115 E9.35649
G1 X128.14 Y42.16 E9.3824
G1 X128.795 Y42.279 E9.40628
G1 X129.406 Y42.469 E9.42923
G1 X129.957 Y42.713 E9.45084
G1 X130.446 Y42.999 E9.47116
G1 X130.972 Y43.393 E9.49473
G1 X131.422 Y43.817 E9.51691
G1 X131.795 Y44.261 E9.53771
G1 X132.119 Y44.741 E9.55848
G1 X132.397 Y45.271 E9.57995
G1 X132.608 Y45.818 E9.60097
G1 X132.619 Y45.852 E9.60226
G1 X132.758 Y46.378 E9.62177
G1 X132.857 Y47.032 E9.64549
G1 X132.877 Y47.393 E9.65846
G1 X132.899 Y48.577 E9.70094
G1 X132.9 Y66.552 E10.34565
G1 X132.884 Y67.45 E10.37786
G1 X132.844 Y68.113 E10.40169
G1 X132.721 Y68.796 E10.42658
G1 X132.531 Y69.406 E10.44949
G1 X132.286 Y69.956 E10.47109
G1 X131.999 Y70.449 E10.49155
G1 X131.602 Y70.98 E10.51533
G1 X131.223 Y71.381 E10.53512
G1 X130.739 Y71.795 E10.55796
G1 X130.261 Y72.117 E10.57863
G1 X129.703 Y72.408 E10.60121
G1 X129.184 Y72.608 E10.62116
G1 X129.149 Y72.619 E10.62247
G1 X128.592 Y72.765 E10.64312
G1 X127.952 Y72.859 E10.66633
G1 X127.554 Y72.88 E10.68062
G1 X126.407 Y72.9 E10.72177
G1 X108.557 Y72.9 E11.362
G1 X107.937 Y72.896 E11.38423
G1 X107.581 Y72.885 E11.39701
G1 X106.86 Y72.84 E11.42292
G1 X106.205 Y72.721 E11.4468
G1 X105.594 Y72.531 E11.46975
G1 X105.043 Y72.287 E11.49136
G1 X104.566 Y72.007 E11.5112
G1 X104.149 Y71.702 E11.52973
G1 X103.744 Y71.346 E11.54907
G1 X103.192 Y70.723 E11.57892
G1 X102.873 Y70.244 E11.59957
G1 X102.592 Y69.703 E11.62143
G1 X102.392 Y69.183 E11.64141
G1 X102.381 Y69.149 E11.6427
G1 X102.235 Y68.592 E11.66335
G1 X102.141 Y67.952 E11.68655
G1 X102.119 Y67.531 E11.70167
G1 X102.1 Y66.407 E11.74199
G1 X102.1 Y48.55 E12.38247
G1 X102.104 Y47.937 E12.40446
G1 X102.115 Y47.581 E12.41723
G1 X102.164 Y46.805 E12.44512
G1 X102.279 Y46.205 E12.46703
G1 X102.463 Y45.611 E12.48934
G1 X102.732 Y45.008 E12.51302
G0 F2100 X103.075 Y45.193
G1 F1500 X103.354 Y44.722 E12.53265
G1 X103.729 Y44.231 E12.55481
G1 X104.101 Y43.846 E12.57402
G1 X104.513 Y43.503 E12.59324
G1 X104.976 Y43.195 E12.61319
G1 X105.471 Y42.941 E12.63314
G1 X106.025 Y42.732 E12.65438
G1 X106.599 Y42.592 E12.67557
G1 X107.168 Y42.52 E12.69614
G1 X107.743 Y42.5 E12.71678
G1 X126.863 Y42.5 E13.40256
G1 X127.64 Y42.511 E13.43043
G1 X128.161 Y42.553 E13.44918
G1 X128.749 Y42.668 E13.47067
G1 X129.287 Y42.84 E13.49093
G1 X129.792 Y43.067 E13.51079
G1 X130.267 Y43.347 E13.53056
G1 X130.762 Y43.723 E13.55286
G1 X131.154 Y44.101 E13.57239
G1 X131.497 Y44.513 E13.59162
G1 X131.803 Y44.972 E13.6114
G1 X132.052 Y45.454 E13.63086
G1 X132.265 Y46.016 E13.65242
G1 X132.405 Y46.582 E13.67333
G1 X132.479 Y47.157 E13.69413
G1 X132.499 Y47.703 E13.71372
G1 X132.5 Y66.849 E14.40043
G1 X132.489 Y67.64 E14.42881
G1 X132.449 Y68.148 E14.44708
G1 X132.332 Y68.749 E14.46905
G1 X132.16 Y69.287 E14.4893
G1 X131.933 Y69.792 E14.50916
G1 X131.646 Y70.278 E14.52941
G1 X131.281 Y70.757 E14.55101
G1 X130.899 Y71.154 E14.57077
G1 X130.487 Y71.497 E14.59
G1 X130.028 Y71.803 E14.60978
G1 X129.529 Y72.059 E14.6299
G1 X128.975 Y72.268 E14.65113
G1 X128.401 Y72.408 E14.67233
G1 X127.832 Y72.48 E14.6929
G1 X127.257 Y72.5 E14.71353
G1 X108.137 Y72.5 E15.39931
G1 X107.36 Y72.489 E15.42718
G1 X106.839 Y72.447 E15.44593
G1 X106.251 Y72.332 E15.46742
G1 X105.713 Y72.16 E15.48768
G1 X105.208 Y71.933 E15.50754
G1 X104.722 Y71.646 E15.52778
G1 X104.235 Y71.274 E15.54976
G1 X103.846 Y70.899 E15.56914
G1 X103.5 Y70.484 E15.58852
G1 X103.197 Y70.028 E15.60816
G1 X102.941 Y69.529 E15.62828
G1 X102.732 Y68.975 E15.64951
G1 X102.592 Y68.401 E15.6707
G1 X102.52 Y67.832 E15.69127
G1 X102.5 Y67.257 E15.71191
G1 X102.5 Y48.137 E16.39769
G1 X102.511 Y47.36 E16.42556
G1 X102.553 Y46.839 E16.44431
G1 X102.668 Y46.251 E16.4658
G1 X102.84 Y45.713 E16.48606
G1 X103.075 Y45.193 E16.50653
G1 F4200 E11.50653
;MESH:18650_simples-Body.stl
G0 F2100 X106.835 Y47.814
G0 X107.814 Y47.814
G0 X108.1 Y48.1
;TYPE:WALL-INNER
G1 F4200 E16.50653
G1 F1200 X113.224 Y48.1 E16.69031
G1 X113.225 Y48.1 E16.69034
G1 X114.246 Y48.1 E16.72696
G1 X113.299 Y48.484 E16.74562
G1 X113.221 Y48.516 E16.74865
G1 X112.188 Y49.086 E16.79096
G1 X111.231 Y49.773 E16.83322
G1 X110.36 Y50.568 E16.87551
G1 X109.591 Y51.461 E16.91778
G1 X108.931 Y52.439 E16.9601
G1 X108.492 Y53.294 E16.99457
G1 X108.393 Y53.489 E17.00242
G1 X108.1 Y54.278 E17.03261
G1 X108.1 Y53.489 E17.0427
G1 X108.1 Y53.27 E17.04954
G1 X108.1 Y48.1 E17.23498
G0 F2100 X117.787 Y47.815
G0 X120.713 Y48.1
G1 F1200 X121.24 Y48.1 E17.25388
G1 X121.727 Y48.1 E17.27135
G1 X126.9 Y48.1 E17.45689
G1 X126.9 Y53.259 E17.64193
G1 X126.9 Y54.034 E17.66972
G1 X126.9 Y54.267 E17.67808
G1 X126.829 Y54.034 E17.6791
G1 X126.516 Y53.325 E17.69573
G1 X126.352 Y52.956 E17.71021
G1 X125.753 Y51.941 E17.75248
G1 X125.039 Y51.003 E17.79476
G1 X124.216 Y50.157 E17.83709
G1 X123.302 Y49.414 E17.87934
G1 X122.304 Y48.786 E17.92164
G1 X121.679 Y48.487 E17.94649
G1 X121.24 Y48.278 E17.95921
G1 X120.713 Y48.1 E17.96427
G0 F2100 X117.787 Y47.815
G0 X116.64 Y47.848
G0 X115.504 Y48.017
G0 X114.397 Y48.321
G0 X113.333 Y48.752
G0 X112.328 Y49.307
G0 X111.395 Y49.975
G0 X110.547 Y50.75
G0 X109.798 Y51.619
G0 X109.156 Y52.572
G0 X108.632 Y53.594
G0 X108.232 Y54.67
G0 X107.962 Y55.785
G0 X107.827 Y56.926
G0 X107.827 Y57.855
G0 X108.1 Y60.722
G1 F1200 X108.393 Y61.511 E17.99446
G1 X108.492 Y61.706 E18.0023
G1 X108.931 Y62.561 E18.03678
G1 X109.591 Y63.539 E18.0791
G1 X110.36 Y64.432 E18.12136
G1 X111.231 Y65.227 E18.16366
G1 X112.188 Y65.914 E18.20591
G1 X113.22 Y66.484 E18.2482
G1 X113.298 Y66.516 E18.25122
G1 X114.244 Y66.9 E18.28784
G1 X113.224 Y66.9 E18.30647
G1 X113.223 Y66.9 E18.3065
G1 X108.1 Y66.9 E18.49025
G1 X108.1 Y61.73 E18.67568
G1 X108.1 Y61.511 E18.68253
G1 X108.1 Y60.722 E18.69262
G0 F2100 X109.798 Y63.381
G0 X110.547 Y64.25
G0 X111.395 Y65.025
G0 X112.328 Y65.693
G0 X113.333 Y66.248
G0 X114.397 Y66.68
G0 X115.504 Y66.983
G0 X116.64 Y67.152
G0 X117.579 Y67.177
G0 X120.713 Y66.9
G1 F1200 X121.24 Y66.722 E18.71257
G1 X121.68 Y66.512 E18.73006
G1 X122.305 Y66.214 E18.75489
G1 X123.313 Y65.577 E18.79766
G1 X124.217 Y64.843 E18.83943
G1 X125.039 Y63.997 E18.88174
G1 X125.753 Y63.059 E18.92402
G1 X126.352 Y62.044 E18.96629
G1 X126.516 Y61.675 E18.98077
G1 X126.829 Y60.965 E19.0086
G1 X126.9 Y60.731 E19.01737
G1 X126.9 Y60.965 E19.01804
G1 X126.9 Y61.741 E19.03468
G1 X126.9 Y66.9 E19.21972
G1 X121.728 Y66.9 E19.40523
G1 X121.24 Y66.9 E19.41801
G1 X120.713 Y66.9 E19.42203
G0 F2100 X117.792 Y67.244
G0 X117.797 Y67.045
;TYPE:WALL-OUTER
G1 F1200 X118.91 Y66.946 E19.46211
G1 X119.125 Y66.901 E19.46998
G1 X120.018 Y66.712 E19.50272
G1 X121.089 Y66.351 E19.54326
G1 X122.111 Y65.863 E19.58388
G1 X123.079 Y65.252 E19.62494
G1 X123.946 Y64.547 E19.66502
G1 X124.735 Y63.735 E19.70563
G1 X125.421 Y62.835 E19.74621
G1 X125.996 Y61.861 E19.78678
G1 X126.453 Y60.826 E19.82736
G1 X126.785 Y59.73 E19.86844
G1 X126.901 Y59.086 E19.89191
G1 X126.983 Y58.63 E19.90853
G1 X127.05 Y57.5 E19.94913
G1 X126.983 Y56.37 E19.98973
G1 X126.901 Y55.912 E20.00642
G1 X126.783 Y55.257 E20.03029
G1 X126.453 Y54.174 E20.07089
G1 X125.996 Y53.139 E20.11147
G1 X125.421 Y52.165 E20.15204
G1 X124.735 Y51.265 E20.19263
G1 X123.946 Y50.453 E20.23324
G1 X123.068 Y49.74 E20.27381
G1 X122.111 Y49.137 E20.31438
G1 X121.089 Y48.649 E20.355
G1 X120.018 Y48.288 E20.39554
G1 X119.125 Y48.099 E20.42827
G1 X118.91 Y48.054 E20.43615
G1 X117.783 Y47.954 E20.47673
G1 X116.652 Y47.987 E20.51732
G1 X115.9 Y48.099 E20.54459
G1 X115.533 Y48.154 E20.5579
G1 X114.441 Y48.453 E20.59851
G1 X113.393 Y48.878 E20.63907
G1 X112.402 Y49.425 E20.67967
G1 X111.483 Y50.084 E20.72023
G1 X110.647 Y50.847 E20.76082
G1 X109.909 Y51.704 E20.80139
G1 X109.276 Y52.643 E20.84201
G1 X108.76 Y53.65 E20.88259
G1 X108.366 Y54.71 E20.92315
G1 X108.1 Y55.81 E20.96374
G1 X107.966 Y56.934 E21.00434
G1 X107.966 Y58.066 E21.04494
G1 X108.1 Y59.19 E21.08554
G1 X108.366 Y60.29 E21.12613
G1 X108.76 Y61.35 E21.16669
G1 X109.276 Y62.357 E21.20728
G1 X109.909 Y63.296 E21.2479
G1 X110.647 Y64.153 E21.28846
G1 X111.483 Y64.916 E21.32906
G1 X112.402 Y65.575 E21.36962
G1 X113.393 Y66.122 E21.41022
G1 X114.441 Y66.548 E21.45079
G1 X115.533 Y66.846 E21.49139
G1 X115.9 Y66.901 E21.5047
G1 X116.652 Y67.013 E21.53197
G1 X117.797 Y67.045 E21.57306
G0 F2100 X117.996 Y67.028
G0 X118.012 Y67.226
G0 X127.13 Y67.13
G0 X127.3 Y67.3
G1 F1200 X119.13 Y67.3 E21.86609
G1 X118.91 Y67.3 E21.87353
G1 X117.797 Y67.3 E21.90391
G1 X116.652 Y67.3 E21.93173
G1 X115.891 Y67.3 E21.95519
G1 X107.7 Y67.3 E22.24897
G1 X107.7 Y59.19 E22.53986
G1 X107.7 Y58.066 E22.57341
G1 X107.7 Y56.934 E22.60041
G1 X107.7 Y55.81 E22.63396
G1 X107.7 Y47.7 E22.92485
G1 X115.891 Y47.7 E23.21863
G1 X116.652 Y47.7 E23.24209
G1 X117.783 Y47.7 E23.26952
G1 X118.91 Y47.7 E23.30023
G1 X119.13 Y47.7 E23.30767
G1 X127.3 Y47.7 E23.60071
G1 X127.3 Y55.905 E23.895
G1 X127.3 Y56.37 E23.90995
G1 X127.3 Y57.5 E23.93868
G1 X127.3 Y58.63 E23.9674
G1 X127.3 Y59.094 E23.98233
G1 X127.3 Y67.3 E24.27665
G0 F2100 X127.1 Y67.3
G0 X126.86 Y66.86
G0 X126.51 Y66.51
;TYPE:SKIN
G1 F1200 X122.567 Y66.51 E24.41808
G1 X123.541 Y65.895 E24.45939
G1 X124.48 Y65.131 E24.50281
G1 X125.335 Y64.252 E24.54679
G1 X126.077 Y63.277 E24.59074
G1 X126.51 Y62.543 E24.6213
G1 X126.51 Y66.51 E24.76359
G0 F2100 X126.79 Y66.51
G0 X126.698 Y61.759
G0 X125.837 Y63.132
G0 X126.2 Y63.409
G1 F1200 X126.329 Y63.538 E24.77013
G0 F2100 X125.956 Y63.731
G1 F1200 X126.329 Y64.104 E24.78905
G0 F2100 X126.329 Y64.669
G1 F1200 X125.712 Y64.052 E24.82035
G0 F2100 X125.467 Y64.373
G1 F1200 X126.329 Y65.235 E24.86407
G0 F2100 X126.329 Y65.801
G1 F1200 X125.188 Y64.659 E24.92198
G0 F2100 X124.908 Y64.946
G1 F1200 X126.292 Y66.33 E24.99218
G0 F2100 X125.727 Y66.33
G1 F1200 X124.63 Y65.233 E25.04782
G0 F2100 X124.322 Y65.49
G1 F1200 X125.161 Y66.33 E25.0904
G0 F2100 X124.595 Y66.33
G1 F1200 X124.01 Y65.744 E25.1201
G0 F2100 X123.698 Y65.998
G1 F1200 X124.03 Y66.33 E25.13694
G0 F2100 X123.464 Y66.33
G1 F1200 X123.357 Y66.223 E25.14237
G0 F2100 X123.113 Y65.835
G0 X124.841 Y63.826
G0 X125.537 Y62.913
G0 X126.12 Y61.925
G0 X126.584 Y60.874
G0 X126.92 Y59.762
G0 X127.121 Y58.646
G0 X127.19 Y57.5
G0 X127.121 Y56.354
G0 X126.269 Y52.598
G0 X126.51 Y52.457
G1 F1200 X126.077 Y51.723 E25.17294
G1 X125.335 Y50.748 E25.21688
G1 X124.479 Y49.869 E25.26089
G1 X123.53 Y49.096 E25.30479
G1 X122.566 Y48.49 E25.34563
G1 X126.51 Y48.49 E25.48709
G1 X126.51 Y52.457 E25.62937
G0 F2100 X126.269 Y52.598
G0 X126.698 Y53.24
G0 X126.79 Y48.83
G0 X126.329 Y48.83
G1 F1200 X126.169 Y48.67 E25.63749
