;FLAVOR:Marlin
;TIME:1457
;Filament used: 0.930683m
;Layer height: 0.15
;MINX:142.701
;MINY:102.7
;MINZ:0.25
;MAXX:172.3
;MAXY:132.305
;MAXZ:10
;Generated with Cura_SteamEngine 4.8
M140 S100
M105
M190 S100
M104 S250
M105
M109 S250
M82 ;absolute extrusion mode
G28 ;home
G92 E0 ;Reset Extruder
G1 Z4.0 F3000 ;Move Z Axis up
G1 X1.1 Y20 Z0.28 F5000.0 ;Move to start position
G1 X1.1 Y200.0 Z0.28 F1500.0 E15 ;Draw the first line
G1 X1.4 Y200.0 Z0.28 F5000.0 ;Move to side a little
G1 X1.4 Y20 Z0.28 F1500.0 E30 ;Draw the second line
G92 E0 ;Reset Extruder
G1 Z2.0 F3000 ;Move Z Axis up
G92 E0
G92 E0
G1 F4200 E-5
;LAYER_COUNT:66
;LAYER:0
M107
G0 F2100 X145.071 Y105.632 Z0.25
;TYPE:SKIRT
G1 F4200 E0
G1 F1500 X145.462 Y105.223 E0.02352
G1 X145.906 Y104.873 E0.04703
G1 X146.383 Y104.596 E0.06996
G1 X146.918 Y104.351 E0.09443
G1 X149.422 Y103.225 E0.20857
G1 X149.783 Y103.067 E0.22496
G1 X150.387 Y102.858 E0.25153
G1 X150.418 Y102.85 E0.25286
G1 X150.974 Y102.748 E0.27636
G1 X151.333 Y102.724 E0.29132
G1 X152.222 Y102.705 E0.32829
G1 X152.79 Y102.71 E0.3519
G1 X154.148 Y102.767 E0.40841
G1 X156.874 Y102.844 E0.52179
G1 X159.617 Y102.844 E0.63583
G1 X162.33 Y102.767 E0.74867
G1 X163.01 Y102.732 E0.77698
G1 X163.807 Y102.704 E0.81013
G1 X164.281 Y102.7 E0.82984
G1 X164.989 Y102.711 E0.85928
G1 X165.552 Y102.76 E0.88278
G1 X166.103 Y102.888 E0.90629
G1 X166.523 Y103.043 E0.92491
G1 X167.528 Y103.481 E0.97049
G1 X168.496 Y103.916 E1.01461
G1 X168.748 Y104.022 E1.02597
G1 X169.808 Y104.482 E1.07401
G1 X170.31 Y104.743 E1.09754
G1 X170.769 Y105.072 E1.12102
G1 X171.178 Y105.463 E1.14454
G1 X171.527 Y105.907 E1.16802
G1 X171.811 Y106.396 E1.19153
G1 X172.011 Y106.886 E1.21353
G1 X172.088 Y107.117 E1.22366
G1 X172.228 Y107.665 E1.24717
G1 X172.293 Y108.329 E1.27491
G1 X172.3 Y108.853 E1.2967
G1 X172.3 Y110.611 E1.36979
G1 X172.295 Y113 E1.46911
G1 X172.3 Y113.465 E1.48844
G1 X172.3 Y122.845 E1.87842
G1 X172.297 Y123.063 E1.88748
G1 X172.3 Y125.087 E1.97163
G1 X172.3 Y127.428 E2.06896
G1 X172.289 Y128.16 E2.09939
G1 X172.24 Y128.723 E2.12289
G1 X172.113 Y129.274 E2.1464
G1 X171.909 Y129.802 E2.16993
G1 X171.591 Y130.364 E2.19678
G1 X171.258 Y130.821 E2.22029
G1 X170.864 Y131.227 E2.24381
G1 X170.417 Y131.573 E2.26731
G1 X169.926 Y131.852 E2.29079
G1 X169.244 Y132.105 E2.32103
G1 X169.063 Y132.154 E2.32883
G1 X168.508 Y132.263 E2.35234
G1 X168.068 Y132.293 E2.37068
G1 X167.512 Y132.3 E2.39379
G1 X165.739 Y132.3 E2.46751
G1 X165.548 Y132.297 E2.47545
G1 X163.505 Y132.305 E2.56039
G1 X163.431 Y132.3 E2.56347
G1 X153.53 Y132.3 E2.97511
G1 X153.401 Y132.298 E2.98047
G1 X151.302 Y132.303 E3.06774
G1 X148.95 Y132.3 E3.16552
G1 X148.251 Y132.29 E3.19459
G1 X147.687 Y132.242 E3.21812
G1 X147.137 Y132.115 E3.24159
G1 X146.651 Y131.931 E3.26319
G1 X146.495 Y131.86 E3.27032
G1 X145.998 Y131.59 E3.29383
G1 X145.545 Y131.252 E3.31733
G1 X145.143 Y130.855 E3.34082
G1 X144.802 Y130.404 E3.36433
G1 X144.463 Y129.766 E3.39436
G1 X144.425 Y129.675 E3.39846
G1 X143.451 Y127.497 E3.49766
G1 X143.067 Y126.615 E3.53765
G1 X142.878 Y126.082 E3.56116
G1 X142.782 Y125.647 E3.57968
G1 X142.71 Y124.952 E3.60873
G1 X142.701 Y124.345 E3.63397
G1 X142.701 Y124.227 E3.63888
G1 X142.71 Y123.613 E3.66441
G1 X142.769 Y122.216 E3.72254
G1 X142.846 Y119.515 E3.83488
G1 X142.846 Y116.81 E3.94734
G1 X142.738 Y113.627 E4.07975
G1 X142.705 Y111.987 E4.14795
G1 X142.71 Y111.426 E4.17127
G1 X142.758 Y110.863 E4.19476
G1 X142.884 Y110.317 E4.21806
G1 X143.087 Y109.746 E4.24326
G1 X143.532 Y108.734 E4.28922
G1 X144.027 Y107.641 E4.3391
G1 X144.481 Y106.593 E4.38659
G1 X144.742 Y106.091 E4.41011
G1 X145.071 Y105.632 E4.43359
G0 F2100 X145.415 Y105.845
G1 F1500 X145.792 Y105.464 E4.45587
G1 X146.223 Y105.144 E4.47819
G1 X146.698 Y104.887 E4.50064
G1 X149.583 Y103.591 E4.63213
G1 X149.944 Y103.433 E4.64852
G1 X150.487 Y103.245 E4.67241
G1 X150.518 Y103.237 E4.67374
G1 X151.046 Y103.142 E4.69604
G1 X151.341 Y103.124 E4.70833
G1 X152.23 Y103.105 E4.7453
G1 X152.785 Y103.11 E4.76837
G1 X154.119 Y103.165 E4.82388
G1 X156.899 Y103.244 E4.93951
G1 X159.592 Y103.244 E5.05147
G1 X162.362 Y103.166 E5.16668
G1 X163.025 Y103.131 E5.19428
G1 X163.811 Y103.104 E5.22698
G1 X164.275 Y103.1 E5.24627
G1 X164.983 Y103.111 E5.27571
G1 X165.517 Y103.16 E5.298
G1 X166.038 Y103.287 E5.3203
G1 X166.363 Y103.41 E5.33475
G1 X167.365 Y103.846 E5.38018
G1 X168.341 Y104.284 E5.42465
G1 X168.589 Y104.389 E5.43585
G1 X169.649 Y104.849 E5.48389
G1 X170.124 Y105.098 E5.50619
G1 X170.556 Y105.415 E5.52846
G1 X170.937 Y105.793 E5.55078
G1 X171.257 Y106.224 E5.5731
G1 X171.509 Y106.697 E5.59538
G1 X171.708 Y107.244 E5.61958
G1 X171.839 Y107.764 E5.64187
G1 X171.893 Y108.334 E5.66568
G1 X171.9 Y108.858 E5.68746
G1 X171.9 Y110.611 E5.76034
G1 X171.895 Y113 E5.85967
G1 X171.9 Y113.469 E5.87917
G1 X171.9 Y122.84 E6.26877
G1 X171.897 Y123.058 E6.27783
G1 X171.9 Y125.088 E6.36223
G1 X171.9 Y127.422 E6.45927
G1 X171.889 Y128.154 E6.4897
G1 X171.841 Y128.688 E6.51199
G1 X171.714 Y129.209 E6.53429
G1 X171.511 Y129.706 E6.55661
G1 X171.252 Y130.152 E6.57805
G1 X170.934 Y130.584 E6.60035
G1 X170.556 Y130.965 E6.62267
G1 X170.126 Y131.285 E6.64495
G1 X169.653 Y131.537 E6.66723
G1 X169.14 Y131.719 E6.68986
G1 X168.959 Y131.768 E6.69766
G1 X168.432 Y131.869 E6.71997
G1 X168.063 Y131.893 E6.73534
G1 X167.507 Y131.9 E6.75846
G1 X165.745 Y131.9 E6.83171
G1 X165.553 Y131.897 E6.8397
G1 X163.504 Y131.905 E6.92489
G1 X163.434 Y131.9 E6.9278
G1 X153.536 Y131.9 E7.33931
G1 X153.406 Y131.898 E7.34472
G1 X151.302 Y131.903 E7.43219
G1 X148.956 Y131.9 E7.52973
G1 X148.257 Y131.89 E7.55879
G1 X147.722 Y131.842 E7.58113
G1 X147.201 Y131.716 E7.60341
G1 X146.661 Y131.496 E7.62765
G1 X146.191 Y131.238 E7.64994
G1 X145.764 Y130.913 E7.67225
G1 X145.39 Y130.528 E7.69457
G1 X145.078 Y130.092 E7.71686
G1 X144.832 Y129.611 E7.73932
G1 X144.793 Y129.519 E7.74348
G1 X143.817 Y127.337 E7.84285
G1 X143.433 Y126.455 E7.88285
G1 X143.199 Y125.697 E7.91583
G1 X143.175 Y125.572 E7.92112
G1 X143.11 Y124.946 E7.94729
G1 X143.101 Y124.233 E7.97693
G1 X143.113 Y123.518 E8.00666
G1 X143.166 Y122.271 E8.05855
G1 X143.246 Y119.492 E8.17414
G1 X143.246 Y116.796 E8.28623
G1 X143.138 Y113.619 E8.41839
G1 X143.104 Y111.856 E8.4917
G1 X143.11 Y111.432 E8.50933
G1 X143.158 Y110.898 E8.53162
G1 X143.305 Y110.306 E8.55698
G1 X143.453 Y109.907 E8.57467
G1 X143.896 Y108.899 E8.62045
G1 X144.4 Y107.785 E8.67128
G1 X144.848 Y106.752 E8.71809
G1 X145.097 Y106.277 E8.74039
G1 X145.415 Y105.845 E8.76269
G0 F2100 X145.757 Y106.061
G1 F1500 X146.121 Y105.71 E8.78371
G1 X146.737 Y105.314 E8.81416
G1 X147.226 Y105.09 E8.83652
G1 X149.743 Y103.957 E8.95128
G1 X150.104 Y103.799 E8.96766
G1 X150.587 Y103.633 E8.9889
G1 X150.618 Y103.625 E8.99023
G1 X151.35 Y103.524 E9.02095
G1 X152.352 Y103.504 E9.06262
G1 X152.87 Y103.513 E9.08416
G1 X154.096 Y103.565 E9.13517
G1 X156.888 Y103.644 E9.2513
G1 X159.604 Y103.644 E9.36421
G1 X162.353 Y103.566 E9.47855
G1 X163.039 Y103.531 E9.50711
G1 X163.815 Y103.504 E9.53939
G1 X164.269 Y103.5 E9.55827
G1 X164.977 Y103.511 E9.58771
G1 X165.48 Y103.559 E9.60871
G1 X166.204 Y103.777 E9.64015
G1 X167.201 Y104.211 E9.68536
G1 X168.185 Y104.653 E9.7302
G1 X168.43 Y104.755 E9.74124
G1 X169.49 Y105.215 E9.78928
G1 X169.936 Y105.453 E9.81029
G1 X170.34 Y105.757 E9.83131
G1 X170.69 Y106.122 E9.85234
G1 X170.979 Y106.537 E9.87336
G1 X171.252 Y107.139 E9.90085
G1 X171.329 Y107.37 E9.91097
G1 X171.45 Y107.861 E9.93199
G1 X171.493 Y108.339 E9.95195
G1 X171.5 Y108.863 E9.97373
G1 X171.5 Y110.61 E10.04637
G1 X171.495 Y112.999 E10.14569
G1 X171.5 Y113.473 E10.1654
G1 X171.5 Y122.834 E10.55458
G1 X171.497 Y123.052 E10.56365
G1 X171.5 Y125.088 E10.64829
G1 X171.5 Y127.416 E10.74508
G1 X171.489 Y128.148 E10.77552
G1 X171.441 Y128.651 E10.79652
G1 X171.315 Y129.141 E10.81756
G1 X171.003 Y129.796 E10.84772
G1 X170.913 Y129.94 E10.85478
G1 X170.612 Y130.346 E10.87579
G1 X170.25 Y130.7 E10.89684
G1 X169.838 Y130.992 E10.91784
G1 X169.385 Y131.216 E10.93885
G1 X168.854 Y131.382 E10.96198
G1 X168.357 Y131.475 E10.983
G1 X168.058 Y131.493 E10.99545
G1 X167.502 Y131.5 E11.01857
G1 X165.75 Y131.5 E11.09141
G1 X165.556 Y131.497 E11.09948
G1 X163.502 Y131.505 E11.18487
G1 X163.436 Y131.5 E11.18763
G1 X153.542 Y131.5 E11.59897
G1 X153.411 Y131.498 E11.60442
G1 X151.303 Y131.503 E11.69206
G1 X148.961 Y131.5 E11.78943
G1 X148.262 Y131.49 E11.81849
G1 X147.759 Y131.443 E11.8395
G1 X147.269 Y131.317 E11.86053
G1 X146.826 Y131.132 E11.88049
G1 X146.384 Y130.886 E11.90152
G1 X145.986 Y130.575 E11.92252
G1 X145.642 Y130.204 E11.94355
G1 X145.361 Y129.784 E11.96456
G1 X145.162 Y129.364 E11.98389
G1 X144.184 Y127.177 E12.08349
G1 X143.8 Y126.295 E12.12348
G1 X143.591 Y125.621 E12.15282
G1 X143.567 Y125.496 E12.15811
G1 X143.51 Y124.94 E12.18135
G1 X143.501 Y124.239 E12.2105
G1 X143.51 Y123.625 E12.23602
G1 X143.566 Y122.295 E12.29137
G1 X143.646 Y119.503 E12.40749
G1 X143.646 Y116.782 E12.52062
G1 X143.538 Y113.611 E12.65253
G1 X143.504 Y111.862 E12.72526
G1 X143.51 Y111.438 E12.74289
G1 X143.557 Y110.934 E12.76393
G1 X143.688 Y110.422 E12.78591
G1 X143.819 Y110.068 E12.8016
G1 X144.261 Y109.064 E12.84721
G1 X144.755 Y107.972 E12.89704
G1 X145.215 Y106.911 E12.94512
G1 X145.452 Y106.465 E12.96611
G1 X145.757 Y106.061 E12.98716
G1 F4200 E7.98716
;MESH:18650holder-Holder_18650.stl
G0 F2100 X147.981 Y107.516
G0 X148.414 Y108.414
G0 X148.7 Y108.7
;TYPE:WALL-INNER
G1 F4200 E12.98716
G1 F1200 X151.688 Y108.699 E13.11139
G1 X152.058 Y108.465 E13.12959
G1 X152.071 Y108.456 E13.13024
G1 X152.079 Y108.497 E13.13097
G1 X152.594 Y108.701 E13.154
G1 X154.472 Y108.701 E13.23208
G1 X154.699 Y108.701 E13.24152
G1 X155.238 Y108.701 E13.26393
G1 X155.664 Y108.7 E13.28164
G1 X155.239 Y108.823 E13.28489
G1 X154.699 Y109.01 E13.29817
G1 X154.489 Y109.096 E13.30656
G1 X154.174 Y109.226 E13.32073
G1 X153.66 Y109.477 E13.34451
G1 X153.163 Y109.752 E13.36812
G1 X152.68 Y110.062 E13.39198
G1 X152.22 Y110.393 E13.41555
G1 X151.775 Y110.755 E13.4394
G1 X151.355 Y111.138 E13.46303
G1 X150.955 Y111.551 E13.48693
G1 X150.582 Y111.98 E13.51057
G1 X150.232 Y112.437 E13.5345
G1 X149.911 Y112.907 E13.55816
G1 X149.607 Y113.416 E13.58281
G1 X149.352 Y113.909 E13.60588
G1 X149.108 Y114.449 E13.63052
G1 X149.093 Y114.489 E13.6323
G1 X148.912 Y114.968 E13.65359
G1 X148.732 Y115.536 E13.67836
G1 X148.7 Y115.665 E13.68388
G1 X148.7 Y115.536 E13.68408
G1 X148.7 Y114.968 E13.6911
G1 X148.7 Y114.456 E13.70748
G1 X148.7 Y112.492 E13.78913
G1 X148.455 Y112.14 E13.80696
G1 X148.7 Y111.657 E13.82948
G1 X148.7 Y108.7 E13.95242
G0 F2100 X148.438 Y111.594
G0 X147.3 Y112.023
G1 F1200 X147.344 Y112.037 E13.95434
G1 X147.539 Y112.1 E13.96286
G1 X147.345 Y112.162 E13.96448
G1 X147.3 Y112.177
G1 X147.3 Y112.1 E13.96451
G1 X147.3 Y112.023
G0 F2100 X148.28 Y111.899
G0 X148.881 Y110.441
G0 X148.882 Y108.882
G0 X151.612 Y108.437
G0 X152.023 Y107.3
G1 F1200 X152.1 Y107.3 E13.96771
G1 X152.177 Y107.3 E13.97091
G1 X152.163 Y107.344 E13.97092
G1 X152.1 Y107.539 E13.97622
G1 X152.038 Y107.345 E13.97785
G1 X152.023 Y107.3
G0 F2100 X152.314 Y108.305
G0 X160.724 Y108.7
G1 F1200 X160.894 Y108.7 E13.98492
G1 X161.452 Y108.7 E14.00811
G1 X161.937 Y108.7 E14.02828
G1 X163.851 Y108.699 E14.10785
G1 X164.301 Y108.483 E14.12861
G1 X164.749 Y108.7 E14.1493
G1 X167.7 Y108.7 E14.27199
G1 X167.7 Y110.554 E14.34907
G1 X167.7 Y110.555 E14.34911
G1 X167.7 Y110.827 E14.36042
G1 X167.44 Y110.744 E14.36718
G1 X167.032 Y110.612 E14.38501
G1 X166.41 Y110.81 E14.41214
G1 X166.3 Y111.293 E14.43274
G1 X166.3 Y112.076 E14.46529
G1 X166.3 Y112.159 E14.46874
G1 X166.301 Y112.626 E14.48816
G1 X165.961 Y112.16 E14.50025
G1 X165.909 Y112.096 E14.50344
G1 X165.592 Y111.714 E14.52407
G1 X165.18 Y111.271 E14.54923
G1 X164.896 Y110.999 E14.56558
G1 X164.474 Y110.627 E14.58896
G1 X164.024 Y110.276 E14.61269
G1 X163.535 Y109.938 E14.6374
G1 X163.046 Y109.643 E14.66115
G1 X162.531 Y109.371 E14.68536
G1 X161.998 Y109.128 E14.70972
G1 X161.906 Y109.092 E14.71382
G1 X161.453 Y108.919 E14.72951
G1 X160.894 Y108.743 E14.73883
G1 X160.724 Y108.7 E14.73938
G0 F2100 X163.791 Y108.437
G0 X164.223 Y107.3
G1 F1200 X164.3 Y107.3 E14.74258
G1 X164.377 Y107.3 E14.74579
G1 X164.363 Y107.344 E14.7458
G1 X164.3 Y107.54 E14.75114
G1 X164.238 Y107.345 E14.75277
G1 X164.223 Y107.3
G0 F2100 X164.497 Y108.283
G0 X164.887 Y108.873
G0 X167.518 Y108.882
G0 X167.513 Y110.571
G0 X166.129 Y111.273
G0 X166.52 Y112.83
G0 X166.867 Y113.558
G1 F1200 X166.905 Y113.558 E14.75435
G1 X167.125 Y113.558 E14.7635
G1 X167.219 Y113.528 E14.7676
G1 X167.7 Y113.373 E14.78861
G1 X167.7 Y114.477 E14.83451
G1 X167.7 Y114.683 E14.84308
G1 X167.7 Y115.227 E14.86569
G1 X167.7 Y115.669 E14.88407
G1 X167.573 Y115.227 E14.88755
G1 X167.384 Y114.683 E14.90127
G1 X167.305 Y114.493 E14.90895
G1 X167.159 Y114.145 E14.92464
G1 X166.964 Y113.747 E14.94307
G1 X166.921 Y113.659 E14.94442
G1 X166.905 Y113.626
G1 X166.867 Y113.558 E14.94572
G0 F2100 X167.6 Y116.382
G0 X167.785 Y117.859
G0 X167.7 Y120.735
G1 F1200 X167.7 Y120.864 E14.95108
G1 X167.7 Y121.432 E14.9747
G1 X167.7 Y121.944 E14.99598
G1 X167.7 Y123.027 E15.04101
G1 X167.071 Y122.825 E15.06848
G1 X167.031 Y122.812 E15.07022
G1 X166.852 Y122.869 E15.07803
G1 X166.913 Y122.751 E15.07837
G1 X167.048 Y122.491 E15.08792
G1 X167.065 Y122.452 E15.08969
G1 X167.292 Y121.951 E15.11256
G1 X167.307 Y121.911 E15.11433
G1 X167.488 Y121.432 E15.13071
G1 X167.668 Y120.864 E15.13887
G1 X167.7 Y120.735 E15.13919
G0 F2100 X166.269 Y123.353
G0 X165.447 Y124.422
G0 X163.772 Y126.301
G1 F1200 X164.18 Y126.007 E15.1601
G1 X164.295 Y125.913 E15.16627
G1 X164.625 Y125.645 E15.18395
G1 X165.045 Y125.262 E15.20758
G1 X165.445 Y124.849 E15.23148
G1 X165.818 Y124.42 E15.25512
G1 X165.929 Y124.275 E15.26271
G1 X166.168 Y123.963 E15.27905
G1 X166.3 Y123.77 E15.28877
G1 X166.3 Y123.963 E15.28973
G1 X166.3 Y124.356 E15.3009
G1 X166.3 Y125.258 E15.3384
G1 X166.678 Y125.779 E15.36516
G1 X167.16 Y125.747 E15.38524
G1 X167.44 Y125.656 E15.39748
G1 X167.7 Y125.573 E15.40883
G1 X167.7 Y125.845 E15.41556
G1 X167.7 Y125.846 E15.41561
G1 X167.7 Y127.7 E15.49269
G1 X165.847 Y127.7 E15.56972
G1 X165.846 Y127.7 E15.56977
G1 X165.573 Y127.7 E15.58112
G1 X165.656 Y127.44 E15.58787
G1 X165.657 Y127.439 E15.58793
G1 X165.782 Y127.053 E15.6048
G1 X165.643 Y126.491 E15.62887
G1 X165.183 Y126.3 E15.64958
G1 X164.33 Y126.3 E15.68504
G1 X164.181 Y126.3 E15.69046
G1 X163.772 Y126.301 E15.69605
G0 F2100 X160.734 Y127.7
G1 F1200 X161.161 Y127.577 E15.71452
G1 X161.701 Y127.39 E15.73828
G1 X161.909 Y127.305 E15.74762
G1 X162.226 Y127.174 E15.76189
G1 X162.652 Y126.966 E15.78159
G1 X162.74 Y126.923 E15.78567
G1 X162.842 Y126.867 E15.7905
G1 X162.842 Y126.923
G1 X162.842 Y127.125 E15.79643
G1 X162.872 Y127.219 E15.79986
G1 X163.027 Y127.7 E15.82087
G1 X161.926 Y127.7 E15.86664
G1 X161.701 Y127.7 E15.87498
G1 X161.161 Y127.7 E15.88701
G1 X160.734 Y127.7 E15.8896
G0 F2100 X157.828 Y127.767
G0 X156.452 Y127.59
G0 X153.541 Y126.856
G1 F1200 X153.645 Y126.91 E15.89447
G1 X153.869 Y127.029 E15.90502
G1 X153.933 Y127.058 E15.90794
G1 X154.402 Y127.272 E15.92937
G1 X154.493 Y127.307 E15.93343
G1 X154.947 Y127.481 E15.95364
G1 X155.506 Y127.657 E15.97801
G1 X155.674 Y127.7 E15.98522
G1 X155.506 Y127.7 E15.98555
G1 X154.947 Y127.7 E15.993
G1 X154.461 Y127.7 E16.00873
G1 X153.646 Y127.7 E16.04261
G1 X153.644 Y127.7 E16.0427
G1 X153.373 Y127.7 E16.05396
G1 X153.456 Y127.441 E16.0607
G1 X153.577 Y127.067 E16.07704
G1 X153.598 Y127 E16.07715
G1 X153.541 Y126.856 E16.07894
G0 F2100 X151.147 Y126.128
G0 X150.571 Y127.513
G0 X148.882 Y127.518
G0 X148.872 Y124.886
G0 X148.269 Y124.5
G0 X147.3 Y124.223
G1 F1200 X147.344 Y124.237 E16.08086
G1 X147.539 Y124.3 E16.08938
G1 X147.345 Y124.362 E16.091
G1 X147.3 Y124.377
G1 X147.3 Y124.3 E16.09103
G1 X147.3 Y124.223
G0 F2100 X148.37 Y124.052
G0 X148.7 Y120.73
G1 F1200 X148.827 Y121.173 E16.11019
G1 X149.016 Y121.717 E16.13413
G1 X149.095 Y121.907 E16.14269
G1 X149.241 Y122.255 E16.15838
G1 X149.495 Y122.774 E16.1824
G1 X149.781 Y123.282 E16.20664
G1 X150.094 Y123.767 E16.23063
G1 X150.439 Y124.24 E16.25497
