;FLAVOR:Marlin
;TIME:498
;Filament used: 0.449564m
;Layer height: 0.15
;MINX:103.5
;MINY:43.5
;MINZ:0.25
;MAXX:131.5
;MAXY:71.5
;MAXZ:19.9
;Generated with Cura_SteamEngine 4.8
M140 S100
M105
M190 S100
M104 S250
M105
M109 S250
M82 ;absolute extrusion mode
G28 ;home
G92 E0 ;Reset Extruder
G1 Z4.0 F3000 ;Move Z Axis up
G1 X1.1 Y20 Z0.28 F5000.0 ;Move to start position
G1 X1.1 Y200.0 Z0.28 F1500.0 E15 ;Draw the first line
G1 X1.4 Y200.0 Z0.28 F5000.0 ;Move to side a little
G1 X1.4 Y20 Z0.28 F1500.0 E30 ;Draw the second line
G92 E0 ;Reset Extruder
G1 Z2.0 F3000 ;Move Z Axis up
G92 E0
G92 E0
G1 F4200 E-5
;LAYER_COUNT:132
;LAYER:0
M107
G0 F2100 X103.886 Y45.813 Z0.25
;TYPE:SKIRT
G1 F4200 E0
G1 F1500 X104.162 Y45.319 E0.0203
G1 X104.504 Y44.869 E0.04057
G1 X104.906 Y44.472 E0.06083
G1 X105.36 Y44.135 E0.08111
G1 X105.857 Y43.866 E0.10138
G1 X106.387 Y43.669 E0.12166
G1 X106.94 Y43.55 E0.14195
G1 X107.718 Y43.502 E0.16991
G1 X107.83 Y43.5 E0.17393
G1 X126.85 Y43.5 E0.85612
G1 X127.548 Y43.51 E0.88116
G1 X128.112 Y43.558 E0.90146
G1 X128.662 Y43.685 E0.92171
G1 X129.19 Y43.889 E0.94201
G1 X129.684 Y44.164 E0.96229
G1 X130.133 Y44.507 E0.98255
G1 X130.53 Y44.909 E1.00282
G1 X130.867 Y45.364 E1.02313
G1 X131.135 Y45.861 E1.04338
G1 X131.331 Y46.391 E1.06365
G1 X131.451 Y46.944 E1.08394
G1 X131.498 Y47.718 E1.11175
G1 X131.5 Y47.83 E1.11577
G1 X131.5 Y66.814 E1.79667
G1 X131.491 Y67.541 E1.82275
G1 X131.444 Y68.104 E1.84302
G1 X131.318 Y68.655 E1.86329
G1 X131.116 Y69.183 E1.88356
G1 X130.841 Y69.677 E1.90384
G1 X130.499 Y70.127 E1.92412
G1 X130.097 Y70.525 E1.94441
G1 X129.644 Y70.862 E1.96466
G1 X129.147 Y71.132 E1.98494
G1 X128.617 Y71.329 E2.00522
G1 X128.065 Y71.45 E2.02549
G1 X127.282 Y71.498 E2.05363
G1 X127.17 Y71.5 E2.05765
G1 X108.155 Y71.5 E2.73966
G1 X107.457 Y71.491 E2.7647
G1 X106.894 Y71.443 E2.78496
G1 X106.343 Y71.317 E2.80524
G1 X105.815 Y71.115 E2.82551
G1 X105.321 Y70.84 E2.84579
G1 X104.871 Y70.498 E2.86607
G1 X104.473 Y70.096 E2.88636
G1 X104.137 Y69.642 E2.90661
G1 X103.867 Y69.145 E2.9269
G1 X103.67 Y68.615 E2.94718
G1 X103.55 Y68.063 E2.96744
G1 X103.501 Y67.266 E2.99608
G1 X103.5 Y48.12 E3.68279
G1 X103.509 Y47.455 E3.70665
G1 X103.557 Y46.892 E3.72691
G1 X103.683 Y46.341 E3.74719
G1 X103.886 Y45.813 E3.76748
G0 F2100 X104.285 Y45.908
G1 F1500 X104.558 Y45.447 E3.78669
G1 X104.897 Y45.031 E3.80594
G1 X105.294 Y44.671 E3.82516
G1 X105.741 Y44.373 E3.84443
G1 X106.226 Y44.145 E3.86365
G1 X106.74 Y43.992 E3.88289
G1 X107.408 Y43.91 E3.90703
G1 X107.83 Y43.9 E3.92217
G1 X126.845 Y43.9 E4.60418
G1 X127.543 Y43.91 E4.62922
G1 X128.077 Y43.958 E4.64845
G1 X128.598 Y44.084 E4.66768
G1 X129.095 Y44.287 E4.68693
G1 X129.556 Y44.561 E4.70617
G1 X129.971 Y44.9 E4.72539
G1 X130.331 Y45.298 E4.74463
G1 X130.628 Y45.744 E4.76385
G1 X130.856 Y46.23 E4.78311
G1 X131.008 Y46.744 E4.80233
G1 X131.09 Y47.409 E4.82636
G1 X131.1 Y47.83 E4.84147
G1 X131.1 Y66.809 E5.52219
G1 X131.091 Y67.536 E5.54827
G1 X131.044 Y68.07 E5.5675
G1 X130.919 Y68.591 E5.58671
G1 X130.717 Y69.088 E5.60596
G1 X130.444 Y69.55 E5.6252
G1 X130.106 Y69.966 E5.64443
G1 X129.709 Y70.327 E5.66367
G1 X129.263 Y70.625 E5.68291
G1 X128.778 Y70.853 E5.70213
G1 X128.264 Y71.007 E5.72138
G1 X127.592 Y71.09 E5.74567
G1 X127.17 Y71.1 E5.76081
G1 X108.161 Y71.1 E6.44261
G1 X107.463 Y71.091 E6.46764
G1 X106.928 Y71.044 E6.48691
G1 X106.407 Y70.918 E6.50613
G1 X105.91 Y70.716 E6.52537
G1 X105.449 Y70.443 E6.54459
G1 X105.033 Y70.104 E6.56384
G1 X104.672 Y69.708 E6.58306
G1 X104.374 Y69.262 E6.6023
G1 X104.146 Y68.776 E6.62155
G1 X103.993 Y68.262 E6.64078
G1 X103.91 Y67.588 E6.66514
G1 X103.9 Y67.158 E6.68057
G1 X103.9 Y48.125 E7.36323
G1 X103.909 Y47.46 E7.38708
G1 X103.957 Y46.926 E7.40631
G1 X104.083 Y46.405 E7.42554
G1 X104.285 Y45.908 E7.44478
G0 F2100 X104.683 Y46.009
G1 F1500 X104.954 Y45.582 E7.46292
G1 X105.289 Y45.204 E7.48104
G1 X105.68 Y44.883 E7.49918
G1 X106.117 Y44.628 E7.51733
G1 X106.588 Y44.444 E7.53546
G1 X107.082 Y44.338 E7.55359
G1 X107.74 Y44.301 E7.57722
G1 X126.839 Y44.3 E8.26225
G1 X127.537 Y44.31 E8.28729
G1 X128.04 Y44.357 E8.30541
G1 X128.53 Y44.483 E8.32356
G1 X128.994 Y44.685 E8.34171
G1 X129.42 Y44.957 E8.35983
G1 X129.798 Y45.292 E8.37795
G1 X130.118 Y45.683 E8.39607
G1 X130.373 Y46.12 E8.41422
G1 X130.556 Y46.591 E8.43234
G1 X130.663 Y47.085 E8.45047
G1 X130.699 Y47.74 E8.474
G1 X130.7 Y66.804 E9.15777
G1 X130.691 Y67.531 E9.18385
G1 X130.645 Y68.034 E9.20197
G1 X130.52 Y68.524 E9.2201
G1 X130.319 Y68.988 E9.23824
G1 X130.048 Y69.415 E9.25638
G1 X129.713 Y69.794 E9.27452
G1 X129.323 Y70.115 E9.29264
G1 X128.887 Y70.371 E9.31077
G1 X128.416 Y70.554 E9.3289
G1 X127.922 Y70.662 E9.34704
G1 X127.26 Y70.699 E9.37082
G1 X108.166 Y70.7 E10.05566
G1 X107.468 Y70.691 E10.0807
G1 X106.964 Y70.644 E10.09886
G1 X106.474 Y70.519 E10.11699
G1 X106.01 Y70.318 E10.13513
G1 X105.584 Y70.047 E10.15324
G1 X105.205 Y69.712 E10.17138
G1 X104.884 Y69.321 E10.18953
G1 X104.629 Y68.885 E10.20764
G1 X104.445 Y68.414 E10.22578
G1 X104.338 Y67.92 E10.24391
G1 X104.301 Y67.244 E10.26819
G1 X104.3 Y48.131 E10.95372
G1 X104.309 Y47.466 E10.97758
G1 X104.356 Y46.962 E10.99573
G1 X104.482 Y46.473 E11.01384
G1 X104.683 Y46.009 E11.03198
G1 F4200 E6.03198
;MESH:20mm_cube.stl
G0 F2100 X106.835 Y47.914
G0 X107.914 Y47.914
G0 X126.718 Y48.282
G0 X126.9 Y66.9
;TYPE:WALL-INNER
G1 F4200 E11.03198
G1 F1200 X108.1 Y66.9 E11.70628
G1 X108.1 Y48.1 E12.38058
G1 X126.9 Y48.1 E13.05489
G1 X126.9 Y66.9 E13.72919
G0 F2100 X127.3 Y67.3
;TYPE:WALL-OUTER
G1 F1200 X107.7 Y67.3 E14.43219
G1 X107.7 Y47.7 E15.13518
G1 X127.3 Y47.7 E15.83818
G1 X127.3 Y67.3 E16.54118
G0 F2100 X127.1 Y67.3
G0 X126.86 Y66.86
G0 X126.972 Y66.972
;MESH:NONMESH
G0 F600 X126.972 Y66.972 Z0.4
G0 F2100 X126.9 Y66.9
;TIME_ELAPSED:26.093639
;LAYER:1
M106 S255
;TYPE:WALL-INNER
;MESH:20mm_cube.stl
G1 F2610 X108.1 Y66.9 E16.94576
G1 X108.1 Y48.1 E17.35034
G1 X126.9 Y48.1 E17.75492
G1 X126.9 Y66.9 E18.1595
G0 F3150 X127.3 Y67.3
;TYPE:WALL-OUTER
G1 F1620 X107.7 Y67.3 E18.5813
G1 X107.7 Y47.7 E19.0031
G1 X127.3 Y47.7 E19.42489
G1 X127.3 Y67.3 E19.84669
G0 F3150 X127.1 Y67.3
G0 X126.86 Y66.86
G0 X126.972 Y66.972
;MESH:NONMESH
G0 F600 X126.972 Y66.972 Z0.55
G0 F3150 X126.9 Y66.9
;TIME_ELAPSED:30.870815
;LAYER:2
;TYPE:WALL-INNER
;MESH:20mm_cube.stl
G1 F4020 X108.1 Y66.9 E20.25127
G1 X108.1 Y48.1 E20.65586
G1 X126.9 Y48.1 E21.06044
G1 X126.9 Y66.9 E21.46502
G0 F4200 X127.3 Y67.3
;TYPE:WALL-OUTER
G1 F2040 X107.7 Y67.3 E21.88682
G1 X107.7 Y47.7 E22.30861
G1 X127.3 Y47.7 E22.73041
G1 X127.3 Y67.3 E23.15221
G0 F4200 X127.1 Y67.3
G0 X126.86 Y66.86
G0 X126.972 Y66.972
;MESH:NONMESH
G0 F600 X126.972 Y66.972 Z0.7
G0 F4200 X126.9 Y66.9
;TIME_ELAPSED:34.467996
;LAYER:3
;TYPE:WALL-INNER
;MESH:20mm_cube.stl
G1 F4020 X108.1 Y66.9 E23.55679
G1 X108.1 Y48.1 E23.96137
G1 X126.9 Y48.1 E24.36595
G1 X126.9 Y66.9 E24.77054
G0 F4200 X127.3 Y67.3
;TYPE:WALL-OUTER
G1 F2040 X107.7 Y67.3 E25.19233
G1 X107.7 Y47.7 E25.61413
G1 X127.3 Y47.7 E26.03593
G1 X127.3 Y67.3 E26.45773
G0 F4200 X127.1 Y67.3
G0 X126.86 Y66.86
G0 X126.972 Y66.972
;MESH:NONMESH
G0 F600 X126.972 Y66.972 Z0.85
G0 F4200 X126.9 Y66.9
;TIME_ELAPSED:38.065176
;LAYER:4
;TYPE:WALL-INNER
;MESH:20mm_cube.stl
G1 F4020 X108.1 Y66.9 E26.86231
G1 X108.1 Y48.1 E27.26689
G1 X126.9 Y48.1 E27.67147
G1 X126.9 Y66.9 E28.07605
G0 F4200 X127.3 Y67.3
;TYPE:WALL-OUTER
G1 F2040 X107.7 Y67.3 E28.49785
G1 X107.7 Y47.7 E28.91965
G1 X127.3 Y47.7 E29.34145
G1 X127.3 Y67.3 E29.76324
G0 F4200 X127.1 Y67.3
G0 X126.86 Y66.86
G0 X126.972 Y66.972
;MESH:NONMESH
G0 F600 X126.972 Y66.972 Z1
G0 F4200 X126.9 Y66.9
;TIME_ELAPSED:41.662357
;LAYER:5
;TYPE:WALL-INNER
;MESH:20mm_cube.stl
G1 F4020 X108.1 Y66.9 E30.16783
G1 X108.1 Y48.1 E30.57241
G1 X126.9 Y48.1 E30.97699
G1 X126.9 Y66.9 E31.38157
G0 F4200 X127.3 Y67.3
;TYPE:WALL-OUTER
G1 F2040 X107.7 Y67.3 E31.80337
G1 X107.7 Y47.7 E32.22517
G1 X127.3 Y47.7 E32.64696
G1 X127.3 Y67.3 E33.06876
G0 F4200 X127.1 Y67.3
G0 X126.86 Y66.86
G0 X126.972 Y66.972
;MESH:NONMESH
G0 F600 X126.972 Y66.972 Z1.15
G0 F4200 X126.9 Y66.9
;TIME_ELAPSED:45.259538
;LAYER:6
;TYPE:WALL-INNER
;MESH:20mm_cube.stl
G1 F4020 X108.1 Y66.9 E33.47334
G1 X108.1 Y48.1 E33.87792
G1 X126.9 Y48.1 E34.28251
G1 X126.9 Y66.9 E34.68709
G0 F4200 X127.3 Y67.3
;TYPE:WALL-OUTER
G1 F2040 X107.7 Y67.3 E35.10889
G1 X107.7 Y47.7 E35.53068
G1 X127.3 Y47.7 E35.95248
G1 X127.3 Y67.3 E36.37428
G0 F4200 X127.1 Y67.3
G0 X126.86 Y66.86
G0 X126.972 Y66.972
;MESH:NONMESH
G0 F600 X126.972 Y66.972 Z1.3
G0 F4200 X126.9 Y66.9
;TIME_ELAPSED:48.856719
;LAYER:7
;TYPE:WALL-INNER
;MESH:20mm_cube.stl
G1 F4020 X108.1 Y66.9 E36.77886
G1 X108.1 Y48.1 E37.18344
G1 X126.9 Y48.1 E37.58802
G1 X126.9 Y66.9 E37.9926
G0 F4200 X127.3 Y67.3
;TYPE:WALL-OUTER
G1 F2040 X107.7 Y67.3 E38.4144
G1 X107.7 Y47.7 E38.8362
G1 X127.3 Y47.7 E39.258
G1 X127.3 Y67.3 E39.6798
G0 F4200 X127.1 Y67.3
G0 X126.86 Y66.86
G0 X126.972 Y66.972
;MESH:NONMESH
G0 F600 X126.972 Y66.972 Z1.45
G0 F4200 X126.9 Y66.9
;TIME_ELAPSED:52.453900
;LAYER:8
;TYPE:WALL-INNER
;MESH:20mm_cube.stl
G1 F4020 X108.1 Y66.9 E40.08438
G1 X108.1 Y48.1 E40.48896
G1 X126.9 Y48.1 E40.89354
G1 X126.9 Y66.9 E41.29812
G0 F4200 X127.3 Y67.3
;TYPE:WALL-OUTER
G1 F2040 X107.7 Y67.3 E41.71992
G1 X107.7 Y47.7 E42.14172
G1 X127.3 Y47.7 E42.56352
G1 X127.3 Y67.3 E42.98531
G0 F4200 X127.1 Y67.3
G0 X126.86 Y66.86
G0 X126.972 Y66.972
;MESH:NONMESH
G0 F600 X126.972 Y66.972 Z1.6
G0 F4200 X126.9 Y66.9
;TIME_ELAPSED:56.051081
;LAYER:9
;TYPE:WALL-INNER
;MESH:20mm_cube.stl
G1 F4020 X108.1 Y66.9 E43.38989
G1 X108.1 Y48.1 E43.79448
G1 X126.9 Y48.1 E44.19906
G1 X126.9 Y66.9 E44.60364
G0 F4200 X127.3 Y67.3
;TYPE:WALL-OUTER
G1 F2040 X107.7 Y67.3 E45.02544
G1 X107.7 Y47.7 E45.44724
G1 X127.3 Y47.7 E45.86903
G1 X127.3 Y67.3 E46.29083
G0 F4200 X127.1 Y67.3
G0 X126.86 Y66.86
G0 X126.972 Y66.972
;MESH:NONMESH
G0 F600 X126.972 Y66.972 Z1.75
G0 F4200 X126.9 Y66.9
;TIME_ELAPSED:59.648262
;LAYER:10
;TYPE:WALL-INNER
;MESH:20mm_cube.stl
G1 F4020 X108.1 Y66.9 E46.69541
G1 X108.1 Y48.1 E47.09999
G1 X126.9 Y48.1 E47.50458
G1 X126.9 Y66.9 E47.90916
G0 F4200 X127.3 Y67.3
;TYPE:WALL-OUTER
G1 F2040 X107.7 Y67.3 E48.33095
G1 X107.7 Y47.7 E48.75275
G1 X127.3 Y47.7 E49.17455
G1 X127.3 Y67.3 E49.59635
G0 F4200 X127.1 Y67.3
G0 X126.86 Y66.86
G0 X126.972 Y66.972
;MESH:NONMESH
G0 F600 X126.972 Y66.972 Z1.9
G0 F4200 X126.9 Y66.9
;TIME_ELAPSED:63.245442
;LAYER:11
;TYPE:WALL-INNER
;MESH:20mm_cube.stl
G1 F4020 X108.1 Y66.9 E50.00093
G1 X108.1 Y48.1 E50.40551
G1 X126.9 Y48.1 E50.81009
G1 X126.9 Y66.9 E51.21467
G0 F4200 X127.3 Y67.3
;TYPE:WALL-OUTER
G1 F2040 X107.7 Y67.3 E51.63647
G1 X107.7 Y47.7 E52.05827
G1 X127.3 Y47.7 E52.48007
G1 X127.3 Y67.3 E52.90187
G0 F4200 X127.1 Y67.3
G0 X126.86 Y66.86
G0 X126.972 Y66.972
;MESH:NONMESH
G0 F600 X126.972 Y66.972 Z2.05
G0 F4200 X126.9 Y66.9
;TIME_ELAPSED:66.842623
;LAYER:12
;TYPE:WALL-INNER
;MESH:20mm_cube.stl
G1 F4020 X108.1 Y66.9 E53.30645
G1 X108.1 Y48.1 E53.71103
G1 X126.9 Y48.1 E54.11561
G1 X126.9 Y66.9 E54.52019
G0 F4200 X127.3 Y67.3
;TYPE:WALL-OUTER
G1 F2040 X107.7 Y67.3 E54.94199
G1 X107.7 Y47.7 E55.36379
G1 X127.3 Y47.7 E55.78558
G1 X127.3 Y67.3 E56.20738
G0 F4200 X127.1 Y67.3
G0 X126.86 Y66.86
G0 X126.972 Y66.972
;MESH:NONMESH
G0 F600 X126.972 Y66.972 Z2.2
G0 F4200 X126.9 Y66.9
;TIME_ELAPSED:70.439804
;LAYER:13
;TYPE:WALL-INNER
;MESH:20mm_cube.stl
G1 F4020 X108.1 Y66.9 E56.61196
G1 X108.1 Y48.1 E57.01655
G1 X126.9 Y48.1 E57.42113
G1 X126.9 Y66.9 E57.82571
G0 F4200 X127.3 Y67.3
;TYPE:WALL-OUTER
G1 F2040 X107.7 Y67.3 E58.24751
G1 X107.7 Y47.7 E58.6693
G1 X127.3 Y47.7 E59.0911
G1 X127.3 Y67.3 E59.5129
G0 F4200 X127.1 Y67.3
G0 X126.86 Y66.86
G0 X126.972 Y66.972
;MESH:NONMESH
G0 F600 X126.972 Y66.972 Z2.35
G0 F4200 X126.9 Y66.9
;TIME_ELAPSED:74.036985
;LAYER:14
;TYPE:WALL-INNER
;MESH:20mm_cube.stl
G1 F4020 X108.1 Y66.9 E59.91748
G1 X108.1 Y48.1 E60.32206
G1 X126.9 Y48.1 E60.72664
G1 X126.9 Y66.9 E61.13123
G0 F4200 X127.3 Y67.3
;TYPE:WALL-OUTER
G1 F2040 X107.7 Y67.3 E61.55302
G1 X107.7 Y47.7 E61.97482
G1 X127.3 Y47.7 E62.39662
G1 X127.3 Y67.3 E62.81842
G0 F4200 X127.1 Y67.3
G0 X126.86 Y66.86
G0 X126.972 Y66.972
;MESH:NONMESH
G0 F600 X126.972 Y66.972 Z2.5
G0 F4200 X126.9 Y66.9
;TIME_ELAPSED:77.634166
;LAYER:15
;TYPE:WALL-INNER
;MESH:20mm_cube.stl
G1 F4020 X108.1 Y66.9 E63.223
G1 X108.1 Y48.1 E63.62758
G1 X126.9 Y48.1 E64.03216
G1 X126.9 Y66.9 E64.43674
G0 F4200 X127.3 Y67.3
;TYPE:WALL-OUTER
G1 F2040 X107.7 Y67.3 E64.85854
G1 X107.7 Y47.7 E65.28034
G1 X127.3 Y47.7 E65.70214
G1 X127.3 Y67.3 E66.12393
G0 F4200 X127.1 Y67.3
G0 X126.86 Y66.86
G0 X126.972 Y66.972
;MESH:NONMESH
G0 F600 X126.972 Y66.972 Z2.65
G0 F4200 X126.9 Y66.9
;TIME_ELAPSED:81.231347
;LAYER:16
;TYPE:WALL-INNER
;MESH:20mm_cube.stl
G1 F4020 X108.1 Y66.9 E66.52852
G1 X108.1 Y48.1 E66.9331
G1 X126.9 Y48.1 E67.33768
G1 X126.9 Y66.9 E67.74226
G0 F4200 X127.3 Y67.3
;TYPE:WALL-OUTER
G1 F2040 X107.7 Y67.3 E68.16406
G1 X107.7 Y47.7 E68.58586
G1 X127.3 Y47.7 E69.00765
G1 X127.3 Y67.3 E69.42945
G0 F4200 X127.1 Y67.3
G0 X126.86 Y66.86
G0 X126.972 Y66.972
;MESH:NONMESH
G0 F600 X126.972 Y66.972 Z2.8
G0 F4200 X126.9 Y66.9
;TIME_ELAPSED:84.828528
;LAYER:17
;TYPE:WALL-INNER
;MESH:20mm_cube.stl
G1 F4020 X108.1 Y66.9 E69.83403
G1 X108.1 Y48.1 E70.23861
G1 X126.9 Y48.1 E70.6432
G1 X126.9 Y66.9 E71.04778
G0 F4200 X127.3 Y67.3
;TYPE:WALL-OUTER
G1 F2040 X107.7 Y67.3 E71.46958
G1 X107.7 Y47.7 E71.89137
G1 X127.3 Y47.7 E72.31317
G1 X127.3 Y67.3 E72.73497
G0 F4200 X127.1 Y67.3
G0 X126.86 Y66.86
G0 X126.972 Y66.972
;MESH:NONMESH
G0 F600 X126.972 Y66.972 Z2.95
G0 F4200 X126.9 Y66.9
;TIME_ELAPSED:88.425709
;LAYER:18
;TYPE:WALL-INNER
;MESH:20mm_cube.stl
G1 F4020 X108.1 Y66.9 E73.13955
G1 X108.1 Y48.1 E73.54413
G1 X126.9 Y48.1 E73.94871
G1 X126.9 Y66.9 E74.3533
G0 F4200 X127.3 Y67.3
;TYPE:WALL-OUTER
G1 F2040 X107.7 Y67.3 E74.77509
G1 X107.7 Y47.7 E75.19689
G1 X127.3 Y47.7 E75.61869
G1 X127.3 Y67.3 E76.04049
G0 F4200 X127.1 Y67.3
G0 X126.86 Y66.86
G0 X126.972 Y66.972
;MESH:NONMESH
G0 F600 X126.972 Y66.972 Z3.1
G0 F4200 X126.9 Y66.9
;TIME_ELAPSED:92.022889
;LAYER:19
;TYPE:WALL-INNER
;MESH:20mm_cube.stl
G1 F4020 X108.1 Y66.9 E76.44507
G1 X108.1 Y48.1 E76.84965
G1 X126.9 Y48.1 E77.25423
G1 X126.9 Y66.9 E77.65881
G0 F4200 X127.3 Y67.3
;TYPE:WALL-OUTER
G1 F2040 X107.7 Y67.3 E78.08061
G1 X107.7 Y47.7 E78.50241
G1 X127.3 Y47.7 E78.92421
G1 X127.3 Y67.3 E79.346
G0 F4200 X127.1 Y67.3
G0 X126.86 Y66.86
G0 X126.972 Y66.972
;MESH:NONMESH
G0 F600 X126.972 Y66.972 Z3.25
G0 F4200 X126.9 Y66.9
;TIME_ELAPSED:95.620070
;LAYER:20
;TYPE:WALL-INNER
;MESH:20mm_cube.stl
G1 F4020 X108.1 Y66.9 E79.75058
G1 X108.1 Y48.1 E80.15517
G1 X126.9 Y48.1 E80.55975
G1 X126.9 Y66.9 E80.96433
G0 F4200 X127.3 Y67.3
;TYPE:WALL-OUTER
G1 F2040 X107.7 Y67.3 E81.38613
G1 X107.7 Y47.7 E81.80793
G1 X127.3 Y47.7 E82.22972
G1 X127.3 Y67.3 E82.65152
G0 F4200 X127.1 Y67.3
G0 X126.86 Y66.86
G0 X126.972 Y66.972
;MESH:NONMESH
G0 F600 X126.972 Y66.972 Z3.4
G0 F4200 X126.9 Y66.9
;TIME_ELAPSED:99.217251
;LAYER:21
;TYPE:WALL-INNER
;MESH:20mm_cube.stl
G1 F4020 X108.1 Y66.9 E83.0561
G1 X108.1 Y48.1 E83.46068
G1 X126.9 Y48.1 E83.86527
G1 X126.9 Y66.9 E84.26985
G0 F4200 X127.3 Y67.3
;TYPE:WALL-OUTER
G1 F2040 X107.7 Y67.3 E84.69164
G1 X107.7 Y47.7 E85.11344
G1 X127.3 Y47.7 E85.53524
G1 X127.3 Y67.3 E85.95704
G0 F4200 X127.1 Y67.3
G0 X126.86 Y66.86
G0 X126.972 Y66.972
;MESH:NONMESH
G0 F600 X126.972 Y66.972 Z3.55
G0 F4200 X126.9 Y66.9
;TIME_ELAPSED:102.814432
;LAYER:22
;TYPE:WALL-INNER
;MESH:20mm_cube.stl
G1 F4020 X108.1 Y66.9 E86.36162
G1 X108.1 Y48.1 E86.7662
G1 X126.9 Y48.1 E87.17078
G1 X126.9 Y66.9 E87.57536
G0 F4200 X127.3 Y67.3
;TYPE:WALL-OUTER
G1 F2040 X107.7 Y67.3 E87.99716
G1 X107.7 Y47.7 E88.41896
G1 X127.3 Y47.7 E88.84076
G1 X127.3 Y67.3 E89.26256
G0 F4200 X127.1 Y67.3
G0 X126.86 Y66.86
G0 X126.972 Y66.972
;MESH:NONMESH
G0 F600 X126.972 Y66.972 Z3.7
G0 F4200 X126.9 Y66.9
;TIME_ELAPSED:106.411613
;LAYER:23
;TYPE:WALL-INNER
;MESH:20mm_cube.stl
G1 F4020 X108.1 Y66.9 E89.66714
G1 X108.1 Y48.1 E90.07172
G1 X126.9 Y48.1 E90.4763
G1 X126.9 Y66.9 E90.88088
G0 F4200 X127.3 Y67.3
;TYPE:WALL-OUTER
G1 F2040 X107.7 Y67.3 E91.30268
