;FLAVOR:Marlin
;TIME:954
;Filament used: 0.713209m
;Layer height: 0.2
;MINX:146.885
;MINY:99.815
;MINZ:0.25
;MAXX:182.242
;MAXY:135.185
;MAXZ:8.45
;Generated with Cura_SteamEngine 4.8
M140 S100
M105
M190 S100
M104 S230
M105
M109 S230
M82 ;absolute extrusion mode
G28 ;home
G92 E0 ;Reset Extruder
G1 Z4.0 F3000 ;Move Z Axis up
G1 X1.1 Y20 Z0.28 F5000.0 ;Move to start position
G1 X1.1 Y200.0 Z0.28 F1500.0 E15 ;Draw the first line
G1 X1.4 Y200.0 Z0.28 F5000.0 ;Move to side a little
G1 X1.4 Y20 Z0.28 F1500.0 E30 ;Draw the second line
G92 E0 ;Reset Extruder
G1 Z2.0 F3000 ;Move Z Axis up
G92 E0
G92 E0
G1 F4200 E-5
;LAYER_COUNT:44
;LAYER:0
M107
G0 F2100 X150.161 Y107.236 Z0.25
;TYPE:SKIRT
G1 F4200 E0
G1 F1500 X150.543 Y106.732 E0.02629
G1 X150.682 Y106.553 E0.03571
G1 X151.176 Y105.939 E0.06848
G1 X151.36 Y105.732 E0.07999
G1 X151.88 Y105.184 E0.1114
G1 X152.468 Y104.595 E0.146
G1 X153.17 Y103.982 E0.18475
G1 X153.427 Y103.77 E0.1986
G1 X153.953 Y103.349 E0.22661
G1 X154.301 Y103.096 E0.2445
G1 X155.004 Y102.628 E0.27961
G1 X155.587 Y102.259 E0.3083
G1 X155.873 Y102.094 E0.32202
G1 X156.489 Y101.772 E0.35092
G1 X157.309 Y101.37 E0.38889
G1 X157.678 Y101.209 E0.40563
G1 X158.264 Y100.982 E0.43175
G1 X158.502 Y100.893 E0.44232
G1 X159.113 Y100.674 E0.4693
G1 X159.566 Y100.535 E0.489
G1 X160.298 Y100.344 E0.52046
G1 X161.021 Y100.171 E0.55136
G1 X161.348 Y100.107 E0.56522
G1 X162.047 Y100.001 E0.59461
G1 X162.254 Y99.972 E0.6033
G1 X162.915 Y99.89 E0.63099
G1 X163.351 Y99.854 E0.64918
G1 X163.929 Y99.832 E0.67323
G1 X164.202 Y99.824 E0.68458
G1 X164.88 Y99.815 E0.71277
G1 X165.292 Y99.828 E0.72991
G1 X166.079 Y99.886 E0.76272
G1 X166.855 Y99.962 E0.79514
G1 X167.734 Y100.106 E0.83217
G1 X168.091 Y100.176 E0.84729
G1 X168.709 Y100.304 E0.87353
G1 X169.033 Y100.385 E0.88742
G1 X169.755 Y100.6 E0.91874
G1 X169.942 Y100.658 E0.92688
G1 X170.621 Y100.882 E0.9566
G1 X170.918 Y100.994 E0.9698
G1 X171.634 Y101.296 E1.00211
G1 X172.405 Y101.645 E1.03729
G1 X172.705 Y101.797 E1.05127
G1 X173.32 Y102.141 E1.08057
G1 X173.508 Y102.25 E1.0896
G1 X174.108 Y102.609 E1.11867
G1 X174.43 Y102.821 E1.1347
G1 X174.915 Y103.167 E1.15947
G1 X175.11 Y103.31 E1.16952
G1 X175.681 Y103.741 E1.19927
G1 X175.94 Y103.954 E1.21321
G1 X176.434 Y104.397 E1.2408
G1 X176.611 Y104.56 E1.2508
G1 X177.106 Y105.028 E1.27912
G1 X177.73 Y105.698 E1.31719
G1 X177.992 Y106 E1.33381
G1 X178.435 Y106.524 E1.36234
G1 X178.636 Y106.783 E1.37597
G1 X179.03 Y107.335 E1.40416
G1 X179.152 Y107.512 E1.4131
G1 X179.561 Y108.121 E1.4436
G1 X179.739 Y108.412 E1.45778
G1 X180.143 Y109.143 E1.49251
G1 X180.484 Y109.791 E1.52295
G1 X180.66 Y110.167 E1.54021
G1 X180.897 Y110.731 E1.56564
G1 X180.978 Y110.933 E1.57469
G1 X181.237 Y111.596 E1.60428
G1 X181.375 Y112.004 E1.62219
G1 X181.54 Y112.562 E1.64638
G1 X181.604 Y112.788 E1.65615
G1 X181.8 Y113.523 E1.68777
G1 X181.873 Y113.852 E1.70179
G1 X181.986 Y114.489 E1.72868
G1 X182.125 Y115.392 E1.76667
G1 X182.169 Y115.799 E1.78369
G1 X182.205 Y116.33 E1.80581
G1 X182.242 Y117.246 E1.84393
G1 X182.241 Y117.762 E1.86538
G1 X182.21 Y118.558 E1.8985
G1 X182.162 Y119.281 E1.92862
G1 X182.116 Y119.683 E1.94545
G1 X182.024 Y120.282 E1.97064
G1 X181.862 Y121.195 E2.00919
G1 X181.792 Y121.513 E2.02273
G1 X181.631 Y122.117 E2.04872
G1 X181.532 Y122.464 E2.06372
G1 X181.345 Y123.091 E2.09092
G1 X181.033 Y123.932 E2.12822
G1 X180.906 Y124.246 E2.1423
G1 X180.632 Y124.895 E2.17159
G1 X180.447 Y125.282 E2.18942
G1 X180.08 Y125.976 E2.22206
G1 X179.703 Y126.648 E2.25409
G1 X179.537 Y126.917 E2.26724
G1 X179.223 Y127.385 E2.29067
G1 X179.023 Y127.674 E2.30528
G1 X178.622 Y128.235 E2.33395
G1 X178.377 Y128.548 E2.35047
G1 X177.992 Y129.002 E2.37522
G1 X177.809 Y129.211 E2.38677
G1 X177.344 Y129.728 E2.41568
G1 X177.124 Y129.954 E2.42879
G1 X176.637 Y130.415 E2.45667
G1 X176.447 Y130.591 E2.46744
G1 X175.937 Y131.047 E2.49588
G1 X175.613 Y131.311 E2.51326
G1 X174.955 Y131.803 E2.54742
G1 X174.36 Y132.226 E2.57777
G1 X173.577 Y132.71 E2.61604
G1 X173.287 Y132.877 E2.62995
G1 X172.683 Y133.215 E2.65873
G1 X172.383 Y133.366 E2.67269
G1 X171.693 Y133.678 E2.70417
G1 X170.914 Y134.008 E2.73935
G1 X170.523 Y134.153 E2.75669
G1 X169.966 Y134.334 E2.78104
G1 X169.747 Y134.402 E2.79057
G1 X169.055 Y134.608 E2.82059
G1 X168.734 Y134.689 E2.83435
G1 X167.916 Y134.859 E2.86909
G1 X167.135 Y134.999 E2.90207
G1 X166.737 Y135.053 E2.91877
G1 X165.925 Y135.127 E2.95267
G1 X165.183 Y135.177 E2.98359
G1 X164.846 Y135.185 E2.9976
G1 X163.987 Y135.17 E3.03332
G1 X163.269 Y135.14 E3.0632
G1 X162.341 Y135.039 E3.10201
G1 X162.071 Y135.002 E3.11334
G1 X161.318 Y134.887 E3.14501
G1 X160.991 Y134.823 E3.15886
G1 X160.303 Y134.658 E3.18828
G1 X160.116 Y134.61 E3.1963
G1 X159.442 Y134.429 E3.22532
G1 X159.059 Y134.308 E3.24202
G1 X158.462 Y134.093 E3.2684
G1 X158.241 Y134.009 E3.27823
G1 X157.63 Y133.771 E3.30549
G1 X157.215 Y133.586 E3.32438
G1 X156.507 Y133.237 E3.3572
G1 X155.86 Y132.897 E3.38758
G1 X155.503 Y132.689 E3.40476
G1 X154.829 Y132.258 E3.43802
G1 X154.21 Y131.84 E3.46908
G1 X153.879 Y131.594 E3.48622
G1 X153.24 Y131.077 E3.52039
G1 X152.697 Y130.617 E3.54998
G1 X152.455 Y130.393 E3.56369
G1 X152.003 Y129.941 E3.59027
G1 X151.837 Y129.77 E3.60018
G1 X151.344 Y129.251 E3.62994
G1 X151.123 Y128.998 E3.6439
G1 X150.702 Y128.473 E3.67188
G1 X150.131 Y127.722 E3.7111
G1 X149.877 Y127.354 E3.72969
G1 X149.436 Y126.65 E3.76423
G1 X149.091 Y126.068 E3.79236
G1 X148.891 Y125.693 E3.81003
G1 X148.59 Y125.073 E3.83868
G1 X148.248 Y124.326 E3.87284
G1 X148.101 Y123.965 E3.88904
G1 X147.861 Y123.293 E3.91871
G1 X147.588 Y122.46 E3.95516
G1 X147.477 Y122.067 E3.97213
G1 X147.323 Y121.413 E4.00007
G1 X147.144 Y120.561 E4.03626
G1 X147.091 Y120.24 E4.04979
G1 X146.997 Y119.489 E4.08126
G1 X146.914 Y118.645 E4.11652
G1 X146.892 Y118.209 E4.13466
G1 X146.885 Y117.65 E4.15791
G1 X146.885 Y117.362 E4.16988
G1 X146.895 Y116.695 E4.19761
G1 X146.923 Y116.249 E4.21619
G1 X147 Y115.485 E4.24812
G1 X147.093 Y114.742 E4.27925
G1 X147.146 Y114.422 E4.29273
G1 X147.31 Y113.641 E4.32591
G1 X147.504 Y112.829 E4.36062
G1 X147.593 Y112.518 E4.37407
G1 X147.828 Y111.802 E4.4054
G1 X148.115 Y110.999 E4.44085
G1 X148.26 Y110.644 E4.4568
G1 X148.556 Y109.998 E4.48634
G1 X148.656 Y109.789 E4.49597
G1 X148.935 Y109.22 E4.52232
G1 X149.142 Y108.843 E4.5402
G1 X149.568 Y108.137 E4.57448
G1 X149.919 Y107.583 E4.60175
G1 X150.161 Y107.236 E4.61934
G0 F2100 X150.48 Y107.477
G1 F1500 X150.858 Y106.977 E4.6454
G1 X150.994 Y106.804 E4.65455
G1 X151.485 Y106.193 E4.68713
G1 X151.65 Y106.007 E4.69747
G1 X152.163 Y105.467 E4.72844
G1 X152.751 Y104.878 E4.76304
G1 X153.428 Y104.287 E4.8004
G1 X153.677 Y104.082 E4.81381
G1 X154.203 Y103.661 E4.84182
G1 X154.523 Y103.428 E4.85828
G1 X155.218 Y102.966 E4.89297
G1 X155.801 Y102.597 E4.92166
G1 X156.058 Y102.449 E4.93399
G1 X156.761 Y102.083 E4.96694
G1 X157.485 Y101.729 E5.00045
G1 X157.823 Y101.582 E5.01577
G1 X158.404 Y101.356 E5.04169
G1 X158.637 Y101.269 E5.05203
G1 X159.248 Y101.05 E5.07901
G1 X159.667 Y100.922 E5.09723
G1 X160.391 Y100.733 E5.12834
G1 X161.114 Y100.56 E5.15925
G1 X161.409 Y100.502 E5.17174
G1 X162.101 Y100.397 E5.20084
G1 X162.303 Y100.369 E5.20932
G1 X162.964 Y100.287 E5.23701
G1 X163.366 Y100.254 E5.25378
G1 X163.94 Y100.231 E5.27767
G1 X164.207 Y100.224 E5.28877
G1 X164.885 Y100.215 E5.31696
G1 X165.264 Y100.227 E5.33273
G1 X166.04 Y100.284 E5.36508
G1 X166.816 Y100.36 E5.39749
G1 X167.662 Y100.499 E5.43314
G1 X168.01 Y100.568 E5.44789
G1 X168.628 Y100.696 E5.47413
G1 X168.919 Y100.769 E5.4866
G1 X169.636 Y100.981 E5.51768
G1 X169.817 Y101.038 E5.52557
G1 X170.496 Y101.262 E5.5553
G1 X170.763 Y101.362 E5.56715
G1 X171.469 Y101.66 E5.59901
G1 X172.24 Y102.009 E5.6342
G1 X172.51 Y102.146 E5.64679
G1 X173.12 Y102.487 E5.67584
G1 X173.302 Y102.593 E5.6846
G1 X173.902 Y102.952 E5.71367
G1 X174.198 Y103.146 E5.72838
G1 X174.679 Y103.49 E5.75297
G1 X174.869 Y103.63 E5.76278
G1 X175.44 Y104.061 E5.79252
G1 X175.673 Y104.252 E5.80505
G1 X176.164 Y104.692 E5.83246
G1 X176.336 Y104.851 E5.8422
G1 X176.831 Y105.319 E5.87052
G1 X177.432 Y105.964 E5.90717
G1 X177.686 Y106.258 E5.92332
G1 X178.129 Y106.782 E5.95185
G1 X178.311 Y107.015 E5.96414
G1 X178.701 Y107.563 E5.99211
G1 X178.82 Y107.735 E6.0008
G1 X179.229 Y108.344 E6.0313
G1 X179.389 Y108.606 E6.04406
G1 X179.789 Y109.33 E6.07845
G1 X180.13 Y109.978 E6.1089
G1 X180.291 Y110.323 E6.12473
G1 X180.526 Y110.88 E6.14986
G1 X180.864 Y111.741 E6.18831
G1 X180.991 Y112.118 E6.20485
G1 X181.156 Y112.671 E6.22885
G1 X181.217 Y112.891 E6.23834
G1 X181.413 Y113.626 E6.26996
G1 X181.479 Y113.922 E6.28257
G1 X181.591 Y114.554 E6.30926
G1 X181.625 Y114.762 E6.31802
G1 X181.73 Y115.452 E6.34704
G1 X181.77 Y115.826 E6.36267
G1 X181.806 Y116.357 E6.3848
G1 X181.842 Y117.262 E6.42246
G1 X181.838 Y117.857 E6.44719
G1 X181.805 Y118.641 E6.47982
G1 X181.763 Y119.253 E6.50532
G1 X181.721 Y119.623 E6.5208
G1 X181.63 Y120.215 E6.54571
G1 X181.59 Y120.449 E6.55558
G1 X181.469 Y121.124 E6.58409
G1 X181.405 Y121.411 E6.59631
G1 X181.246 Y122.008 E6.622
G1 X181.149 Y122.35 E6.63678
G1 X180.962 Y122.977 E6.66398
G1 X180.661 Y123.787 E6.6999
G1 X180.538 Y124.09 E6.7135
G1 X180.264 Y124.739 E6.74279
G1 X180.093 Y125.095 E6.75921
G1 X179.731 Y125.78 E6.79142
G1 X179.354 Y126.452 E6.82345
G1 X179.205 Y126.694 E6.83527
G1 X178.894 Y127.158 E6.85849
G1 X178.698 Y127.441 E6.8728
G1 X178.297 Y128.002 E6.90147
G1 X178.072 Y128.29 E6.91667
G1 X177.691 Y128.738 E6.94112
G1 X177.512 Y128.943 E6.95243
G1 X177.047 Y129.46 E6.98134
G1 X176.848 Y129.664 E6.99319
G1 X176.365 Y130.122 E7.02086
G1 X176.181 Y130.293 E7.03131
G1 X175.671 Y130.749 E7.05975
G1 X175.373 Y130.991 E7.07571
G1 X174.723 Y131.477 E7.10945
G1 X174.128 Y131.9 E7.13981
G1 X173.372 Y132.366 E7.17673
G1 X173.092 Y132.528 E7.19018
G1 X172.488 Y132.866 E7.21895
G1 X172.218 Y133.002 E7.23152
G1 X171.537 Y133.31 E7.26259
G1 X170.758 Y133.64 E7.29777
G1 X170.399 Y133.773 E7.31369
G1 X169.847 Y133.952 E7.33781
G1 X169.633 Y134.018 E7.34712
G1 X168.941 Y134.224 E7.37714
G1 X168.652 Y134.297 E7.38953
G1 X167.837 Y134.466 E7.42414
G1 X167.763 Y134.481 E7.42728
G1 X167.065 Y134.606 E7.45676
G1 X166.7 Y134.655 E7.47207
G1 X165.898 Y134.728 E7.50555
G1 X165.156 Y134.778 E7.53647
G1 X164.852 Y134.785 E7.54911
G1 X164.004 Y134.77 E7.58437
G1 X163.286 Y134.74 E7.61425
G1 X162.391 Y134.643 E7.65168
G1 X162.132 Y134.607 E7.66255
G1 X161.379 Y134.492 E7.69422
G1 X161.084 Y134.434 E7.70672
G1 X160.402 Y134.27 E7.73588
G1 X160.219 Y134.224 E7.74372
G1 X159.545 Y134.043 E7.77274
G1 X159.195 Y133.932 E7.788
G1 X158.603 Y133.718 E7.81417
G1 X158.386 Y133.636 E7.82382
G1 X157.775 Y133.398 E7.85108
G1 X157.391 Y133.227 E7.86856
G1 X156.693 Y132.883 E7.90091
G1 X156.046 Y132.543 E7.9313
G1 X155.718 Y132.351 E7.9471
G1 X155.053 Y131.926 E7.97991
G1 X154.434 Y131.508 E8.01096
G1 X154.13 Y131.282 E8.02671
G1 X153.499 Y130.772 E8.06044
G1 X152.956 Y130.312 E8.09003
G1 X152.737 Y130.111 E8.10239
G1 X152.29 Y129.662 E8.12873
G1 X152.127 Y129.494 E8.13846
G1 X151.634 Y128.975 E8.16822
G1 X151.435 Y128.748 E8.18077
G1 X150.954 Y128.146 E8.21281
G1 X150.449 Y127.48 E8.24756
G1 X150.216 Y127.141 E8.26466
G1 X149.78 Y126.446 E8.29877
G1 X149.435 Y125.864 E8.3269
G1 X149.25 Y125.517 E8.34325
G1 X148.954 Y124.907 E8.37144
G1 X148.612 Y124.16 E8.40559
G1 X148.478 Y123.831 E8.42036
G1 X148.206 Y123.065 E8.45416
G1 X147.968 Y122.336 E8.48604
G1 X147.867 Y121.975 E8.50162
G1 X147.715 Y121.331 E8.52913
G1 X147.536 Y120.479 E8.56533
G1 X147.487 Y120.19 E8.57752
G1 X147.395 Y119.45 E8.60852
G1 X147.312 Y118.606 E8.64378
G1 X147.292 Y118.204 E8.66051
G1 X147.285 Y117.645 E8.68375
G1 X147.285 Y117.368 E8.69527
G1 X147.295 Y116.701 E8.723
G1 X147.321 Y116.288 E8.74021
G1 X147.397 Y115.535 E8.77167
G1 X147.49 Y114.792 E8.8028
G1 X147.538 Y114.504 E8.81494
G1 X147.701 Y113.727 E8.84795
G1 X147.893 Y112.923 E8.88232
G1 X147.973 Y112.642 E8.89446
G1 X148.205 Y111.936 E8.92536
G1 X148.492 Y111.133 E8.96081
G1 X148.623 Y110.81 E8.9753
G1 X148.917 Y110.17 E9.00459
G1 X149.015 Y109.965 E9.01403
G1 X149.294 Y109.396 E9.04038
G1 X149.485 Y109.049 E9.05685
G1 X149.906 Y108.351 E9.09074
G1 X150.257 Y107.797 E9.118
G1 X150.48 Y107.477 E9.13422
G0 F2100 X150.799 Y107.718
G1 F1500 X151.174 Y107.223 E9.16004
G1 X151.306 Y107.054 E9.16895
G1 X151.794 Y106.448 E9.2013
G1 X151.941 Y106.282 E9.21052
G1 X152.446 Y105.749 E9.24105
G1 X153.034 Y105.16 E9.27565
G1 X153.686 Y104.593 E9.31157
G1 X153.927 Y104.395 E9.32454
G1 X154.453 Y103.974 E9.35255
G1 X154.745 Y103.761 E9.36757
G1 X155.432 Y103.304 E9.40188
G1 X156.015 Y102.935 E9.43056
G1 X156.244 Y102.803 E9.44155
G1 X156.936 Y102.442 E9.474
G1 X157.66 Y102.088 E9.50751
G1 X157.968 Y101.955 E9.52146
G1 X158.544 Y101.731 E9.54715
G1 X158.772 Y101.646 E9.55727
G1 X159.383 Y101.427 E9.58425
G1 X159.769 Y101.309 E9.60103
G1 X160.484 Y101.122 E9.63176
G1 X161.207 Y100.949 E9.66267
G1 X161.469 Y100.898 E9.67376
G1 X162.156 Y100.793 E9.70266
G1 X162.352 Y100.766 E9.71088
G1 X163.013 Y100.684 E9.73858
G1 X163.382 Y100.653 E9.75397
G1 X163.951 Y100.631 E9.77765
G1 X164.213 Y100.624 E9.78854
G1 X164.891 Y100.615 E9.81673
G1 X165.235 Y100.626 E9.83104
G1 X166.001 Y100.682 E9.86297
G1 X166.777 Y100.758 E9.89539
G1 X167.59 Y100.893 E9.92965
G1 X167.929 Y100.96 E9.94402
G1 X168.547 Y101.088 E9.97026
G1 X168.806 Y101.152 E9.98135
G1 X169.517 Y101.363 E10.01218
G1 X169.692 Y101.418 E10.01981
G1 X170.371 Y101.642 E10.04954
G1 X170.608 Y101.731 E10.06006
G1 X171.304 Y102.025 E10.09147
G1 X172.075 Y102.374 E10.12666
G1 X172.315 Y102.495 E10.13783
G1 X172.92 Y102.833 E10.16665
G1 X173.097 Y102.936 E10.17516
G1 X173.697 Y103.295 E10.20423
G1 X173.965 Y103.472 E10.21758
G1 X174.442 Y103.813 E10.24196
G1 X174.628 Y103.949 E10.25154
G1 X175.199 Y104.38 E10.28128
G1 X175.406 Y104.55 E10.29242
G1 X175.893 Y104.987 E10.31962
G1 X176.061 Y105.142 E10.32913
G1 X176.556 Y105.61 E10.35745
G1 X177.134 Y106.231 E10.39272
G1 X177.381 Y106.516 E10.4084
G1 X177.824 Y107.04 E10.43693
G1 X177.985 Y107.247 E10.44783
G1 X178.372 Y107.791 E10.47558
G1 X178.488 Y107.958 E10.48404
G1 X178.897 Y108.567 E10.51454
G1 X179.039 Y108.8 E10.52588
G1 X179.435 Y109.516 E10.5599
G1 X179.776 Y110.164 E10.59034
G1 X179.923 Y110.478 E10.60476
G1 X180.155 Y111.029 E10.62961
G1 X180.492 Y111.887 E10.66794
G1 X180.608 Y112.232 E10.68307
G1 X180.771 Y112.779 E10.7068
G1 X180.819 Y112.949 E10.71414
G1 X181.027 Y113.729 E10.74771
G1 X181.085 Y113.993 E10.75894
G1 X181.196 Y114.618 E10.78533
G1 X181.23 Y114.823 E10.79397
G1 X181.335 Y115.513 E10.82299
G1 X181.371 Y115.854 E10.83725
G1 X181.412 Y116.477 E10.8632
G1 X181.443 Y117.277 E10.89649
G1 X181.438 Y117.841 E10.91994
G1 X181.405 Y118.614 E10.9521
G1 X181.363 Y119.226 E10.97761
G1 X181.325 Y119.562 E10.99167
G1 X181.235 Y120.148 E11.01632
G1 X181.196 Y120.379 E11.02606
G1 X181.075 Y121.054 E11.05457
G1 X181.018 Y121.308 E11.06539
G1 X180.861 Y121.899 E11.09081
G1 X180.766 Y122.236 E11.10537
G1 X180.579 Y122.863 E11.13257
G1 X180.288 Y123.641 E11.16711
G1 X180.169 Y123.935 E11.18029
G1 X179.895 Y124.584 E11.20958
G1 X179.74 Y124.909 E11.22455
G1 X179.382 Y125.585 E11.25635
G1 X179.005 Y126.257 E11.28839
G1 X178.873 Y126.472 E11.29888
G1 X178.565 Y126.931 E11.32186
G1 X178.372 Y127.209 E11.33593
G1 X177.971 Y127.77 E11.3646
G1 X177.767 Y128.031 E11.37837
G1 X177.39 Y128.475 E11.40259
G1 X177.214 Y128.676 E11.41369
G1 X176.749 Y129.193 E11.4426
G1 X176.573 Y129.374 E11.4531
G1 X176.093 Y129.829 E11.4806
G1 X175.914 Y129.995 E11.49075
G1 X175.404 Y130.451 E11.51919
G1 X175.133 Y130.671 E11.5337
G1 X174.491 Y131.151 E11.56703
G1 X173.896 Y131.574 E11.59738
G1 X173.168 Y132.022 E11.63292
G1 X172.897 Y132.178 E11.64592
G1 X172.293 Y132.516 E11.67469
G1 X172.053 Y132.638 E11.68589
G1 X171.381 Y132.942 E11.71655
G1 X170.602 Y133.272 E11.75172
G1 X170.275 Y133.392 E11.76621
G1 X169.728 Y133.57 E11.79012
G1 X169.519 Y133.635 E11.79922
G1 X168.827 Y133.841 E11.82924
G1 X168.57 Y133.906 E11.84026
G1 X167.759 Y134.074 E11.87469
G1 X166.994 Y134.212 E11.90701
G1 X166.663 Y134.256 E11.92089
