;FLAVOR:Marlin
;TIME:1474
;Filament used: 0.924667m
;Layer height: 0.2
;MINX:99.924
;MINY:39.93
;MINZ:0.25
;MAXX:135.068
;MAXY:75.075
;MAXZ:11.85
;Generated with Cura_SteamEngine 4.8
M140 S100
M105
M190 S100
M104 S250
M105
M109 S250
M82 ;absolute extrusion mode
G28 ;home
G92 E0 ;Reset Extruder
G1 Z4.0 F3000 ;Move Z Axis up
G1 X1.1 Y20 Z0.28 F5000.0 ;Move to start position
G1 X1.1 Y200.0 Z0.28 F1500.0 E15 ;Draw the first line
G1 X1.4 Y200.0 Z0.28 F5000.0 ;Move to side a little
G1 X1.4 Y20 Z0.28 F1500.0 E30 ;Draw the second line
G92 E0 ;Reset Extruder
G1 Z2.0 F3000 ;Move Z Axis up
G92 E0
G92 E0
G1 F4200 E-5
;LAYER_COUNT:59
;LAYER:0
M107
G0 F2100 X101.655 Y49.882 Z0.25
;TYPE:SKIRT
G1 F4200 E0
G1 F1500 X102.061 Y49.09 E0.03192
G1 X102.397 Y48.485 E0.05674
G1 X102.629 Y48.118 E0.07232
G1 X103.106 Y47.407 E0.10303
G1 X103.597 Y46.729 E0.13305
G1 X103.821 Y46.452 E0.14583
G1 X104.477 Y45.69 E0.18189
G1 X104.866 Y45.265 E0.20256
G1 X105.245 Y44.894 E0.22158
G1 X106.033 Y44.171 E0.25994
G1 X106.402 Y43.859 E0.27727
G1 X106.895 Y43.481 E0.29955
G1 X107.671 Y42.923 E0.33383
G1 X108.058 Y42.664 E0.35053
G1 X108.618 Y42.333 E0.37386
G1 X109.397 Y41.903 E0.40578
G1 X109.957 Y41.616 E0.42835
G1 X110.407 Y41.416 E0.44601
G1 X111.295 Y41.055 E0.48039
G1 X111.879 Y40.84 E0.50271
G1 X112.357 Y40.692 E0.52066
G1 X113.184 Y40.465 E0.55142
G1 X114.047 Y40.261 E0.58323
G1 X114.289 Y40.217 E0.59205
G1 X115.474 Y40.041 E0.63502
G1 X115.891 Y39.992 E0.65008
G1 X116.485 Y39.956 E0.67142
G1 X117.338 Y39.93 E0.70203
G1 X118.089 Y39.931 E0.72897
G1 X118.515 Y39.956 E0.74427
G1 X119.474 Y40.04 E0.7788
G1 X120.085 Y40.113 E0.80087
G1 X120.592 Y40.202 E0.81933
G1 X121.658 Y40.425 E0.8584
G1 X122.058 Y40.523 E0.87317
G1 X122.664 Y40.707 E0.89588
G1 X123.587 Y41.018 E0.93082
G1 X124.12 Y41.219 E0.95125
G1 X124.529 Y41.396 E0.96723
G1 X125.474 Y41.846 E1.00477
G1 X125.961 Y42.097 E1.02442
G1 X126.41 Y42.358 E1.04305
G1 X127.272 Y42.901 E1.07959
G1 X127.722 Y43.205 E1.09907
G1 X128.2 Y43.568 E1.1206
G1 X128.825 Y44.074 E1.14944
G1 X129.446 Y44.612 E1.17891
G1 X129.696 Y44.855 E1.19142
G1 X130.394 Y45.572 E1.22731
G1 X130.821 Y46.04 E1.25003
G1 X131.113 Y46.397 E1.26657
G1 X131.669 Y47.125 E1.29943
G1 X132.197 Y47.87 E1.33218
G1 X132.297 Y48.03 E1.33895
G1 X132.898 Y49.046 E1.38128
G1 X133.095 Y49.405 E1.39597
G1 X133.385 Y50.008 E1.41997
G1 X133.801 Y50.951 E1.45694
G1 X133.931 Y51.274 E1.46943
G1 X134.174 Y51.989 E1.49651
G1 X134.44 Y52.856 E1.52904
G1 X134.587 Y53.411 E1.54963
G1 X134.694 Y53.912 E1.56801
G1 X134.876 Y54.923 E1.60485
G1 X134.93 Y55.289 E1.61812
G1 X135.004 Y56.093 E1.64708
G1 X135.046 Y56.785 E1.67195
G1 X135.068 Y57.686 E1.70427
G1 X135.059 Y57.98 E1.71482
G1 X135.002 Y58.958 E1.74996
G1 X134.951 Y59.527 E1.77045
G1 X134.871 Y60.09 E1.79085
G1 X134.704 Y61.025 E1.82491
G1 X134.553 Y61.733 E1.85088
G1 X134.454 Y62.094 E1.8643
G1 X134.117 Y63.204 E1.90591
G1 X134.026 Y63.469 E1.91596
G1 X133.711 Y64.255 E1.94633
G1 X133.374 Y65.019 E1.97628
G1 X133.15 Y65.491 E1.99502
G1 X132.87 Y66.001 E2.01589
G1 X132.332 Y66.913 E2.05387
G1 X132.112 Y67.259 E2.06857
G1 X131.705 Y67.83 E2.09372
G1 X131.158 Y68.546 E2.12604
G1 X130.825 Y68.955 E2.14496
G1 X130.405 Y69.416 E2.16733
G1 X129.742 Y70.1 E2.20149
G1 X129.367 Y70.46 E2.22014
G1 X128.913 Y70.852 E2.24165
G1 X128.114 Y71.503 E2.27862
G1 X127.811 Y71.731 E2.29222
G1 X127.228 Y72.126 E2.31748
G1 X126.535 Y72.565 E2.3469
G1 X125.925 Y72.923 E2.37227
G1 X125.545 Y73.12 E2.38762
G1 X124.549 Y73.595 E2.4272
G1 X124.157 Y73.767 E2.44255
G1 X123.524 Y74.003 E2.46678
G1 X122.615 Y74.312 E2.50122
G1 X122.129 Y74.456 E2.5194
G1 X121.599 Y74.586 E2.53897
G1 X120.588 Y74.799 E2.57603
G1 X120.079 Y74.888 E2.59456
G1 X119.509 Y74.957 E2.61516
G1 X118.629 Y75.036 E2.64685
G1 X117.946 Y75.074 E2.67138
G1 X117.471 Y75.075 E2.68842
G1 X116.597 Y75.049 E2.71978
G1 X115.878 Y75.006 E2.74562
G1 X115.462 Y74.957 E2.76064
G1 X114.438 Y74.806 E2.79776
G1 X113.878 Y74.705 E2.81817
G1 X113.373 Y74.585 E2.83679
G1 X112.359 Y74.31 E2.87447
G1 X111.881 Y74.161 E2.89243
G1 X111.285 Y73.941 E2.91522
G1 X110.536 Y73.637 E2.94421
G1 X109.838 Y73.328 E2.97159
G1 X109.478 Y73.143 E2.98611
G1 X108.713 Y72.721 E3.01744
G1 X107.982 Y72.286 E3.04795
G1 X107.737 Y72.122 E3.05853
G1 X106.921 Y71.536 E3.09456
G1 X106.255 Y71.021 E3.12476
G1 X106.102 Y70.891 E3.13196
G1 X105.263 Y70.124 E3.17273
G1 X104.863 Y69.731 E3.19284
G1 X104.506 Y69.342 E3.21178
G1 X103.846 Y68.577 E3.24802
G1 X103.531 Y68.177 E3.26628
G1 X103.526 Y68.18 E3.26649
G1 X103.176 Y67.692 E3.28803
G1 X102.611 Y66.855 E3.32425
G1 X102.394 Y66.51 E3.33887
G1 X102.072 Y65.929 E3.36269
G1 X101.591 Y64.994 E3.40041
G1 X101.43 Y64.65 E3.41403
G1 X101.184 Y64.048 E3.43736
G1 X100.905 Y63.299 E3.46602
G1 X100.613 Y62.417 E3.49935
G1 X100.562 Y62.233 E3.50619
G1 X100.34 Y61.319 E3.53993
G1 X100.149 Y60.383 E3.57419
G1 X100.118 Y60.168 E3.58199
G1 X99.996 Y59.149 E3.61879
G1 X99.938 Y58.484 E3.64274
G1 X99.924 Y58.066 E3.65774
G1 X99.924 Y57.009 E3.69565
G1 X99.941 Y56.45 E3.71571
G1 X99.986 Y55.928 E3.7345
G1 X100.105 Y54.929 E3.77059
G1 X100.18 Y54.429 E3.78872
G1 X100.308 Y53.819 E3.81107
G1 X100.52 Y52.939 E3.84354
G1 X100.705 Y52.273 E3.86833
G1 X100.82 Y51.93 E3.88131
G1 X101.203 Y50.897 E3.92082
G1 X101.395 Y50.43 E3.93893
G1 X101.655 Y49.882 E3.96069
G0 F2100 X102.011 Y50.064
G1 F1500 X102.411 Y49.284 E3.99213
G1 X102.743 Y48.687 E4.01663
G1 X102.962 Y48.341 E4.03132
G1 X103.455 Y47.607 E4.06303
G1 X103.912 Y46.976 E4.09098
G1 X104.124 Y46.712 E4.10312
G1 X104.772 Y45.96 E4.13872
G1 X105.194 Y45.501 E4.16109
G1 X105.539 Y45.166 E4.17834
G1 X106.294 Y44.475 E4.21505
G1 X106.646 Y44.176 E4.23161
G1 X107.128 Y43.805 E4.25343
G1 X107.895 Y43.255 E4.28728
G1 X108.262 Y43.008 E4.30315
G1 X108.811 Y42.683 E4.32603
G1 X109.579 Y42.259 E4.35749
G1 X110.181 Y41.952 E4.38173
G1 X110.558 Y41.786 E4.39651
G1 X111.434 Y41.43 E4.43042
G1 X112.023 Y41.213 E4.45293
G1 X112.498 Y41.068 E4.47075
G1 X113.277 Y40.854 E4.49972
G1 X114.127 Y40.653 E4.53105
G1 X114.349 Y40.613 E4.53914
G1 X115.522 Y40.438 E4.58168
G1 X115.917 Y40.392 E4.59594
G1 X116.497 Y40.355 E4.61679
G1 X117.337 Y40.33 E4.64693
G1 X118.088 Y40.331 E4.67387
G1 X118.48 Y40.354 E4.68795
G1 X119.427 Y40.438 E4.72205
G1 X120.087 Y40.518 E4.7459
G1 X120.51 Y40.594 E4.76131
G1 X121.565 Y40.814 E4.79996
G1 X121.942 Y40.906 E4.81388
G1 X122.536 Y41.086 E4.83614
G1 X123.447 Y41.393 E4.87063
G1 X123.968 Y41.589 E4.89059
G1 X124.357 Y41.757 E4.90579
G1 X125.291 Y42.202 E4.9429
G1 X125.769 Y42.448 E4.96218
G1 X126.207 Y42.702 E4.98034
G1 X127.049 Y43.233 E5.01604
G1 X127.491 Y43.531 E5.03516
G1 X127.975 Y43.9 E5.05699
G1 X128.564 Y44.377 E5.08418
G1 X129.177 Y44.908 E5.11326
G1 X129.41 Y45.134 E5.12491
G1 X130.099 Y45.842 E5.16034
G1 X130.556 Y46.345 E5.18472
G1 X130.795 Y46.64 E5.19833
G1 X131.343 Y47.356 E5.23067
G1 X131.828 Y48.039 E5.26072
G1 X131.953 Y48.234 E5.26903
G1 X132.548 Y49.24 E5.31095
G1 X132.735 Y49.579 E5.32483
G1 X133.019 Y50.17 E5.34835
G1 X133.431 Y51.102 E5.3849
G1 X133.552 Y51.403 E5.39654
G1 X133.792 Y52.106 E5.42318
G1 X134.054 Y52.962 E5.45529
G1 X134.198 Y53.504 E5.4754
G1 X134.3 Y53.983 E5.49297
G1 X134.481 Y54.984 E5.52945
G1 X134.532 Y55.325 E5.54182
G1 X134.604 Y56.118 E5.57038
G1 X134.646 Y56.796 E5.59474
G1 X134.668 Y57.711 E5.62757
G1 X134.66 Y57.957 E5.6364
G1 X134.604 Y58.922 E5.67107
G1 X134.553 Y59.491 E5.69156
G1 X134.472 Y60.056 E5.71203
G1 X134.313 Y60.942 E5.74432
G1 X134.172 Y61.608 E5.76874
G1 X134.072 Y61.977 E5.78245
G1 X133.737 Y63.079 E5.82376
G1 X133.655 Y63.32 E5.83289
G1 X133.344 Y64.094 E5.86281
G1 X133.013 Y64.848 E5.89234
G1 X132.793 Y65.312 E5.91076
G1 X132.525 Y65.798 E5.93067
G1 X131.994 Y66.7 E5.96821
G1 X131.787 Y67.027 E5.98209
G1 X131.387 Y67.587 E6.00677
G1 X130.847 Y68.295 E6.03871
G1 X130.53 Y68.685 E6.05674
G1 X130.118 Y69.137 E6.07867
G1 X129.463 Y69.814 E6.11246
G1 X129.105 Y70.158 E6.13027
G1 X128.66 Y70.542 E6.15135
G1 X127.871 Y71.185 E6.18786
G1 X127.587 Y71.4 E6.20063
G1 X127.014 Y71.788 E6.22545
G1 X126.333 Y72.22 E6.25438
G1 X125.683 Y72.6 E6.28138
G1 X125.372 Y72.759 E6.29391
G1 X124.387 Y73.23 E6.33307
G1 X124.017 Y73.392 E6.34756
G1 X123.396 Y73.624 E6.37134
G1 X122.498 Y73.929 E6.40535
G1 X122.033 Y74.068 E6.42276
G1 X121.516 Y74.195 E6.44185
G1 X120.518 Y74.406 E6.47844
G1 X120.019 Y74.493 E6.49661
G1 X119.473 Y74.559 E6.51633
G1 X118.607 Y74.637 E6.54752
G1 X117.98 Y74.672 E6.57004
G1 X117.482 Y74.675 E6.58791
G1 X116.621 Y74.65 E6.6188
G1 X115.902 Y74.607 E6.64464
G1 X115.521 Y74.561 E6.6584
G1 X114.509 Y74.412 E6.69509
G1 X113.949 Y74.311 E6.7155
G1 X113.478 Y74.199 E6.73286
G1 X112.476 Y73.927 E6.7701
G1 X112.019 Y73.786 E6.78726
G1 X111.434 Y73.57 E6.80962
G1 X110.697 Y73.272 E6.83814
G1 X110.039 Y72.98 E6.86396
G1 X109.671 Y72.793 E6.87876
G1 X108.917 Y72.377 E6.90965
G1 X108.182 Y71.94 E6.94032
G1 X107.97 Y71.796 E6.94951
G1 X107.165 Y71.219 E6.98504
G1 X106.511 Y70.714 E7.01467
G1 X106.372 Y70.596 E7.02121
G1 X105.541 Y69.837 E7.06158
G1 X105.164 Y69.468 E7.0805
G1 X104.809 Y69.08 E7.09936
G1 X104.156 Y68.325 E7.13516
G1 X103.851 Y67.946 E7.15261
G1 X103.507 Y67.468 E7.17374
G1 X102.949 Y66.641 E7.20952
G1 X102.744 Y66.316 E7.2233
G1 X102.428 Y65.746 E7.24668
G1 X101.952 Y64.821 E7.28399
G1 X101.8 Y64.498 E7.29679
G1 X101.558 Y63.909 E7.31963
G1 X101.285 Y63.173 E7.34779
G1 X100.997 Y62.305 E7.38059
G1 X100.951 Y62.138 E7.3868
G1 X100.732 Y61.239 E7.41999
G1 X100.542 Y60.31 E7.454
G1 X100.515 Y60.12 E7.46088
G1 X100.394 Y59.113 E7.49726
G1 X100.337 Y58.463 E7.52066
G1 X100.324 Y58.066 E7.53491
G1 X100.323 Y57.022 E7.57236
G1 X100.341 Y56.464 E7.59238
G1 X100.384 Y55.975 E7.60999
G1 X100.501 Y54.988 E7.64564
G1 X100.578 Y54.48 E7.66407
G1 X100.697 Y53.912 E7.68488
G1 X100.906 Y53.045 E7.71687
G1 X101.089 Y52.386 E7.7414
G1 X101.196 Y52.069 E7.7534
G1 X101.574 Y51.047 E7.79248
G1 X101.756 Y50.601 E7.80976
G1 X102.011 Y50.064 E7.83108
G0 F2100 X102.367 Y50.247
G1 F1500 X102.761 Y49.477 E7.8621
G1 X103.088 Y48.888 E7.88627
G1 X103.294 Y48.564 E7.90004
G1 X103.779 Y47.842 E7.93123
G1 X104.227 Y47.222 E7.95867
G1 X104.428 Y46.973 E7.97015
G1 X105.067 Y46.23 E8.0053
G1 X105.473 Y45.788 E8.02682
G1 X105.81 Y45.461 E8.04367
G1 X106.555 Y44.778 E8.07992
G1 X106.89 Y44.493 E8.09569
G1 X107.362 Y44.13 E8.11705
G1 X108.118 Y43.586 E8.15045
G1 X108.467 Y43.352 E8.16553
G1 X109.005 Y43.033 E8.18796
G1 X109.762 Y42.615 E8.21898
G1 X110.343 Y42.318 E8.24238
G1 X110.709 Y42.157 E8.25672
G1 X111.573 Y41.805 E8.29018
G1 X112.14 Y41.596 E8.31186
G1 X112.604 Y41.453 E8.32927
G1 X113.369 Y41.243 E8.35773
G1 X114.163 Y41.054 E8.387
G1 X114.408 Y41.008 E8.39594
G1 X115.569 Y40.835 E8.43804
G1 X115.942 Y40.791 E8.45151
G1 X116.51 Y40.755 E8.47193
G1 X117.337 Y40.73 E8.5016
G1 X118.112 Y40.732 E8.5294
G1 X118.445 Y40.753 E8.54137
G1 X119.379 Y40.835 E8.575
G1 X120.033 Y40.914 E8.59862
G1 X120.429 Y40.985 E8.61305
G1 X121.471 Y41.203 E8.65124
G1 X121.827 Y41.289 E8.66437
G1 X122.409 Y41.465 E8.68618
G1 X123.306 Y41.767 E8.72013
G1 X123.817 Y41.959 E8.73971
G1 X124.186 Y42.119 E8.75413
G1 X125.108 Y42.557 E8.79074
G1 X125.578 Y42.799 E8.8097
G1 X126.013 Y43.053 E8.82777
G1 X126.826 Y43.565 E8.86223
G1 X127.273 Y43.867 E8.88158
G1 X127.723 Y44.211 E8.9019
G1 X128.302 Y44.679 E8.9286
G1 X128.908 Y45.204 E8.95736
G1 X129.123 Y45.414 E8.96814
G1 X129.803 Y46.111 E9.00306
G1 X130.245 Y46.597 E9.02663
G1 X130.478 Y46.883 E9.03986
G1 X131.017 Y47.588 E9.07169
G1 X131.535 Y48.319 E9.10382
G1 X131.609 Y48.438 E9.10885
G1 X132.199 Y49.434 E9.15037
G1 X132.374 Y49.752 E9.16339
G1 X132.653 Y50.331 E9.18644
G1 X133.06 Y51.254 E9.22262
G1 X133.174 Y51.533 E9.23343
G1 X133.409 Y52.224 E9.25961
G1 X133.668 Y53.067 E9.29124
G1 X133.809 Y53.596 E9.31088
G1 X133.907 Y54.054 E9.32767
G1 X134.085 Y55.044 E9.36375
G1 X134.133 Y55.362 E9.37529
G1 X134.205 Y56.142 E9.40338
G1 X134.246 Y56.806 E9.42724
G1 X134.268 Y57.698 E9.45925
G1 X134.26 Y57.934 E9.46772
G1 X134.205 Y58.887 E9.50196
G1 X134.152 Y59.485 E9.52349
G1 X134.078 Y59.985 E9.54162
G1 X133.921 Y60.859 E9.57347
G1 X133.769 Y61.572 E9.59961
G1 X133.689 Y61.861 E9.61037
G1 X133.357 Y62.954 E9.65134
G1 X133.283 Y63.172 E9.6596
G1 X132.978 Y63.933 E9.689
G1 X132.651 Y64.676 E9.71812
G1 X132.427 Y65.147 E9.73683
G1 X132.181 Y65.595 E9.75516
G1 X131.655 Y66.487 E9.7923
G1 X131.461 Y66.795 E9.80536
G1 X131.069 Y67.345 E9.82958
G1 X130.536 Y68.043 E9.86108
G1 X130.234 Y68.416 E9.87829
G1 X129.83 Y68.859 E9.8998
G1 X129.183 Y69.527 E9.93315
G1 X128.843 Y69.855 E9.9501
G1 X128.408 Y70.232 E9.97074
G1 X127.627 Y70.868 E10.00687
G1 X127.362 Y71.069 E10.0188
G1 X126.799 Y71.451 E10.0432
G1 X126.13 Y71.875 E10.07161
G1 X125.5 Y72.244 E10.0978
G1 X125.2 Y72.398 E10.10989
G1 X124.225 Y72.864 E10.14865
G1 X123.876 Y73.018 E10.16233
G1 X123.267 Y73.246 E10.18566
G1 X122.382 Y73.547 E10.21919
G1 X121.938 Y73.679 E10.2358
G1 X121.433 Y73.803 E10.25445
G1 X120.448 Y74.012 E10.29057
G1 X119.945 Y74.099 E10.30888
G1 X119.437 Y74.16 E10.32723
G1 X118.584 Y74.237 E10.35795
G1 X117.914 Y74.275 E10.38202
G1 X117.494 Y74.275 E10.39708
G1 X116.645 Y74.25 E10.42754
G1 X115.902 Y74.205 E10.45424
G1 X115.579 Y74.166 E10.46591
G1 X114.58 Y74.019 E10.50213
G1 X113.989 Y73.911 E10.52368
G1 X113.582 Y73.813 E10.53869
G1 X112.593 Y73.545 E10.57544
G1 X112.158 Y73.41 E10.59178
G1 X111.584 Y73.199 E10.61372
G1 X110.859 Y72.906 E10.64176
G1 X110.164 Y72.597 E10.66904
G1 X109.864 Y72.442 E10.68115
G1 X109.121 Y72.033 E10.71157
G1 X108.393 Y71.6 E10.74196
G1 X108.203 Y71.471 E10.75019
G1 X107.41 Y70.903 E10.78518
G1 X106.779 Y70.416 E10.81377
G1 X106.641 Y70.3 E10.82023
G1 X105.82 Y69.55 E10.86012
G1 X105.458 Y69.196 E10.87828
G1 X105.111 Y68.819 E10.89666
G1 X104.467 Y68.072 E10.93203
G1 X104.175 Y67.712 E10.94866
G1 X103.839 Y67.244 E10.96932
G1 X103.286 Y66.426 E11.00473
G1 X103.093 Y66.121 E11.01768
G1 X102.783 Y65.563 E11.04058
G1 X102.313 Y64.649 E11.07744
G1 X102.17 Y64.347 E11.08942
G1 X101.933 Y63.769 E11.11183
G1 X101.664 Y63.047 E11.13946
G1 X101.381 Y62.193 E11.17173
G1 X101.339 Y62.044 E11.17729
G1 X101.124 Y61.158 E11.20999
G1 X100.933 Y60.221 E11.24428
G1 X100.912 Y60.073 E11.24965
G1 X100.793 Y59.078 E11.28559
G1 X100.737 Y58.442 E11.30849
G1 X100.724 Y58.065 E11.32202
G1 X100.723 Y57.034 E11.359
G1 X100.742 Y56.457 E11.3797
G1 X100.781 Y56.022 E11.39537
G1 X100.896 Y55.046 E11.43062
G1 X100.969 Y54.562 E11.44817
G1 X101.086 Y54.006 E11.46855
G1 X101.291 Y53.152 E11.50005
G1 X101.472 Y52.499 E11.52436
G1 X101.571 Y52.207 E11.53542
G1 X101.944 Y51.198 E11.574
G1 X102.118 Y50.773 E11.59047
G1 X102.367 Y50.247 E11.61134
G0 F2100 X102.483 Y50.909
G1 F1500 X102.964 Y49.932 E11.6504
G1 X103.297 Y49.306 E11.67584
G1 X103.385 Y49.153 E11.68217
G1 X103.953 Y48.279 E11.71955
G1 X104.369 Y47.68 E11.74571
G1 X104.477 Y47.536 E11.75217
G1 X105.136 Y46.745 E11.78909
G1 X105.625 Y46.193 E11.81554
G1 X105.729 Y46.083 E11.82097
G1 X106.491 Y45.363 E11.85857
G1 X107.041 Y44.875 E11.88495
G1 X107.166 Y44.77 E11.8908
G1 X108.001 Y44.149 E11.92812
G1 X108.59 Y43.738 E11.95389
G1 X108.729 Y43.647 E11.95984
G1 X109.633 Y43.129 E11.99721
G1 X110.331 Y42.757 E12.02558
G1 X110.443 Y42.702 E12.03006
G1 X111.424 Y42.285 E12.06829
G1 X112.078 Y42.03 E12.09347
G1 X112.228 Y41.977 E12.09917
G1 X113.251 Y41.679 E12.13739
G1 X113.947 Y41.499 E12.16318
G1 X114.138 Y41.457 E12.17019
G1 X115.144 Y41.289 E12.20677
G1 X115.89 Y41.189 E12.23377
G1 X116.023 Y41.175 E12.23857
G1 X117.055 Y41.127 E12.27562
G1 X117.857 Y41.114 E12.30439
G1 X117.954 Y41.116 E12.30787
G1 X119.016 Y41.193 E12.34606
G1 X119.762 Y41.27 E12.37296
G1 X119.924 Y41.292 E12.37882
G1 X120.943 Y41.488 E12.41604
G1 X121.649 Y41.647 E12.442
G1 X121.79 Y41.683 E12.44722
G1 X122.819 Y42.012 E12.48597
G1 X123.523 Y42.262 E12.51276
G1 X123.663 Y42.317 E12.51816
G1 X124.602 Y42.745 E12.55517
G1 X125.253 Y43.067 E12.58122
G1 X125.408 Y43.15 E12.58752
G1 X126.293 Y43.688 E12.62467
G1 X126.918 Y44.095 E12.65142
G1 X127.059 Y44.193 E12.65758
G1 X127.86 Y44.822 E12.69411
G1 X128.437 Y45.303 E12.72105
