;FLAVOR:Marlin
;TIME:1096
;Filament used: 0.639342m
;Layer height: 0.15
;MINX:102.11
;MINY:102.115
;MINZ:0.25
;MAXX:132.876
;MAXY:132.885
;MAXZ:11.65
;Generated with Cura_SteamEngine 4.8
M140 S60
M105
M190 S60
M104 S200
M105
M109 S200
M82 ;absolute extrusion mode
G28 ;home
G92 E0 ;Reset Extruder
G1 Z4.0 F3000 ;Move Z Axis up
G1 X1.1 Y20 Z0.28 F5000.0 ;Move to start position
G1 X1.1 Y200.0 Z0.28 F1500.0 E15 ;Draw the first line
G1 X1.4 Y200.0 Z0.28 F5000.0 ;Move to side a little
G1 X1.4 Y20 Z0.28 F1500.0 E30 ;Draw the second line
G92 E0 ;Reset Extruder
G1 Z2.0 F3000 ;Move Z Axis up
G92 E0
G92 E0
G1 F4200 E-5
;LAYER_COUNT:77
;LAYER:0
M107
G0 F2100 X106.27 Y106.972 Z0.25
;TYPE:SKIRT
G1 F4200 E0
G1 F1500 X106.823 Y106.421 E0.03246
G1 X107.257 Y106.01 E0.05731
G1 X107.519 Y105.782 E0.07175
G1 X108.187 Y105.253 E0.10717
G1 X108.681 Y104.884 E0.13281
G1 X108.963 Y104.692 E0.14699
G1 X109.607 Y104.293 E0.17849
G1 X110.149 Y103.977 E0.20457
G1 X110.445 Y103.821 E0.21848
G1 X111.067 Y103.525 E0.24712
G1 X111.737 Y103.229 E0.27757
G1 X112.06 Y103.103 E0.29199
G1 X112.702 Y102.885 E0.32018
G1 X113.414 Y102.664 E0.35117
G1 X113.744 Y102.577 E0.36536
G1 X114.507 Y102.412 E0.39781
G1 X115.113 Y102.298 E0.42345
G1 X115.449 Y102.249 E0.43757
G1 X116.149 Y102.178 E0.46682
G1 X116.886 Y102.125 E0.49754
G1 X117.221 Y102.115 E0.51147
G1 X117.878 Y102.124 E0.53879
G1 X118.632 Y102.156 E0.57017
G1 X118.964 Y102.184 E0.58402
G1 X119.635 Y102.27 E0.61214
G1 X120.37 Y102.385 E0.64307
G1 X120.705 Y102.453 E0.65729
G1 X121.344 Y102.611 E0.68465
G1 X122.087 Y102.817 E0.71671
G1 X122.4 Y102.918 E0.73038
G1 X122.991 Y103.137 E0.75658
G1 X123.73 Y103.436 E0.78973
G1 X124.034 Y103.574 E0.80361
G1 X124.621 Y103.872 E0.83098
G1 X125.293 Y104.238 E0.86279
G1 X125.58 Y104.411 E0.87672
G1 X126.224 Y104.839 E0.90887
G1 X126.741 Y105.204 E0.93518
G1 X127.005 Y105.408 E0.94905
G1 X127.618 Y105.924 E0.98237
G1 X128.074 Y106.329 E1.00772
G1 X128.328 Y106.576 E1.02245
G1 X128.848 Y107.129 E1.05401
G1 X129.286 Y107.62 E1.08137
G1 X129.504 Y107.887 E1.0957
G1 X129.978 Y108.522 E1.12864
G1 X130.333 Y109.023 E1.15417
G1 X130.525 Y109.322 E1.16894
G1 X130.859 Y109.895 E1.19652
G1 X131.218 Y110.549 E1.22754
G1 X131.369 Y110.855 E1.24172
G1 X131.675 Y111.554 E1.27345
G1 X131.918 Y112.151 E1.30024
G1 X132.033 Y112.473 E1.31446
G1 X132.245 Y113.156 E1.34419
G1 X132.282 Y113.282 E1.34965
G1 X132.44 Y113.857 E1.37444
G1 X132.513 Y114.173 E1.38793
G1 X132.654 Y114.923 E1.41965
G1 X132.754 Y115.547 E1.44593
G1 X132.794 Y115.895 E1.46049
G1 X132.845 Y116.608 E1.49021
G1 X132.876 Y117.305 E1.51922
G1 X132.876 Y117.646 E1.53339
G1 X132.84 Y118.467 E1.56756
G1 X132.796 Y119.084 E1.59328
G1 X132.757 Y119.421 E1.60738
G1 X132.654 Y120.075 E1.63491
G1 X132.633 Y120.197 E1.64005
G1 X132.519 Y120.799 E1.66553
G1 X132.431 Y121.177 E1.68166
G1 X132.263 Y121.78 E1.70769
G1 X132.047 Y122.486 E1.73838
G1 X131.932 Y122.811 E1.75271
G1 X131.621 Y123.576 E1.78705
G1 X131.377 Y124.129 E1.81218
G1 X131.23 Y124.427 E1.82599
G1 X130.918 Y125 E1.85312
G1 X130.86 Y125.103 E1.85803
G1 X130.528 Y125.672 E1.88542
G1 X130.343 Y125.96 E1.89965
G1 X129.971 Y126.488 E1.9265
G1 X129.519 Y127.094 E1.95793
G1 X129.307 Y127.354 E1.97188
G1 X128.853 Y127.865 E2.0003
G1 X128.348 Y128.402 E2.03095
G1 X128.105 Y128.639 E2.04506
G1 X127.505 Y129.173 E2.07845
G1 X127.037 Y129.568 E2.10392
G1 X126.763 Y129.78 E2.11832
G1 X126.203 Y130.175 E2.14681
G1 X125.587 Y130.584 E2.17755
G1 X125.302 Y130.756 E2.19139
G1 X124.705 Y131.083 E2.21969
G1 X124.595 Y131.141 E2.22486
G1 X124.048 Y131.419 E2.25037
G1 X123.746 Y131.557 E2.26417
G1 X123.106 Y131.818 E2.29291
G1 X122.421 Y132.076 E2.32334
G1 X122.088 Y132.185 E2.33791
G1 X121.457 Y132.36 E2.36513
G1 X120.726 Y132.542 E2.39645
G1 X120.391 Y132.61 E2.41066
G1 X119.561 Y132.741 E2.4456
G1 X118.984 Y132.815 E2.46978
G1 X118.65 Y132.843 E2.48372
G1 X117.869 Y132.876 E2.51622
G1 X117.229 Y132.885 E2.54283
G1 X116.894 Y132.875 E2.55676
G1 X116.098 Y132.818 E2.58994
G1 X115.485 Y132.756 E2.61556
G1 X115.148 Y132.707 E2.62972
G1 X114.342 Y132.554 E2.66382
G1 X113.748 Y132.424 E2.6891
G1 X113.426 Y132.339 E2.70295
G1 X112.77 Y132.137 E2.73149
G1 X112.074 Y131.902 E2.76203
G1 X111.757 Y131.779 E2.77616
G1 X111.15 Y131.513 E2.80372
G1 X110.482 Y131.198 E2.83442
G1 X110.175 Y131.037 E2.84883
G1 X109.576 Y130.687 E2.87768
G1 X108.926 Y130.282 E2.90952
G1 X108.647 Y130.092 E2.92355
G1 X108.054 Y129.646 E2.9544
G1 X107.562 Y129.255 E2.98053
G1 X107.307 Y129.034 E2.99456
G1 X106.783 Y128.54 E3.0245
G1 X106.692 Y128.451 E3.02979
G1 X106.257 Y128.014 E3.05543
G1 X106.033 Y127.769 E3.06923
G1 X105.643 Y127.306 E3.0944
G1 X105.148 Y126.686 E3.12738
G1 X104.946 Y126.409 E3.14163
G1 X104.566 Y125.837 E3.17018
G1 X104.5 Y125.734 E3.17527
G1 X104.184 Y125.225 E3.20018
G1 X104.02 Y124.936 E3.21399
G1 X103.7 Y124.31 E3.24322
G1 X103.383 Y123.642 E3.27396
G1 X103.253 Y123.335 E3.28782
G1 X102.974 Y122.584 E3.32113
G1 X102.785 Y122.03 E3.34547
G1 X102.69 Y121.706 E3.3595
G1 X102.515 Y121.004 E3.38958
G1 X102.487 Y120.883 E3.39475
G1 X102.359 Y120.292 E3.41989
G1 X102.301 Y119.962 E3.43382
G1 X102.217 Y119.317 E3.46086
G1 X102.141 Y118.571 E3.49204
G1 X102.121 Y118.234 E3.50607
G1 X102.11 Y117.525 E3.53555
G1 X102.121 Y116.784 E3.56636
G1 X102.14 Y116.448 E3.58035
G1 X102.21 Y115.754 E3.60935
G1 X102.224 Y115.632 E3.61446
G1 X102.303 Y115.033 E3.63958
G1 X102.359 Y114.71 E3.65321
G1 X102.497 Y114.072 E3.68035
G1 X102.677 Y113.342 E3.7116
G1 X102.772 Y113.019 E3.7256
G1 X103.001 Y112.345 E3.7552
G1 X103.246 Y111.682 E3.78458
G1 X103.383 Y111.357 E3.79925
G1 X103.717 Y110.656 E3.83153
G1 X103.994 Y110.109 E3.85702
G1 X104.168 Y109.8 E3.87176
G1 X104.532 Y109.216 E3.90037
G1 X104.943 Y108.595 E3.93133
G1 X105.143 Y108.32 E3.94547
G1 X105.639 Y107.698 E3.97855
G1 X106.037 Y107.225 E4.00425
G1 X106.27 Y106.972 E4.01855
G0 F2100 X106.552 Y107.254
G1 F1500 X107.027 Y106.779 E4.04648
G1 X107.532 Y106.3 E4.07541
G1 X107.768 Y106.095 E4.08841
G1 X108.342 Y105.639 E4.11889
G1 X108.921 Y105.205 E4.14897
G1 X109.175 Y105.032 E4.16175
G1 X109.809 Y104.639 E4.19276
G1 X110.351 Y104.323 E4.21884
G1 X110.617 Y104.182 E4.23136
G1 X111.239 Y103.886 E4.26
G1 X111.898 Y103.595 E4.28995
G1 X112.188 Y103.482 E4.30289
G1 X112.83 Y103.264 E4.33108
G1 X113.533 Y103.046 E4.36168
G1 X113.829 Y102.968 E4.3744
G1 X114.581 Y102.805 E4.4064
G1 X115.187 Y102.691 E4.43203
G1 X115.49 Y102.647 E4.44476
G1 X116.19 Y102.576 E4.47401
G1 X116.914 Y102.524 E4.50419
G1 X117.215 Y102.515 E4.51671
G1 X117.872 Y102.524 E4.54403
G1 X118.614 Y102.556 E4.57491
G1 X118.913 Y102.581 E4.58738
G1 X119.689 Y102.682 E4.61991
G1 X120.308 Y102.78 E4.64597
G1 X120.609 Y102.841 E4.65874
G1 X121.248 Y102.999 E4.6861
G1 X121.979 Y103.202 E4.71765
G1 X122.261 Y103.293 E4.72997
G1 X122.852 Y103.512 E4.75617
G1 X123.579 Y103.806 E4.78877
G1 X123.853 Y103.931 E4.80129
G1 X124.44 Y104.229 E4.82866
G1 X125.101 Y104.589 E4.85996
G1 X125.36 Y104.745 E4.87253
G1 X125.904 Y105.105 E4.89965
G1 X126.51 Y105.531 E4.93044
G1 X126.748 Y105.714 E4.94293
G1 X127.353 Y106.223 E4.9758
G1 X127.809 Y106.628 E5.00115
G1 X128.037 Y106.85 E5.01438
G1 X128.482 Y107.322 E5.04135
G1 X128.987 Y107.887 E5.07286
G1 X129.184 Y108.126 E5.08573
G1 X129.597 Y108.678 E5.1144
G1 X130.006 Y109.255 E5.1438
G1 X130.179 Y109.523 E5.15706
G1 X130.562 Y110.182 E5.18875
G1 X130.867 Y110.74 E5.21519
G1 X131.003 Y111.016 E5.22798
G1 X131.265 Y111.611 E5.25501
G1 X131.547 Y112.302 E5.28604
G1 X131.651 Y112.592 E5.29885
G1 X131.863 Y113.275 E5.32858
G1 X131.896 Y113.388 E5.33348
G1 X132.054 Y113.963 E5.35827
G1 X132.12 Y114.247 E5.37039
G1 X132.259 Y114.986 E5.40165
G1 X132.359 Y115.61 E5.42793
G1 X132.395 Y115.923 E5.44103
G1 X132.452 Y116.739 E5.47503
G1 X132.477 Y117.322 E5.49929
G1 X132.477 Y117.629 E5.51206
G1 X132.447 Y118.335 E5.54144
G1 X132.397 Y119.055 E5.57144
G1 X132.362 Y119.359 E5.58416
G1 X132.259 Y120.013 E5.61169
G1 X132.24 Y120.123 E5.61633
G1 X132.126 Y120.725 E5.6418
G1 X132.046 Y121.069 E5.65649
G1 X131.851 Y121.764 E5.6865
G1 X131.665 Y122.369 E5.71281
G1 X131.561 Y122.661 E5.7257
G1 X131.255 Y123.414 E5.75949
G1 X131.011 Y123.967 E5.78462
G1 X130.879 Y124.236 E5.79708
G1 X130.567 Y124.809 E5.8242
G1 X130.182 Y125.47 E5.85601
G1 X130.016 Y125.729 E5.8688
G1 X129.583 Y126.341 E5.89997
G1 X129.199 Y126.854 E5.92661
G1 X129.008 Y127.088 E5.93916
G1 X128.481 Y127.68 E5.97212
G1 X128.058 Y128.128 E5.99773
G1 X127.838 Y128.341 E6.01046
G1 X127.247 Y128.867 E6.04336
G1 X126.779 Y129.262 E6.06882
G1 X126.532 Y129.453 E6.0818
G1 X125.883 Y129.909 E6.11478
G1 X125.366 Y130.251 E6.14055
G1 X125.109 Y130.405 E6.153
G1 X124.414 Y130.784 E6.18592
G1 X123.867 Y131.062 E6.21143
G1 X123.595 Y131.186 E6.22385
G1 X122.858 Y131.486 E6.25694
G1 X122.281 Y131.702 E6.28255
G1 X121.981 Y131.799 E6.29566
G1 X121.255 Y131.999 E6.32697
G1 X120.63 Y132.154 E6.35374
G1 X120.328 Y132.215 E6.36655
G1 X119.51 Y132.344 E6.40098
G1 X118.933 Y132.418 E6.42516
G1 X118.633 Y132.444 E6.43768
G1 X117.971 Y132.473 E6.46523
G1 X117.224 Y132.485 E6.49629
G1 X116.922 Y132.476 E6.50885
G1 X116.139 Y132.42 E6.54149
G1 X115.526 Y132.358 E6.5671
G1 X115.222 Y132.314 E6.57988
G1 X114.427 Y132.163 E6.61352
G1 X113.833 Y132.033 E6.6388
G1 X113.544 Y131.957 E6.65122
G1 X112.888 Y131.755 E6.67976
G1 X112.203 Y131.523 E6.70983
G1 X111.917 Y131.412 E6.72258
G1 X111.215 Y131.103 E6.75447
G1 X110.653 Y130.837 E6.78032
G1 X110.377 Y130.691 E6.7933
G1 X109.687 Y130.286 E6.82657
G1 X109.138 Y129.943 E6.85348
G1 X108.887 Y129.771 E6.86613
G1 X108.303 Y129.332 E6.8965
G1 X107.811 Y128.941 E6.92263
G1 X107.582 Y128.742 E6.93524
G1 X106.976 Y128.169 E6.96992
G1 X106.541 Y127.732 E6.99555
G1 X106.339 Y127.511 E7.008
G1 X105.885 Y126.97 E7.03736
G1 X105.461 Y126.437 E7.06568
G1 X105.279 Y126.188 E7.0785
G1 X104.839 Y125.523 E7.11165
G1 X104.523 Y125.014 E7.13656
G1 X104.377 Y124.754 E7.14896
G1 X104.057 Y124.128 E7.17819
G1 X103.745 Y123.471 E7.20843
G1 X103.628 Y123.195 E7.22089
G1 X103.388 Y122.553 E7.24939
G1 X103.164 Y121.9 E7.27809
G1 X103.078 Y121.609 E7.2907
G1 X102.903 Y120.907 E7.32078
G1 X102.75 Y120.207 E7.35057
G1 X102.698 Y119.91 E7.36311
G1 X102.614 Y119.265 E7.39015
G1 X102.539 Y118.531 E7.42083
G1 X102.521 Y118.228 E7.43344
G1 X102.51 Y117.519 E7.46293
G1 X102.51 Y117.404 E7.46771
G1 X102.52 Y116.79 E7.49324
G1 X102.538 Y116.488 E7.50581
G1 X102.608 Y115.794 E7.53481
G1 X102.7 Y115.085 E7.56454
G1 X102.75 Y114.795 E7.57677
G1 X102.888 Y114.157 E7.60391
G1 X103.065 Y113.438 E7.6347
G1 X103.15 Y113.148 E7.64726
G1 X103.413 Y112.378 E7.68109
G1 X103.62 Y111.821 E7.70579
G1 X103.744 Y111.529 E7.71898
G1 X104.074 Y110.837 E7.75086
G1 X104.351 Y110.29 E7.77635
G1 X104.508 Y110.012 E7.78962
G1 X104.928 Y109.34 E7.82257
G1 X105.276 Y108.816 E7.84872
G1 X105.456 Y108.569 E7.86143
G1 X105.945 Y107.955 E7.89406
G1 X106.343 Y107.482 E7.91976
G1 X106.552 Y107.254 E7.93262
G0 F2100 X106.835 Y107.537
G1 F1500 X107.31 Y107.062 E7.96055
G1 X107.807 Y106.591 E7.98902
G1 X108.017 Y106.408 E8.0006
G1 X108.666 Y105.894 E8.03502
G1 X109.16 Y105.525 E8.06065
G1 X109.386 Y105.371 E8.07202
G1 X110.01 Y104.985 E8.10253
G1 X110.552 Y104.669 E8.12861
G1 X110.789 Y104.544 E8.13975
G1 X111.499 Y104.207 E8.17243
G1 X112.059 Y103.961 E8.19785
G1 X112.317 Y103.861 E8.20936
G1 X113.043 Y103.616 E8.24121
G1 X113.651 Y103.428 E8.26767
G1 X113.914 Y103.359 E8.27898
G1 X114.655 Y103.198 E8.3105
G1 X115.261 Y103.084 E8.33614
G1 X115.53 Y103.045 E8.34744
G1 X116.23 Y102.974 E8.37669
G1 X116.942 Y102.923 E8.40637
G1 X117.21 Y102.915 E8.41752
G1 X117.867 Y102.924 E8.44483
G1 X118.597 Y102.955 E8.47521
G1 X118.862 Y102.978 E8.48627
G1 X119.626 Y103.077 E8.5183
G1 X120.245 Y103.175 E8.54436
G1 X120.513 Y103.23 E8.55573
G1 X121.246 Y103.412 E8.58713
G1 X121.872 Y103.587 E8.61415
G1 X122.122 Y103.668 E8.62508
G1 X122.713 Y103.887 E8.65128
G1 X123.429 Y104.177 E8.6834
G1 X123.672 Y104.288 E8.69451
G1 X124.259 Y104.586 E8.72188
G1 X124.909 Y104.94 E8.75265
G1 X125.139 Y105.078 E8.7638
G1 X125.683 Y105.438 E8.79092
G1 X126.28 Y105.858 E8.82127
G1 X126.491 Y106.021 E8.83235
G1 X127.087 Y106.522 E8.86472
G1 X127.543 Y106.927 E8.89008
G1 X127.746 Y107.125 E8.90187
G1 X128.251 Y107.662 E8.93252
G1 X128.689 Y108.153 E8.95987
G1 X128.863 Y108.366 E8.97131
G1 X129.325 Y108.985 E9.00342
G1 X129.68 Y109.486 E9.02895
G1 X129.834 Y109.725 E9.04077
G1 X130.211 Y110.374 E9.07197
G1 X130.516 Y110.932 E9.09841
G1 X130.637 Y111.177 E9.10977
G1 X130.899 Y111.772 E9.1368
G1 X131.177 Y112.453 E9.16738
G1 X131.269 Y112.71 E9.17873
G1 X131.511 Y113.494 E9.21284
G1 X131.669 Y114.069 E9.23763
G1 X131.727 Y114.322 E9.24842
G1 X131.864 Y115.05 E9.27922
G1 X131.964 Y115.674 E9.3055
G1 X131.996 Y115.952 E9.31713
G1 X132.052 Y116.756 E9.35064
G1 X132.077 Y117.339 E9.3749
G1 X132.077 Y117.612 E9.38625
G1 X132.042 Y118.41 E9.41946
G1 X131.998 Y119.027 E9.44517
G1 X131.967 Y119.297 E9.45647
G1 X131.864 Y119.951 E9.484
G1 X131.733 Y120.65 E9.51357
G1 X131.661 Y120.962 E9.52688
G1 X131.469 Y121.646 E9.55641
G1 X131.283 Y122.251 E9.58273
G1 X131.19 Y122.511 E9.59421
G1 X130.889 Y123.253 E9.6275
G1 X130.645 Y123.806 E9.65263
G1 X130.527 Y124.044 E9.66367
G1 X130.169 Y124.7 E9.69474
G1 X129.837 Y125.269 E9.72213
G1 X129.689 Y125.499 E9.7335
G1 X129.263 Y126.102 E9.7642
G1 X128.879 Y126.615 E9.79084
G1 X128.709 Y126.822 E9.80198
G1 X128.19 Y127.405 E9.83443
G1 X127.767 Y127.853 E9.86004
G1 X127.572 Y128.043 E9.87136
G1 X127.057 Y128.503 E9.90007
G1 X126.521 Y128.956 E9.92925
G1 X126.301 Y129.126 E9.94081
G1 X125.662 Y129.575 E9.97328
G1 X125.145 Y129.917 E9.99905
G1 X124.917 Y130.055 E10.01013
G1 X124.233 Y130.428 E10.04252
G1 X123.686 Y130.706 E10.06803
G1 X123.444 Y130.816 E10.07908
G1 X122.718 Y131.111 E10.11166
G1 X122.141 Y131.327 E10.13728
G1 X121.874 Y131.414 E10.14895
G1 X121.158 Y131.611 E10.17983
G1 X120.533 Y131.766 E10.2066
G1 X120.265 Y131.82 E10.21796
G1 X119.459 Y131.947 E10.25189
G1 X118.882 Y132.021 E10.27607
G1 X118.615 Y132.044 E10.28721
G1 X117.858 Y132.076 E10.31871
G1 X117.218 Y132.085 E10.34532
G1 X116.95 Y132.077 E10.35647
G1 X116.179 Y132.022 E10.38861
G1 X115.566 Y131.96 E10.41422
G1 X115.296 Y131.921 E10.42557
G1 X114.605 Y131.791 E10.4548
G1 X113.919 Y131.642 E10.48398
G1 X113.661 Y131.574 E10.49508
G1 X112.916 Y131.344 E10.52749
G1 X112.331 Y131.145 E10.55318
G1 X112.078 Y131.046 E10.56448
G1 X111.386 Y130.741 E10.59592
G1 X110.824 Y130.475 E10.62177
G1 X110.579 Y130.346 E10.63328
G1 X109.898 Y129.947 E10.66609
G1 X109.349 Y129.604 E10.69301
G1 X109.127 Y129.451 E10.70422
G1 X108.552 Y129.019 E10.73412
G1 X108.06 Y128.628 E10.76025
G1 X107.856 Y128.451 E10.77147
G1 X107.259 Y127.887 E10.80562
G1 X106.824 Y127.45 E10.83125
G1 X106.645 Y127.254 E10.84229
G1 X106.198 Y126.721 E10.87121
G1 X105.774 Y126.188 E10.89953
G1 X105.613 Y125.967 E10.91089
G1 X105.179 Y125.312 E10.94356
G1 X104.863 Y124.803 E10.96847
G1 X104.733 Y124.572 E10.97949
G1 X104.368 Y123.855 E11.01294
G1 X104.106 Y123.3 E11.03846
G1 X104.003 Y123.055 E11.04951
G1 X103.731 Y122.325 E11.08189
G1 X103.542 Y121.771 E11.10623
G1 X103.466 Y121.512 E11.11745
G1 X103.291 Y120.81 E11.14753
G1 X103.141 Y120.122 E11.17681
G1 X103.095 Y119.858 E11.18795
G1 X103 Y119.119 E11.21892
G1 X102.937 Y118.491 E11.24516
G1 X102.921 Y118.222 E11.25637
G1 X102.91 Y117.411 E11.29009
G1 X102.92 Y116.797 E11.31562
G1 X102.936 Y116.528 E11.32682
G1 X103.017 Y115.737 E11.35988
G1 X103.096 Y115.138 E11.385
G1 X103.141 Y114.879 E11.39593
G1 X103.279 Y114.241 E11.42307
G1 X103.453 Y113.535 E11.4533
G1 X103.529 Y113.277 E11.46448
G1 X103.788 Y112.517 E11.49786
G1 X103.995 Y111.96 E11.52257
G1 X104.105 Y111.701 E11.53427
G1 X104.431 Y111.017 E11.56577
G1 X104.708 Y110.47 E11.59126
G1 X104.847 Y110.223 E11.60304
G1 X105.211 Y109.639 E11.63165
G1 X105.609 Y109.038 E11.66162
G1 X105.769 Y108.818 E11.67293
G1 X106.251 Y108.213 E11.70509
G1 X106.649 Y107.74 E11.73079
G1 X106.835 Y107.537 E11.74224
G1 F4200 E6.74224
;MESH:BotaoPajero-Body.stl
G0 F2100 X108.662 Y109.285
G0 X109.416 Y110.059
G0 X107.705 Y113.352
G0 X107.293 Y114.502
