;FLAVOR:Marlin
;TIME:3331
;Filament used: 2.12492m
;Layer height: 0.2
;MINX:63.25
;MINY:40.247
;MINZ:0.25
;MAXX:171.75
;MAXY:74.759
;MAXZ:6.05
;Generated with Cura_SteamEngine 4.8
M140 S100
M105
M190 S100
M104 S250
M105
M109 S250
M82 ;absolute extrusion mode
G28 ;home
G92 E0 ;Reset Extruder
G1 Z4.0 F3000 ;Move Z Axis up
G1 X1.1 Y20 Z0.28 F5000.0 ;Move to start position
G1 X1.1 Y200.0 Z0.28 F1500.0 E15 ;Draw the first line
G1 X1.4 Y200.0 Z0.28 F5000.0 ;Move to side a little
G1 X1.4 Y20 Z0.28 F1500.0 E30 ;Draw the second line
G92 E0 ;Reset Extruder
G1 Z2.0 F3000 ;Move Z Axis up
G92 E0
G92 E0
G1 F4200 E-5
;LAYER_COUNT:30
;LAYER:0
M107
G0 F2100 X64.154 Y42.778 Z0.25
;TYPE:SKIRT
G1 F4200 E0
G1 F1500 X64.555 Y42.243 E0.02398
G1 X64.973 Y41.801 E0.0458
G1 X65.497 Y41.364 E0.07027
G1 X66.009 Y41.02 E0.0924
G1 X66.507 Y40.759 E0.11256
G1 X67.081 Y40.534 E0.13468
G1 X67.666 Y40.379 E0.15638
G1 X68.252 Y40.294 E0.17762
G1 X68.288 Y40.291 E0.17892
G1 X69.502 Y40.25 E0.22248
G1 X88.141 Y40.247 E0.89101
G1 X164.369 Y40.258 E3.62509
G1 X164.878 Y40.262 E3.64335
G1 X165.295 Y40.274 E3.65831
G1 X165.979 Y40.316 E3.68289
G1 X166.682 Y40.445 E3.70853
G1 X167.26 Y40.624 E3.73023
G1 X167.406 Y40.676 E3.73579
G1 X168.073 Y40.933 E3.76143
G1 X168.599 Y41.157 E3.78193
G1 X169.185 Y41.475 E3.80585
G1 X169.609 Y41.764 E3.82425
G1 X170.131 Y42.223 E3.84918
G1 X170.347 Y42.448 E3.86037
G1 X170.672 Y42.847 E3.87883
G1 X171.081 Y43.485 E3.90601
G1 X171.341 Y44.038 E3.92793
G1 X171.531 Y44.597 E3.9491
G1 X171.666 Y45.215 E3.97179
G1 X171.703 Y45.538 E3.98345
G1 X171.737 Y46.232 E4.00837
G1 X171.75 Y47.066 E4.03829
G1 X171.75 Y68.389 E4.80309
G1 X171.736 Y69.259 E4.83429
G1 X171.687 Y70.043 E4.86247
G1 X171.571 Y70.654 E4.88477
G1 X171.393 Y71.235 E4.90657
G1 X171.137 Y71.812 E4.92921
G1 X170.852 Y72.302 E4.94954
G1 X170.445 Y72.846 E4.97391
G1 X170.025 Y73.289 E4.99581
G1 X169.594 Y73.65 E5.01597
G1 X169.111 Y73.976 E5.03687
G1 X168.554 Y74.266 E5.05939
G1 X168.034 Y74.467 E5.07939
G1 X167.999 Y74.478 E5.08071
G1 X167.442 Y74.624 E5.10136
G1 X166.82 Y74.716 E5.12391
G1 X166.21 Y74.748 E5.14582
G1 X165.638 Y74.759 E5.16634
G1 X163.673 Y74.757 E5.23682
G1 X163.086 Y74.753 E5.25787
G1 X162.451 Y74.734 E5.28066
G1 X161.878 Y74.685 E5.30129
G1 X161.276 Y74.565 E5.3233
G1 X160.864 Y74.437 E5.33878
G1 X159.806 Y74.033 E5.3794
G1 X157.182 Y73.02 E5.48028
G1 X154.527 Y72.08 E5.5813
G1 X151.835 Y71.212 E5.68275
G1 X149.131 Y70.424 E5.78377
G1 X146.416 Y69.715 E5.88442
G1 X143.661 Y69.078 E5.98584
G1 X140.903 Y68.523 E6.08674
G1 X138.134 Y68.046 E6.18752
G1 X135.334 Y67.645 E6.28897
G1 X132.547 Y67.326 E6.38959
G1 X129.729 Y67.083 E6.49104
G1 X126.927 Y66.923 E6.5917
G1 X124.1 Y66.84 E6.69314
G1 X122.601 Y66.829 E6.74691
G1 X112.357 Y66.83 E7.11433
G1 X109.54 Y66.87 E7.21538
G1 X106.714 Y66.991 E7.31683
G1 X103.907 Y67.19 E7.41776
G1 X101.113 Y67.467 E7.51847
G1 X98.307 Y67.827 E7.61993
G1 X95.524 Y68.263 E7.72097
G1 X92.765 Y68.777 E7.82163
G1 X90 Y69.372 E7.92307
G1 X87.276 Y70.041 E8.02368
G1 X84.549 Y70.791 E8.12512
G1 X81.866 Y71.613 E8.22577
G1 X79.186 Y72.517 E8.32721
G1 X76.544 Y73.493 E8.42823
G1 X74.839 Y74.168 E8.494
G1 X74.217 Y74.405 E8.51788
G1 X73.699 Y74.567 E8.53734
G1 X73.131 Y74.682 E8.55813
G1 X72.729 Y74.721 E8.57262
G1 X71.555 Y74.759 E8.61475
G1 X69.763 Y74.758 E8.67902
G1 X69.226 Y74.754 E8.69828
G1 X68.87 Y74.743 E8.71106
G1 X68.066 Y74.691 E8.73995
G1 X67.384 Y74.562 E8.76485
G1 X66.878 Y74.401 E8.78389
G1 X66.286 Y74.139 E8.80711
G1 X65.752 Y73.824 E8.82935
G1 X65.24 Y73.436 E8.85239
G1 X64.751 Y72.964 E8.87677
G1 X64.371 Y72.518 E8.89779
G1 X64.01 Y71.98 E8.92102
G1 X63.739 Y71.456 E8.94218
G1 X63.51 Y70.85 E8.96542
G1 X63.371 Y70.291 E8.98608
G1 X63.298 Y69.775 E9.00477
G1 X63.273 Y69.378 E9.01904
G1 X63.251 Y68.534 E9.04932
G1 X63.25 Y46.97 E9.82276
G1 X63.255 Y46.235 E9.84912
G1 X63.268 Y45.806 E9.86452
G1 X63.312 Y45.096 E9.89003
G1 X63.432 Y44.432 E9.91423
G1 X63.616 Y43.838 E9.93654
G1 X63.878 Y43.25 E9.95963
G1 X64.154 Y42.778 E9.97924
G0 F2100 X64.507 Y42.949
G1 F1500 X64.882 Y42.458 E10.0014
G1 X65.254 Y42.073 E10.0206
G1 X65.734 Y41.673 E10.04301
G1 X66.207 Y41.355 E10.06345
G1 X66.702 Y41.098 E10.08346
G1 X67.227 Y40.896 E10.10363
G1 X67.769 Y40.756 E10.12371
G1 X68.337 Y40.676 E10.14428
G1 X68.65 Y40.659 E10.15553
G1 X69.366 Y40.649 E10.18121
G1 X88.141 Y40.647 E10.85462
G1 X164.721 Y40.658 E13.60132
G1 X165.472 Y40.669 E13.62826
G1 X166.025 Y40.713 E13.64816
G1 X166.613 Y40.829 E13.66966
G1 X167.039 Y40.962 E13.68566
G1 X167.618 Y41.176 E13.7078
G1 X168.28 Y41.441 E13.73338
G1 X168.799 Y41.696 E13.75412
G1 X169.261 Y41.991 E13.77378
G1 X169.668 Y42.317 E13.79248
G1 X170.095 Y42.745 E13.81417
G1 X170.448 Y43.197 E13.83474
G1 X170.751 Y43.692 E13.85555
G1 X170.981 Y44.186 E13.8751
G1 X171.164 Y44.728 E13.89562
G1 X171.282 Y45.281 E13.9159
G1 X171.336 Y45.831 E13.93572
G1 X171.35 Y46.285 E13.95201
G1 X171.35 Y68.708 E14.75626
G1 X171.339 Y69.499 E14.78463
G1 X171.297 Y70.02 E14.80338
G1 X171.182 Y70.608 E14.82487
G1 X171.017 Y71.128 E14.84444
G1 X170.783 Y71.651 E14.86499
G1 X170.497 Y72.135 E14.88515
G1 X170.124 Y72.624 E14.90721
G1 X169.749 Y73.013 E14.92659
G1 X169.337 Y73.356 E14.94582
G1 X168.878 Y73.662 E14.96561
G1 X168.379 Y73.918 E14.98572
G1 X167.825 Y74.127 E15.00696
G1 X167.251 Y74.267 E15.02815
G1 X166.682 Y74.339 E15.04872
G1 X166.156 Y74.357 E15.0676
G1 X165.946 Y74.359 E15.07513
G1 X163.33 Y74.357 E15.16896
G1 X162.461 Y74.344 E15.20013
G1 X161.907 Y74.296 E15.22008
G1 X161.334 Y74.179 E15.24105
G1 X160.808 Y74.006 E15.26091
G1 X159.846 Y73.619 E15.2981
G1 X159.09 Y73.302 E15.32751
G1 X156.518 Y72.31 E15.42638
G1 X153.918 Y71.392 E15.52528
G1 X151.293 Y70.551 E15.62414
G1 X148.644 Y69.786 E15.72304
G1 X145.975 Y69.098 E15.8219
G1 X143.286 Y68.488 E15.92079
G1 X140.581 Y67.957 E16.01967
G1 X137.862 Y67.504 E16.11853
G1 X135.131 Y67.13 E16.2174
G1 X132.39 Y66.835 E16.31628
G1 X129.642 Y66.62 E16.41514
G1 X126.888 Y66.485 E16.51404
G1 X123.605 Y66.429 E16.63181
G1 X111.348 Y66.43 E17.07143
G1 X108.592 Y66.47 E17.17029
G1 X105.838 Y66.59 E17.26917
G1 X103.088 Y66.79 E17.36806
G1 X100.346 Y67.07 E17.46692
G1 X97.612 Y67.429 E17.56582
G1 X94.891 Y67.868 E17.66468
G1 X92.183 Y68.385 E17.76356
G1 X89.491 Y68.98 E17.86245
G1 X86.818 Y69.654 E17.96132
G1 X84.166 Y70.404 E18.06017
G1 X81.536 Y71.232 E18.15907
G1 X78.931 Y72.135 E18.25795
G1 X76.354 Y73.113 E18.35682
G1 X74.916 Y73.708 E18.41263
G1 X74.109 Y74.029 E18.44378
G1 X73.598 Y74.191 E18.46301
G1 X73.049 Y74.3 E18.48309
G1 X72.421 Y74.351 E18.50569
G1 X71.765 Y74.359 E18.52922
G1 X69.422 Y74.358 E18.61325
G1 X68.615 Y74.346 E18.6422
G1 X68.051 Y74.299 E18.6625
G1 X67.469 Y74.181 E18.6838
G1 X66.986 Y74.027 E18.70198
G1 X66.424 Y73.773 E18.7241
G1 X65.933 Y73.478 E18.74465
G1 X65.476 Y73.125 E18.76536
G1 X65.026 Y72.689 E18.78783
G1 X64.667 Y72.264 E18.80779
G1 X64.334 Y71.763 E18.82936
G1 X64.087 Y71.279 E18.84885
G1 X63.881 Y70.728 E18.86995
G1 X63.753 Y70.216 E18.88888
G1 X63.673 Y69.63 E18.91009
G1 X63.655 Y69.217 E18.92492
G1 X63.65 Y68.708 E18.94318
G1 X63.65 Y46.563 E19.73746
G1 X63.664 Y45.587 E19.77247
G1 X63.706 Y45.066 E19.79121
G1 X63.821 Y44.478 E19.8127
G1 X63.993 Y43.94 E19.83296
G1 X64.228 Y43.42 E19.85343
G1 X64.507 Y42.949 E19.87306
G1 F4200 E14.87306
;MESH:fechoLancheira-Body.stl
G0 F2100 X69.46 Y46.958
G0 X69.461 Y48.433
G0 X69.437 Y66.308
G0 X71.799 Y66.31
G0 X71.822 Y61.676
G0 X72.42 Y60.135
G0 X162.41 Y60.476
G0 X162.919 Y61.125
G0 X163.206 Y66.311
G0 X165.75 Y66.49
;TYPE:WALL-INNER
G1 F4200 E19.87306
G1 F1200 X163.111 Y66.491 E19.96772
G1 X163.053 Y66.491 E19.9698
G1 X163.008 Y66.212 E19.97993
G1 X163.008 Y66.154 E19.98201
G1 X163.007 Y61.578 E20.14614
G1 X163.094 Y61.08 E20.16428
G1 X162.491 Y60.311 E20.19933
G1 X72.506 Y60.31 E23.42683
G1 X71.916 Y61.069 E23.46131
G1 X71.993 Y61.667 E23.48294
G1 X71.993 Y66.156 E23.64395
G1 X71.993 Y66.217 E23.64613
G1 X71.956 Y66.491 E23.65605
G1 X71.895 Y66.491 E23.65824
G1 X69.26 Y66.49 E23.75275
G1 X69.253 Y66.26 E23.761
G1 X69.251 Y48.223 E24.40794
G1 X89.596 Y48.219 E25.13765
G1 X165.75 Y48.227 E27.86908
G1 X165.75 Y66.49 E28.52412
G0 F2100 X166.15 Y66.89
;TYPE:WALL-OUTER
G1 F1200 X162.712 Y66.891 E28.64744
G1 X162.608 Y66.244 E28.67094
G1 X162.607 Y61.543 E28.83955
G1 X162.669 Y61.187 E28.85251
G1 X162.296 Y60.711 E28.8742
G1 X72.702 Y60.71 E32.08768
G1 X72.334 Y61.183 E32.10918
G1 X72.393 Y61.639 E32.12567
G1 X72.393 Y66.242 E32.29077
G1 X72.306 Y66.878 E32.31379
G1 X72.288 Y66.891 E32.31459
G1 X68.871 Y66.89 E32.43715
G1 X68.853 Y66.26 E32.45975
G1 X68.851 Y48.116 E33.11053
G1 X68.877 Y47.823 E33.12108
G1 X89.596 Y47.819 E33.86421
G1 X166.15 Y47.827 E36.60998
G1 X166.15 Y66.89 E37.29372
G0 F2100 X165.95 Y66.89
G0 X165.71 Y66.45
G0 X165.36 Y66.1
;TYPE:SKIN
G1 F1200 X163.398 Y66.101 E37.36409
G1 X163.397 Y61.611 E37.52513
G1 X163.508 Y60.976 E37.54825
G1 X162.68 Y59.921 E37.59636
G1 X72.315 Y59.92 E40.83749
G1 X71.508 Y60.958 E40.88465
G1 X71.603 Y61.687 E40.91102
G1 X71.603 Y66.101 E41.06934
G1 X69.643 Y66.1 E41.13963
G1 X69.641 Y48.613 E41.76684
G1 X89.596 Y48.609 E42.48257
G1 X165.36 Y48.617 E45.20001
G1 X165.36 Y66.1 E45.82708
G0 F2100 X165.64 Y66.1
G0 X165.64 Y49.213
G0 X165.179 Y49.213
G1 F1200 X164.762 Y48.796 E45.84823
G0 F2100 X164.196 Y48.796
G1 F1200 X165.179 Y49.779 E45.89809
G0 F2100 X165.179 Y50.345
G1 F1200 X163.63 Y48.796 E45.97666
G0 F2100 X163.065 Y48.796
G1 F1200 X165.179 Y50.91 E46.08389
G0 F2100 X165.179 Y51.476
G1 F1200 X162.499 Y48.796 E46.21983
G0 F2100 X161.933 Y48.796
G1 F1200 X165.179 Y52.042 E46.38448
G0 F2100 X165.179 Y52.608
G1 F1200 X161.368 Y48.796 E46.57782
G0 F2100 X160.802 Y48.796
G1 F1200 X165.179 Y53.173 E46.79983
G0 F2100 X165.179 Y53.739
G1 F1200 X160.236 Y48.796 E47.05056
G0 F2100 X159.671 Y48.796
G1 F1200 X165.179 Y54.305 E47.32997
G0 F2100 X165.179 Y54.87
G1 F1200 X159.105 Y48.796 E47.63807
G0 F2100 X158.539 Y48.796
G1 F1200 X165.179 Y55.436 E47.97488
G0 F2100 X165.179 Y56.002
G1 F1200 X157.973 Y48.796 E48.34039
G0 F2100 X157.407 Y48.796
G1 F1200 X165.179 Y56.567 E48.73459
G0 F2100 X165.179 Y57.133
G1 F1200 X156.841 Y48.796 E49.1575
G0 F2100 X156.276 Y48.796
G1 F1200 X165.179 Y57.699 E49.6091
G0 F2100 X165.179 Y58.264
G1 F1200 X155.71 Y48.796 E50.08938
G0 F2100 X155.144 Y48.796
G1 F1200 X165.179 Y58.83 E50.59836
G0 F2100 X165.179 Y59.396
G1 F1200 X154.579 Y48.796 E51.13604
G0 F2100 X154.013 Y48.796
G1 F1200 X165.179 Y59.961 E51.70239
G0 F2100 X165.179 Y60.527
G1 F1200 X153.447 Y48.796 E52.29746
G0 F2100 X152.882 Y48.796
G1 F1200 X165.179 Y61.093 E52.92121
G0 F2100 X165.179 Y61.659
G1 F1200 X152.316 Y48.796 E53.57367
G0 F2100 X151.75 Y48.796
G1 F1200 X162.694 Y59.739 E54.12877
G0 F2100 X163.024 Y60.07
G1 F1200 X165.179 Y62.224 E54.23805
G0 F2100 X165.179 Y62.79
G1 F1200 X163.641 Y61.252 E54.31606
G0 F2100 X163.576 Y61.753
G1 F1200 X165.179 Y63.356 E54.39737
G0 F2100 X165.179 Y63.921
G1 F1200 X163.576 Y62.318 E54.47868
G0 F2100 X163.576 Y62.884
G1 F1200 X165.179 Y64.487 E54.56
G0 F2100 X165.179 Y65.053
G1 F1200 X163.576 Y63.45 E54.64131
G0 F2100 X163.576 Y64.015
G1 F1200 X165.179 Y65.618 E54.72262
G0 F2100 X164.914 Y65.92
G1 F1200 X163.576 Y64.581 E54.79051
G0 F2100 X163.576 Y65.147
G1 F1200 X164.35 Y65.92 E54.82974
G0 F2100 X163.784 Y65.92
G1 F1200 X163.576 Y65.712 E54.84029
G0 F2100 X163.117 Y65.712
G0 X162.919 Y61.125
G0 X162.127 Y60.2
G0 X162.128 Y59.739
G1 F1200 X151.184 Y48.795 E55.39542
G0 F2100 X150.618 Y48.795
G1 F1200 X161.563 Y59.739 E55.95056
G0 F2100 X160.997 Y59.739
G1 F1200 X150.053 Y48.795 E56.50568
G0 F2100 X149.487 Y48.795
G1 F1200 X160.431 Y59.739 E57.06081
G0 F2100 X159.866 Y59.739
G1 F1200 X148.921 Y48.795 E57.61595
G0 F2100 X148.355 Y48.795
G1 F1200 X159.3 Y59.739 E58.1711
G0 F2100 X158.734 Y59.739
G1 F1200 X147.79 Y48.795 E58.72622
G0 F2100 X147.224 Y48.795
G1 F1200 X158.169 Y59.739 E59.28137
G0 F2100 X157.603 Y59.739
G1 F1200 X146.658 Y48.795 E59.83652
G0 F2100 X146.093 Y48.795
G1 F1200 X157.037 Y59.739 E60.39164
G0 F2100 X156.472 Y59.739
G1 F1200 X145.527 Y48.795 E60.94678
G0 F2100 X144.961 Y48.795
G1 F1200 X155.906 Y59.739 E61.50193
G0 F2100 X155.34 Y59.739
G1 F1200 X144.395 Y48.794 E62.0571
G0 F2100 X143.829 Y48.794
G1 F1200 X154.775 Y59.739 E62.6123
G0 F2100 X154.209 Y59.739
G1 F1200 X143.264 Y48.794 E63.16747
G0 F2100 X142.698 Y48.794
G1 F1200 X153.643 Y59.739 E63.72264
G0 F2100 X153.078 Y59.739
G1 F1200 X142.132 Y48.794 E64.27784
G0 F2100 X141.567 Y48.794
G1 F1200 X152.512 Y59.739 E64.83301
G0 F2100 X151.946 Y59.739
G1 F1200 X141.001 Y48.794 E65.38819
G0 F2100 X140.435 Y48.794
G1 F1200 X151.38 Y59.739 E65.94336
G0 F2100 X150.815 Y59.739
G1 F1200 X139.869 Y48.794 E66.49856
G0 F2100 X139.304 Y48.794
G1 F1200 X150.249 Y59.739 E67.05373
G0 F2100 X149.683 Y59.739
G1 F1200 X138.738 Y48.794 E67.6089
G0 F2100 X138.172 Y48.794
G1 F1200 X149.118 Y59.739 E68.1641
G0 F2100 X148.552 Y59.739
G1 F1200 X137.606 Y48.793 E68.71932
G0 F2100 X137.04 Y48.793
G1 F1200 X147.986 Y59.739 E69.27454
G0 F2100 X147.421 Y59.739
G1 F1200 X136.475 Y48.793 E69.82977
G0 F2100 X135.909 Y48.793
G1 F1200 X146.855 Y59.739 E70.38499
G0 F2100 X146.289 Y59.739
G1 F1200 X135.343 Y48.793 E70.94021
G0 F2100 X134.778 Y48.793
G1 F1200 X145.724 Y59.739 E71.49544
G0 F2100 X145.158 Y59.739
G1 F1200 X134.212 Y48.793 E72.05066
G0 F2100 X133.646 Y48.793
G1 F1200 X144.592 Y59.739 E72.60588
G0 F2100 X144.027 Y59.739
G1 F1200 X133.081 Y48.793 E73.16111
G0 F2100 X132.515 Y48.793
G1 F1200 X143.461 Y59.739 E73.71633
G0 F2100 X142.895 Y59.739
G1 F1200 X131.949 Y48.793 E74.27155
G0 F2100 X131.383 Y48.793
G1 F1200 X142.329 Y59.739 E74.82677
G0 F2100 X141.764 Y59.739
G1 F1200 X130.817 Y48.793 E75.38202
G0 F2100 X130.251 Y48.793
G1 F1200 X141.198 Y59.739 E75.93727
G0 F2100 X140.632 Y59.739
G1 F1200 X129.686 Y48.793 E76.49249
G0 F2100 X129.12 Y48.793
G1 F1200 X140.067 Y59.739 E77.04774
G0 F2100 X139.501 Y59.739
G1 F1200 X128.554 Y48.793 E77.60299
G0 F2100 X127.989 Y48.793
G1 F1200 X138.935 Y59.739 E78.15821
G0 F2100 X138.37 Y59.739
G1 F1200 X127.423 Y48.793 E78.71346
G0 F2100 X126.857 Y48.793
G1 F1200 X137.804 Y59.739 E79.26871
G0 F2100 X137.238 Y59.739
G1 F1200 X126.292 Y48.793 E79.82393
G0 F2100 X125.726 Y48.793
G1 F1200 X136.673 Y59.739 E80.37918
G0 F2100 X136.107 Y59.739
G1 F1200 X125.16 Y48.793 E80.93443
G0 F2100 X124.595 Y48.793
G1 F1200 X135.541 Y59.739 E81.48965
G0 F2100 X134.976 Y59.739
G1 F1200 X124.029 Y48.793 E82.0449
G0 F2100 X123.462 Y48.792
G1 F1200 X134.41 Y59.739 E82.6002
G0 F2100 X133.844 Y59.739
G1 F1200 X122.897 Y48.792 E83.15547
G0 F2100 X122.331 Y48.792
G1 F1200 X133.279 Y59.739 E83.71077
G0 F2100 X132.713 Y59.739
G1 F1200 X121.765 Y48.792 E84.26607
G0 F2100 X121.2 Y48.792
G1 F1200 X132.147 Y59.739 E84.82135
G0 F2100 X131.581 Y59.739
G1 F1200 X120.634 Y48.792 E85.37662
G0 F2100 X120.068 Y48.792
G1 F1200 X131.016 Y59.739 E85.93192
G0 F2100 X130.45 Y59.739
G1 F1200 X119.503 Y48.792 E86.48719
G0 F2100 X118.937 Y48.792
G1 F1200 X129.884 Y59.739 E87.04247
G0 F2100 X129.319 Y59.739
G1 F1200 X118.371 Y48.792 E87.59776
G0 F2100 X117.806 Y48.792
G1 F1200 X128.753 Y59.739 E88.15304
G0 F2100 X128.187 Y59.739
G1 F1200 X117.24 Y48.792 E88.70831
G0 F2100 X116.674 Y48.791
G1 F1200 X127.622 Y59.739 E89.26364
G0 F2100 X127.056 Y59.739
G1 F1200 X116.108 Y48.791 E89.81896
G0 F2100 X115.542 Y48.791
G1 F1200 X126.49 Y59.739 E90.37428
G0 F2100 X125.925 Y59.739
G1 F1200 X114.976 Y48.791 E90.92963
G0 F2100 X114.411 Y48.791
G1 F1200 X125.359 Y59.739 E91.48496
G0 F2100 X124.793 Y59.739
G1 F1200 X113.845 Y48.791 E92.04028
G0 F2100 X113.279 Y48.791
G1 F1200 X124.228 Y59.739 E92.59563
G0 F2100 X123.662 Y59.739
G1 F1200 X112.714 Y48.791 E93.15096
G0 F2100 X112.148 Y48.791
G1 F1200 X123.096 Y59.739 E93.70628
G0 F2100 X122.53 Y59.739
G1 F1200 X111.582 Y48.791 E94.26161
G0 F2100 X111.017 Y48.791
G1 F1200 X121.965 Y59.739 E94.81693
G0 F2100 X121.399 Y59.739
G1 F1200 X110.451 Y48.791 E95.37225
G0 F2100 X109.885 Y48.791
G1 F1200 X120.833 Y59.739 E95.92758
G0 F2100 X120.268 Y59.739
G1 F1200 X109.319 Y48.791 E96.48293
G0 F2100 X108.753 Y48.791
