;FLAVOR:Marlin
;TIME:2771
;Filament used: 2.17871m
;Layer height: 0.15
;MINX:104.116
;MINY:104.116
;MINZ:0.25
;MAXX:130.863
;MAXY:130.877
;MAXZ:64.9
;Generated with Cura_SteamEngine 4.8
M140 S60
M105
M190 S60
M104 S200
M105
M109 S200
M82 ;absolute extrusion mode
G28 ;home
G92 E0 ;Reset Extruder
G1 Z4.0 F3000 ;Move Z Axis up
G1 X1.1 Y20 Z0.28 F5000.0 ;Move to start position
G1 X1.1 Y200.0 Z0.28 F1500.0 E15 ;Draw the first line
G1 X1.4 Y200.0 Z0.28 F5000.0 ;Move to side a little
G1 X1.4 Y20 Z0.28 F1500.0 E30 ;Draw the second line
G92 E0 ;Reset Extruder
G1 Z2.0 F3000 ;Move Z Axis up
G92 E0
G92 E0
G1 F4200 E-5
;LAYER_COUNT:432
;LAYER:0
M107
G0 F2100 X108.041 Y108.012 Z0.25
;TYPE:SKIRT
G1 F4200 E0
G1 F1500 X108.601 Y107.506 E0.03138
G1 X109.256 Y106.943 E0.06729
G1 X109.787 Y106.55 E0.09475
G1 X110.374 Y106.176 E0.12369
G1 X111.189 Y105.687 E0.1632
G1 X111.757 Y105.4 E0.18966
G1 X112.459 Y105.108 E0.22127
G1 X113.259 Y104.798 E0.25694
G1 X113.862 Y104.613 E0.28317
G1 X114.639 Y104.435 E0.31631
G1 X115.475 Y104.266 E0.35177
G1 X116.132 Y104.183 E0.3793
G1 X116.817 Y104.145 E0.40782
G1 X117.042 Y104.136 E0.41718
G1 X117.735 Y104.116 E0.44601
G1 X118.365 Y104.143 E0.47222
G1 X119.299 Y104.252 E0.51132
G1 X119.994 Y104.351 E0.5405
G1 X120.606 Y104.483 E0.56653
G1 X121.468 Y104.736 E0.60388
G1 X122.175 Y104.962 E0.63474
G1 X122.769 Y105.201 E0.66136
G1 X123.567 Y105.593 E0.69833
G1 X124.231 Y105.939 E0.72945
G1 X124.764 Y106.267 E0.75547
G1 X125.371 Y106.703 E0.78655
G1 X125.553 Y106.838 E0.79597
G1 X126.093 Y107.25 E0.8242
G1 X126.555 Y107.656 E0.84978
G1 X127.085 Y108.194 E0.88117
G1 X127.23 Y108.346 E0.88991
G1 X127.7 Y108.851 E0.91859
G1 X128.093 Y109.34 E0.94467
G1 X128.619 Y110.099 E0.98306
G1 X129.014 Y110.701 E1.013
G1 X129.323 Y111.256 E1.03941
G1 X129.7 Y112.067 E1.07659
G1 X129.992 Y112.736 E1.10694
G1 X130.203 Y113.336 E1.13338
G1 X130.42 Y114.13 E1.1676
G1 X130.451 Y114.25 E1.17275
G1 X130.621 Y114.949 E1.20266
G1 X130.724 Y115.549 E1.22797
G1 X130.792 Y116.235 E1.25663
G1 X130.815 Y116.503 E1.26782
G1 X130.863 Y117.169 E1.29558
G1 X130.862 Y117.805 E1.32202
G1 X130.8 Y118.656 E1.35749
G1 X130.722 Y119.455 E1.39087
G1 X130.617 Y120.07 E1.41681
G1 X130.446 Y120.765 E1.44657
G1 X130.38 Y121.013 E1.45723
G1 X130.201 Y121.663 E1.48526
G1 X129.99 Y122.26 E1.51159
G1 X129.659 Y123.016 E1.5459
G1 X129.314 Y123.752 E1.5797
G1 X129.012 Y124.293 E1.60545
G1 X128.602 Y124.917 E1.6365
G1 X128.476 Y125.103 E1.64584
G1 X128.092 Y125.655 E1.67379
G1 X127.692 Y126.149 E1.70022
G1 X127.149 Y126.729 E1.73325
G1 X126.549 Y127.339 E1.76882
G1 X126.078 Y127.753 E1.7949
G1 X125.371 Y128.289 E1.83178
G1 X124.773 Y128.72 E1.86243
G1 X124.24 Y129.049 E1.88847
G1 X123.594 Y129.387 E1.91878
G1 X122.819 Y129.765 E1.95463
G1 X122.27 Y129.987 E1.97925
G1 X121.515 Y130.235 E2.01229
G1 X121.341 Y130.288 E2.01985
G1 X120.476 Y130.533 E2.05723
G1 X119.986 Y130.643 E2.07811
G1 X119.38 Y130.73 E2.10356
G1 X118.284 Y130.851 E2.1494
G1 X117.782 Y130.877 E2.1703
G1 X117.468 Y130.873 E2.18336
G1 X116.855 Y130.849 E2.20886
G1 X116.134 Y130.809 E2.23889
G1 X115.528 Y130.733 E2.26428
G1 X114.68 Y130.566 E2.30021
G1 X114.541 Y130.536 E2.30612
G1 X113.947 Y130.399 E2.33147
G1 X113.378 Y130.227 E2.35618
G1 X112.406 Y129.859 E2.39939
G1 X112.269 Y129.804 E2.40553
G1 X111.742 Y129.584 E2.42927
G1 X111.181 Y129.302 E2.45537
G1 X110.521 Y128.907 E2.48735
G1 X110.346 Y128.799 E2.4959
G1 X109.793 Y128.448 E2.52313
G1 X109.265 Y128.057 E2.55045
G1 X108.665 Y127.542 E2.58332
G1 X108.024 Y126.961 E2.61929
G1 X107.592 Y126.509 E2.64529
G1 X107.033 Y125.831 E2.68182
G1 X106.571 Y125.242 E2.71294
G1 X106.223 Y124.727 E2.73878
G1 X105.833 Y124.051 E2.77123
G1 X105.735 Y123.875 E2.7796
G1 X105.41 Y123.269 E2.80819
G1 X105.161 Y122.714 E2.83348
G1 X104.912 Y122.04 E2.86336
G1 X104.833 Y121.816 E2.87323
G1 X104.615 Y121.169 E2.90162
G1 X104.459 Y120.566 E2.92751
G1 X104.29 Y119.646 E2.9664
G1 X104.179 Y118.936 E2.99628
G1 X104.126 Y118.319 E3.02202
G1 X104.116 Y117.62 E3.05109
G1 X104.117 Y117.371 E3.06144
G1 X104.128 Y116.665 E3.0908
G1 X104.18 Y116.052 E3.11637
G1 X104.3 Y115.287 E3.14857
G1 X104.46 Y114.422 E3.18514
G1 X104.617 Y113.818 E3.21109
G1 X104.88 Y113.041 E3.24519
G1 X104.923 Y112.92 E3.25053
G1 X105.17 Y112.255 E3.28002
G1 X105.426 Y111.692 E3.30573
G1 X105.874 Y110.867 E3.34476
G1 X106.22 Y110.267 E3.37356
G1 X106.573 Y109.746 E3.39972
G1 X107.114 Y109.059 E3.43608
G1 X107.603 Y108.469 E3.46794
G1 X108.041 Y108.012 E3.49426
G0 F2100 X108.309 Y108.309
G1 F1500 X108.869 Y107.803 E3.52563
G1 X109.517 Y107.246 E3.56116
G1 X110.002 Y106.888 E3.58622
G1 X110.685 Y106.454 E3.61987
G1 X111.394 Y106.03 E3.65421
G1 X111.911 Y105.77 E3.67827
G1 X112.707 Y105.44 E3.7141
G1 X113.403 Y105.171 E3.74512
G1 X113.952 Y105.003 E3.76899
G1 X114.835 Y104.802 E3.80664
G1 X115.553 Y104.658 E3.83708
G1 X116.154 Y104.582 E3.86227
G1 X116.834 Y104.545 E3.89058
G1 X117.054 Y104.536 E3.89974
G1 X117.747 Y104.516 E3.92856
G1 X118.319 Y104.54 E3.95236
G1 X119.136 Y104.634 E3.98655
G1 X119.938 Y104.747 E4.02023
G1 X120.494 Y104.867 E4.04387
G1 X121.346 Y105.117 E4.08079
G1 X122.053 Y105.343 E4.11165
G1 X122.593 Y105.56 E4.13584
G1 X123.292 Y105.902 E4.1682
G1 X124.046 Y106.294 E4.20353
G1 X124.531 Y106.592 E4.22719
G1 X125.091 Y106.994 E4.25585
G1 X125.31 Y107.156 E4.26718
G1 X125.85 Y107.568 E4.29542
G1 X126.27 Y107.937 E4.31866
G1 X126.796 Y108.47 E4.34979
G1 X126.937 Y108.619 E4.35832
G1 X127.407 Y109.124 E4.387
G1 X127.765 Y109.568 E4.41072
G1 X128.226 Y110.232 E4.44432
G1 X128.679 Y110.921 E4.47861
G1 X128.96 Y111.425 E4.5026
G1 X129.333 Y112.227 E4.53937
G1 X129.625 Y112.896 E4.56972
G1 X129.817 Y113.441 E4.59374
G1 X130.063 Y114.345 E4.63269
G1 X130.233 Y115.044 E4.6626
G1 X130.326 Y115.589 E4.68559
G1 X130.394 Y116.269 E4.714
G1 X130.416 Y116.531 E4.72493
G1 X130.464 Y117.197 E4.75269
G1 X130.463 Y117.776 E4.77676
G1 X130.392 Y118.732 E4.81662
G1 X130.324 Y119.416 E4.84519
G1 X130.229 Y119.974 E4.86873
G1 X130.059 Y120.663 E4.89823
G1 X129.994 Y120.907 E4.90873
G1 X129.815 Y121.557 E4.93676
G1 X129.623 Y122.099 E4.96067
G1 X129.248 Y122.952 E4.9994
G1 X128.952 Y123.582 E5.02834
G1 X128.677 Y124.074 E5.05178
G1 X128.271 Y124.692 E5.08252
G1 X128.148 Y124.874 E5.09165
G1 X127.764 Y125.426 E5.11961
G1 X127.4 Y125.876 E5.14367
G1 X126.857 Y126.456 E5.1767
G1 X126.264 Y127.058 E5.21184
G1 X125.836 Y127.435 E5.23555
G1 X125.137 Y127.964 E5.27199
G1 X124.539 Y128.395 E5.30264
G1 X124.054 Y128.694 E5.32633
G1 X123.408 Y129.032 E5.35664
G1 X123.301 Y129.086 E5.36162
G1 X122.644 Y129.405 E5.39199
G1 X122.145 Y129.607 E5.41437
G1 X121.39 Y129.855 E5.44741
G1 X121.232 Y129.904 E5.45428
G1 X120.367 Y130.149 E5.49166
G1 X119.731 Y130.279 E5.51865
G1 X119.24 Y130.344 E5.53924
G1 X118.241 Y130.453 E5.58102
G1 X117.61 Y130.476 E5.60727
G1 X117.483 Y130.473 E5.61255
G1 X116.877 Y130.45 E5.63777
G1 X116.156 Y130.41 E5.66779
G1 X115.605 Y130.341 E5.69088
G1 X114.757 Y130.174 E5.72681
G1 X114.631 Y130.147 E5.73217
G1 X114.037 Y130.01 E5.75751
G1 X113.52 Y129.853 E5.77997
G1 X112.548 Y129.485 E5.82318
G1 X112.423 Y129.435 E5.82878
G1 X111.896 Y129.215 E5.85252
G1 X111.386 Y128.958 E5.87627
G1 X110.731 Y128.567 E5.90798
G1 X110.56 Y128.461 E5.91635
G1 X110.007 Y128.11 E5.94358
G1 X109.526 Y127.753 E5.96848
G1 X108.841 Y127.163 E6.00607
G1 X108.293 Y126.665 E6.03685
G1 X107.901 Y126.254 E6.06047
G1 X107.348 Y125.584 E6.09659
G1 X106.886 Y124.995 E6.12771
G1 X106.569 Y124.527 E6.15121
G1 X106.182 Y123.856 E6.18341
G1 X106.088 Y123.685 E6.19152
G1 X105.763 Y123.079 E6.22011
G1 X105.536 Y122.575 E6.2431
G1 X105.289 Y121.907 E6.27271
G1 X105.212 Y121.688 E6.28236
G1 X104.994 Y121.041 E6.31074
G1 X104.852 Y120.493 E6.33428
G1 X104.685 Y119.584 E6.3727
G1 X104.574 Y118.874 E6.40258
G1 X104.526 Y118.313 E6.42599
G1 X104.516 Y117.614 E6.45505
G1 X104.516 Y117.378 E6.46486
G1 X104.527 Y116.672 E6.49422
G1 X104.575 Y116.114 E6.5175
G1 X104.695 Y115.349 E6.5497
G1 X104.853 Y114.496 E6.58576
G1 X104.996 Y113.947 E6.60935
G1 X105.298 Y113.059 E6.64835
G1 X105.545 Y112.394 E6.67784
G1 X105.778 Y111.882 E6.70123
G1 X106.221 Y111.067 E6.73979
G1 X106.567 Y110.467 E6.76859
G1 X106.887 Y109.993 E6.79236
G1 X107.422 Y109.314 E6.8283
G1 X107.911 Y108.724 E6.86016
G1 X108.309 Y108.309 E6.88407
G0 F2100 X108.577 Y108.606
G1 F1500 X109.137 Y108.1 E6.91545
G1 X109.777 Y107.55 E6.95053
G1 X110.217 Y107.225 E6.97327
G1 X110.89 Y106.797 E7.00643
G1 X111.599 Y106.373 E7.04078
G1 X112.064 Y106.139 E7.06242
G1 X112.851 Y105.813 E7.09784
G1 X113.547 Y105.544 E7.12886
G1 X114.041 Y105.393 E7.15033
G1 X114.914 Y105.194 E7.18756
G1 X115.632 Y105.05 E7.21801
G1 X116.177 Y104.982 E7.24084
G1 X117.014 Y104.937 E7.27569
G1 X117.758 Y104.915 E7.30663
G1 X118.273 Y104.938 E7.32807
G1 X119.187 Y105.044 E7.36632
G1 X119.882 Y105.143 E7.39551
G1 X120.382 Y105.251 E7.41677
G1 X121.224 Y105.498 E7.45326
G1 X121.931 Y105.724 E7.48411
G1 X122.417 Y105.919 E7.50589
G1 X123.198 Y106.302 E7.54205
G1 X123.862 Y106.648 E7.57318
G1 X124.297 Y106.917 E7.59444
G1 X124.896 Y107.347 E7.6251
G1 X125.068 Y107.474 E7.63399
G1 X125.608 Y107.886 E7.66223
G1 X125.985 Y108.218 E7.68311
G1 X126.507 Y108.747 E7.71401
G1 X126.644 Y108.891 E7.72227
G1 X127.114 Y109.396 E7.75096
G1 X127.436 Y109.796 E7.7723
G1 X127.95 Y110.538 E7.80983
G1 X128.345 Y111.14 E7.83977
G1 X128.598 Y111.594 E7.86137
G1 X128.93 Y112.306 E7.89404
G1 X129.258 Y113.056 E7.92807
G1 X129.432 Y113.547 E7.94973
G1 X129.649 Y114.341 E7.98395
G1 X129.844 Y115.138 E8.01806
G1 X129.928 Y115.629 E8.03877
G1 X129.995 Y116.303 E8.06693
G1 X130.017 Y116.56 E8.07765
G1 X130.065 Y117.226 E8.10542
G1 X130.064 Y117.747 E8.12708
G1 X129.994 Y118.692 E8.16647
G1 X129.926 Y119.376 E8.19505
G1 X129.84 Y119.879 E8.21627
G1 X129.672 Y120.561 E8.24547
G1 X129.609 Y120.801 E8.25578
G1 X129.43 Y121.451 E8.28381
G1 X129.257 Y121.939 E8.30534
G1 X128.926 Y122.695 E8.33965
G1 X128.59 Y123.412 E8.37257
G1 X128.343 Y123.855 E8.39366
G1 X127.94 Y124.468 E8.42416
G1 X127.819 Y124.646 E8.43311
G1 X127.435 Y125.198 E8.46106
G1 X127.108 Y125.602 E8.48267
G1 X126.5 Y126.251 E8.51964
G1 X125.98 Y126.778 E8.55042
G1 X125.594 Y127.116 E8.57176
G1 X124.903 Y127.64 E8.60781
G1 X124.305 Y128.071 E8.63846
G1 X123.869 Y128.34 E8.65976
G1 X123.223 Y128.678 E8.69007
G1 X122.469 Y129.045 E8.72493
G1 X122.02 Y129.227 E8.74507
G1 X121.265 Y129.475 E8.77811
G1 X121.123 Y129.519 E8.78429
G1 X120.258 Y129.764 E8.82167
G1 X119.667 Y129.884 E8.84674
G1 X119.196 Y129.947 E8.8665
G1 X118.197 Y130.056 E8.90828
G1 X117.612 Y130.076 E8.93262
G1 X116.964 Y130.053 E8.95957
G1 X116.179 Y130.01 E8.99226
G1 X115.682 Y129.948 E9.01308
G1 X114.834 Y129.781 E9.04901
G1 X114.721 Y129.757 E9.05382
G1 X114.127 Y129.62 E9.07916
G1 X113.661 Y129.479 E9.0994
G1 X112.689 Y129.111 E9.14261
G1 X112.05 Y128.846 E9.17137
G1 X111.592 Y128.615 E9.1927
G1 X110.941 Y128.226 E9.22423
G1 X110.775 Y128.123 E9.23235
G1 X110.222 Y127.772 E9.25958
G1 X109.786 Y127.45 E9.28212
G1 X109.186 Y126.935 E9.31499
G1 X108.562 Y126.369 E9.35002
G1 X108.209 Y125.999 E9.37128
G1 X107.662 Y125.337 E9.40698
G1 X107.2 Y124.748 E9.4381
G1 X106.916 Y124.327 E9.45921
G1 X106.532 Y123.661 E9.49118
G1 X106.44 Y123.496 E9.49903
G1 X106.115 Y122.89 E9.52762
G1 X105.911 Y122.437 E9.54827
G1 X105.666 Y121.773 E9.5777
G1 X105.591 Y121.56 E9.58709
G1 X105.373 Y120.913 E9.61547
G1 X105.245 Y120.42 E9.63665
G1 X105.08 Y119.522 E9.67461
G1 X104.969 Y118.812 E9.70449
G1 X104.926 Y118.307 E9.72556
G1 X104.916 Y117.608 E9.75462
G1 X104.916 Y117.384 E9.76393
G1 X104.927 Y116.678 E9.79329
G1 X104.97 Y116.176 E9.81424
G1 X105.09 Y115.411 E9.84643
G1 X105.246 Y114.569 E9.88203
G1 X105.375 Y114.075 E9.90326
G1 X105.673 Y113.199 E9.94173
G1 X105.92 Y112.534 E9.97122
G1 X106.129 Y112.073 E9.99227
G1 X106.567 Y111.267 E10.0304
G1 X106.913 Y110.667 E10.0592
G1 X107.202 Y110.24 E10.08064
G1 X107.73 Y109.57 E10.1161
G1 X108.219 Y108.98 E10.14796
G1 X108.577 Y108.606 E10.16949
G0 F2100 X108.846 Y108.903
G1 F1500 X109.467 Y108.342 E10.20428
G1 X110.037 Y107.853 E10.2355
G1 X110.432 Y107.562 E10.2559
G1 X111.019 Y107.188 E10.28484
G1 X111.805 Y106.717 E10.32293
G1 X112.218 Y106.508 E10.34218
G1 X112.995 Y106.186 E10.37714
G1 X113.691 Y105.917 E10.40817
G1 X114.13 Y105.783 E10.42725
G1 X114.993 Y105.586 E10.46405
G1 X115.711 Y105.442 E10.4945
G1 X116.199 Y105.381 E10.51494
G1 X116.869 Y105.344 E10.54284
G1 X117.077 Y105.335 E10.5515
G1 X117.77 Y105.315 E10.58032
G1 X118.228 Y105.335 E10.59938
G1 X119.13 Y105.44 E10.63714
G1 X119.825 Y105.539 E10.66632
G1 X120.27 Y105.635 E10.68525
G1 X121.102 Y105.879 E10.7213
G1 X121.809 Y106.105 E10.75215
G1 X122.241 Y106.279 E10.77152
G1 X123.013 Y106.657 E10.80725
G1 X123.677 Y107.003 E10.83838
G1 X124.064 Y107.241 E10.85727
G1 X124.658 Y107.668 E10.88769
G1 X124.825 Y107.792 E10.89633
G1 X125.365 Y108.204 E10.92457
G1 X125.701 Y108.499 E10.94316
G1 X126.217 Y109.023 E10.97374
G1 X126.351 Y109.164 E10.98182
G1 X126.821 Y109.669 E11.01051
G1 X127.108 Y110.024 E11.02948
G1 X127.569 Y110.688 E11.06309
G1 X128.01 Y111.359 E11.09647
G1 X128.235 Y111.763 E11.1157
G1 X128.6 Y112.547 E11.15165
G1 X128.892 Y113.216 E11.182
G1 X129.046 Y113.652 E11.20123
G1 X129.263 Y114.446 E11.23545
G1 X129.455 Y115.233 E11.26913
G1 X129.53 Y115.669 E11.28752
G1 X129.597 Y116.337 E11.31543
G1 X129.618 Y116.589 E11.32594
G1 X129.666 Y117.255 E11.35371
G1 X129.666 Y117.718 E11.37295
G1 X129.604 Y118.569 E11.40843
G1 X129.528 Y119.337 E11.44051
G1 X129.452 Y119.783 E11.45932
G1 X129.285 Y120.46 E11.48831
G1 X129.223 Y120.695 E11.49842
G1 X129.044 Y121.345 E11.52645
G1 X128.89 Y121.778 E11.54556
G1 X128.524 Y122.612 E11.58342
G1 X128.228 Y123.242 E11.61236
G1 X128.008 Y123.635 E11.63109
G1 X127.609 Y124.243 E11.66132
G1 X127.491 Y124.417 E11.67006
G1 X127.107 Y124.969 E11.69802
G1 X126.816 Y125.329 E11.71726
G1 X126.215 Y125.97 E11.75379
G1 X125.695 Y126.497 E11.78457
G1 X125.352 Y126.798 E11.80355
G1 X124.669 Y127.315 E11.83916
G1 X124.071 Y127.746 E11.86981
G1 X123.684 Y127.985 E11.88872
G1 X122.952 Y128.367 E11.92305
G1 X122.295 Y128.686 E11.95341
G1 X121.896 Y128.847 E11.9713
G1 X121.141 Y129.095 E12.00434
G1 X121.014 Y129.134 E12.00986
G1 X120.149 Y129.379 E12.04724
G1 X119.602 Y129.489 E12.07043
G1 X119.153 Y129.549 E12.08927
G1 X118.154 Y129.658 E12.13105
G1 X117.615 Y129.676 E12.15347
G1 X117.513 Y129.674 E12.15771
G1 X116.922 Y129.651 E12.1823
G1 X116.201 Y129.611 E12.21232
G1 X115.76 Y129.556 E12.2308
G1 X114.912 Y129.389 E12.26673
G1 X114.217 Y129.23 E12.29637
G1 X113.803 Y129.105 E12.31435
G1 X112.831 Y128.737 E12.35756
G1 X112.204 Y128.477 E12.38578
G1 X111.797 Y128.272 E12.40473
G1 X111.151 Y127.886 E12.43602
G1 X110.989 Y127.786 E12.44393
G1 X110.436 Y127.435 E12.47116
G1 X110.047 Y127.146 E12.49131
G1 X109.379 Y126.571 E12.52795
G1 X108.831 Y126.073 E12.55874
G1 X108.517 Y125.745 E12.57762
G1 X107.977 Y125.09 E12.61291
G1 X107.515 Y124.501 E12.64403
G1 X107.262 Y124.127 E12.66281
G1 X106.881 Y123.466 E12.69452
G1 X106.793 Y123.307 E12.70208
G1 X106.468 Y122.701 E12.73067
G1 X106.286 Y122.298 E12.74905
G1 X106.043 Y121.64 E12.77822
G1 X105.971 Y121.433 E12.78733
G1 X105.753 Y120.786 E12.81571
G1 X105.639 Y120.348 E12.83453
G1 X105.475 Y119.46 E12.87207
G1 X105.364 Y118.75 E12.90195
G1 X105.326 Y118.302 E12.92064
G1 X105.316 Y117.603 E12.94971
G1 X105.316 Y117.39 E12.95856
G1 X105.327 Y116.684 E12.98792
G1 X105.366 Y116.238 E13.00653
G1 X105.501 Y115.382 E13.04256
G1 X105.639 Y114.642 E13.07385
G1 X105.754 Y114.203 E13.09272
G1 X106.048 Y113.338 E13.1307
G1 X106.295 Y112.673 E13.1602
G1 X106.481 Y112.263 E13.17892
G1 X106.914 Y111.466 E13.21663
G1 X107.26 Y110.866 E13.24542
G1 X107.516 Y110.488 E13.2644
G1 X108.038 Y109.825 E13.29948
G1 X108.527 Y109.235 E13.33134
G1 X108.846 Y108.903 E13.35048
G1 F4200 E8.35048
;MESH:liitokala-Body.stl
G0 F2100 X110.572 Y110.747
G0 X111.222 Y111.485
G0 X111.384 Y111.731
;TYPE:WALL-INNER
G1 F4200 E13.35048
G1 F1200 X111.384 Y112.294 E13.37389
G1 X111.384 Y112.295 E13.37393
G1 X111.384 Y122.696 E13.80636
G1 X111.384 Y122.697 E13.8064
