;FLAVOR:Marlin
;TIME:536
;Filament used: 0.280988m
;Layer height: 0.2
;MINX:105.237
;MINY:45.225
;MINZ:0.25
;MAXX:129.763
;MAXY:69.775
;MAXZ:16.05
;Generated with Cura_SteamEngine 4.8
M140 S100
M105
M190 S100
M104 S250
M105
M109 S250
M82 ;absolute extrusion mode
G28 ;home
G92 E0 ;Reset Extruder
G1 Z4.0 F3000 ;Move Z Axis up
G1 X1.1 Y20 Z0.28 F5000.0 ;Move to start position
G1 X1.1 Y200.0 Z0.28 F1500.0 E15 ;Draw the first line
G1 X1.4 Y200.0 Z0.28 F5000.0 ;Move to side a little
G1 X1.4 Y20 Z0.28 F1500.0 E30 ;Draw the second line
G92 E0 ;Reset Extruder
G1 Z2.0 F3000 ;Move Z Axis up
G92 E0
G92 E0
G1 F4200 E-5
;LAYER_COUNT:80
;LAYER:0
M107
G0 F2100 X106.501 Y52.063 Z0.25
;TYPE:SKIRT
G1 F4200 E0
G1 F1500 X106.806 Y51.462 E0.02145
G1 X107.111 Y50.944 E0.04059
G1 X107.191 Y50.823 E0.0452
G1 X107.838 Y49.931 E0.08028
G1 X107.906 Y49.843 E0.08382
G1 X108.423 Y49.226 E0.10944
G1 X108.781 Y48.849 E0.12599
G1 X109.208 Y48.443 E0.14475
G1 X109.439 Y48.244 E0.15445
G1 X109.964 Y47.815 E0.17603
G1 X110.23 Y47.615 E0.18663
G1 X111.025 Y47.078 E0.21716
G1 X111.462 Y46.807 E0.23353
G1 X111.904 Y46.572 E0.24947
G1 X112.403 Y46.325 E0.26719
G1 X112.524 Y46.274 E0.27137
G1 X113.417 Y45.927 E0.30186
G1 X113.929 Y45.763 E0.31898
G1 X114.736 Y45.544 E0.34559
G1 X115.351 Y45.41 E0.36563
G1 X115.92 Y45.318 E0.38398
G1 X116.431 Y45.265 E0.40033
G1 X116.572 Y45.255 E0.40483
G1 X117.409 Y45.225 E0.43149
G1 X118.023 Y45.23 E0.45103
G1 X118.721 Y45.28 E0.47331
G1 X118.827 Y45.291 E0.4767
G1 X119.448 Y45.378 E0.49666
G1 X119.82 Y45.444 E0.50869
G1 X120.485 Y45.594 E0.53039
G1 X121.385 Y45.852 E0.56019
G1 X122.061 Y46.097 E0.58308
G1 X122.265 Y46.182 E0.59011
G1 X122.91 Y46.476 E0.61267
G1 X123.489 Y46.776 E0.63343
G1 X123.874 Y47.011 E0.64779
G1 X124.468 Y47.401 E0.67041
G1 X124.556 Y47.463 E0.67383
G1 X125.321 Y48.044 E0.70441
G1 X125.416 Y48.124 E0.70836
G1 X126.244 Y48.873 E0.7439
G1 X126.702 Y49.365 E0.7653
G1 X127.279 Y50.086 E0.79469
G1 X127.768 Y50.768 E0.82141
G1 X128.067 Y51.236 E0.83908
G1 X128.232 Y51.532 E0.84987
G1 X128.581 Y52.224 E0.87454
G1 X128.794 Y52.7 E0.89114
G1 X128.975 Y53.149 E0.90655
G1 X129.276 Y54.028 E0.93612
G1 X129.46 Y54.706 E0.95849
G1 X129.598 Y55.371 E0.98011
G1 X129.663 Y55.85 E0.99549
G1 X129.741 Y56.648 E1.02101
G1 X129.762 Y57.156 E1.0372
G1 X129.763 Y57.956 E1.06266
G1 X129.747 Y58.284 E1.07312
G1 X129.65 Y59.305 E1.10576
G1 X129.586 Y59.707 E1.11872
G1 X129.466 Y60.28 E1.13735
G1 X129.323 Y60.83 E1.15544
G1 X129.124 Y61.458 E1.17641
G1 X128.806 Y62.257 E1.20379
G1 X128.499 Y62.937 E1.22753
G1 X128.194 Y63.538 E1.24899
G1 X127.906 Y64.031 E1.26716
G1 X127.804 Y64.187 E1.27309
G1 X127.167 Y65.066 E1.30765
G1 X127.099 Y65.153 E1.31116
G1 X126.588 Y65.763 E1.33649
G1 X126.231 Y66.139 E1.353
G1 X125.815 Y66.536 E1.3713
G1 X125.561 Y66.756 E1.382
G1 X125.036 Y67.185 E1.40358
G1 X124.77 Y67.385 E1.41417
G1 X124.119 Y67.824 E1.43916
G1 X123.536 Y68.187 E1.46103
G1 X123.096 Y68.428 E1.47699
G1 X122.51 Y68.712 E1.49772
G1 X121.578 Y69.075 E1.52956
G1 X121.071 Y69.237 E1.5465
G1 X120.293 Y69.448 E1.57216
G1 X119.636 Y69.592 E1.59357
G1 X119.073 Y69.683 E1.61172
G1 X118.539 Y69.738 E1.62881
G1 X118.396 Y69.747 E1.63337
G1 X117.595 Y69.775 E1.65888
G1 X116.978 Y69.77 E1.67852
G1 X116.279 Y69.72 E1.70083
G1 X116.173 Y69.709 E1.70422
G1 X115.552 Y69.622 E1.72418
G1 X115.18 Y69.556 E1.73621
G1 X114.561 Y69.418 E1.7564
G1 X114.118 Y69.299 E1.771
G1 X113.608 Y69.145 E1.78796
G1 X112.939 Y68.903 E1.8106
G1 X112.735 Y68.818 E1.81764
G1 X112.09 Y68.524 E1.8402
G1 X111.511 Y68.224 E1.86096
G1 X111.126 Y67.989 E1.87531
G1 X110.532 Y67.599 E1.89793
G1 X110.444 Y67.538 E1.90134
G1 X109.684 Y66.961 E1.93171
G1 X109.568 Y66.864 E1.93653
G1 X108.737 Y66.11 E1.97224
G1 X108.299 Y65.636 E1.99279
G1 X107.717 Y64.909 E2.02243
G1 X107.209 Y64.199 E2.05022
G1 X107.03 Y63.921 E2.06074
G1 X106.598 Y63.135 E2.08929
G1 X106.227 Y62.349 E2.11696
G1 X106.036 Y61.884 E2.13296
G1 X105.751 Y61.055 E2.16086
G1 X105.538 Y60.285 E2.1863
G1 X105.398 Y59.603 E2.20846
G1 X105.346 Y59.219 E2.22079
G1 X105.252 Y58.235 E2.25226
G1 X105.238 Y57.867 E2.26398
G1 X105.237 Y57.026 E2.29075
G1 X105.253 Y56.716 E2.30063
G1 X105.35 Y55.695 E2.33327
G1 X105.423 Y55.247 E2.34772
G1 X105.55 Y54.655 E2.367
G1 X105.677 Y54.177 E2.38274
G1 X105.888 Y53.509 E2.40504
G1 X106.194 Y52.743 E2.43129
G1 X106.501 Y52.063 E2.45504
G0 F2100 X106.86 Y52.24
G1 F1500 X107.16 Y51.647 E2.4762
G1 X107.456 Y51.146 E2.49472
G1 X107.515 Y51.057 E2.49812
G1 X108.162 Y50.165 E2.53319
G1 X108.213 Y50.1 E2.53582
G1 X108.722 Y49.492 E2.56106
G1 X109.056 Y49.139 E2.57653
G1 X109.48 Y48.736 E2.59515
G1 X109.692 Y48.553 E2.60407
G1 X110.207 Y48.133 E2.62522
G1 X110.454 Y47.946 E2.63508
G1 X111.239 Y47.416 E2.66523
G1 X112.055 Y46.944 E2.69524
G1 X112.505 Y46.719 E2.71125
G1 X112.669 Y46.646 E2.71697
G1 X113.562 Y46.299 E2.74746
G1 X114.034 Y46.149 E2.76323
G1 X114.828 Y45.933 E2.78942
G1 X115.432 Y45.802 E2.80909
G1 X115.983 Y45.713 E2.82686
G1 X116.504 Y45.66 E2.84353
G1 X116.587 Y45.655 E2.84617
G1 X117.411 Y45.625 E2.87242
G1 X118.044 Y45.632 E2.89257
G1 X118.692 Y45.679 E2.91325
G1 X118.771 Y45.688 E2.91578
G1 X119.433 Y45.781 E2.93706
G1 X119.733 Y45.835 E2.94676
G1 X120.381 Y45.98 E2.9679
G1 X121.269 Y46.235 E2.99731
G1 X121.918 Y46.47 E3.01928
G1 X122.099 Y46.546 E3.02553
G1 X122.733 Y46.835 E3.04771
G1 X123.297 Y47.127 E3.06792
G1 X123.655 Y47.345 E3.08126
G1 X124.249 Y47.735 E3.10388
G1 X124.315 Y47.781 E3.10644
G1 X125.067 Y48.352 E3.1365
G1 X125.148 Y48.421 E3.13989
G1 X126.022 Y49.213 E3.17743
G1 X126.403 Y49.63 E3.19541
G1 X126.962 Y50.329 E3.2239
G1 X127.465 Y51.033 E3.25144
G1 X127.742 Y51.473 E3.26799
G1 X127.876 Y51.713 E3.27674
G1 X128.193 Y52.339 E3.29907
G1 X128.425 Y52.853 E3.31703
G1 X128.597 Y53.279 E3.33165
G1 X128.893 Y54.144 E3.36075
G1 X129.072 Y54.803 E3.38249
G1 X129.205 Y55.444 E3.40332
G1 X129.265 Y55.889 E3.41762
G1 X129.343 Y56.687 E3.44314
G1 X129.363 Y57.211 E3.45983
G1 X129.362 Y58.025 E3.48574
G1 X129.349 Y58.246 E3.49279
G1 X129.252 Y59.267 E3.52543
G1 X129.195 Y59.625 E3.53697
G1 X129.075 Y60.198 E3.55561
G1 X128.941 Y60.71 E3.57246
G1 X128.744 Y61.331 E3.59319
G1 X128.437 Y62.104 E3.61967
G1 X128.14 Y62.76 E3.64259
G1 X127.84 Y63.353 E3.66374
G1 X127.564 Y63.824 E3.68112
G1 X127.48 Y63.952 E3.68599
G1 X126.843 Y64.831 E3.72055
G1 X126.792 Y64.896 E3.72318
G1 X126.289 Y65.497 E3.74812
G1 X125.954 Y65.85 E3.76361
G1 X125.491 Y66.29 E3.78395
G1 X125.308 Y66.447 E3.79162
G1 X124.793 Y66.867 E3.81277
G1 X124.546 Y67.054 E3.82264
G1 X123.907 Y67.485 E3.84717
G1 X123.324 Y67.848 E3.86903
G1 X122.87 Y68.094 E3.88547
G1 X122.407 Y68.321 E3.90188
G1 X122.365 Y68.339 E3.90333
G1 X121.433 Y68.702 E3.93517
G1 X120.966 Y68.851 E3.95078
G1 X120.199 Y69.059 E3.97607
G1 X119.555 Y69.2 E3.99706
G1 X119.011 Y69.287 E4.01459
G1 X118.509 Y69.339 E4.03066
G1 X118.382 Y69.347 E4.03471
G1 X117.593 Y69.375 E4.05984
G1 X116.994 Y69.37 E4.07891
G1 X116.308 Y69.321 E4.1008
G1 X116.229 Y69.312 E4.10333
G1 X115.567 Y69.219 E4.12461
G1 X115.267 Y69.165 E4.13431
G1 X114.595 Y69.014 E4.15623
G1 X114.234 Y68.916 E4.16814
G1 X113.724 Y68.762 E4.1851
G1 X113.082 Y68.53 E4.20683
G1 X112.901 Y68.454 E4.21308
G1 X112.267 Y68.165 E4.23525
G1 X111.703 Y67.873 E4.25547
G1 X111.345 Y67.655 E4.26881
G1 X110.751 Y67.265 E4.29143
G1 X110.686 Y67.219 E4.29397
G1 X109.936 Y66.65 E4.32393
G1 X109.837 Y66.568 E4.32802
G1 X109.015 Y65.822 E4.36336
G1 X108.598 Y65.371 E4.38291
G1 X108.035 Y64.666 E4.41163
G1 X107.534 Y63.966 E4.43903
G1 X107.38 Y63.728 E4.44805
G1 X106.955 Y62.955 E4.47613
G1 X106.592 Y62.186 E4.5032
G1 X106.396 Y61.703 E4.51979
G1 X106.118 Y60.89 E4.54714
G1 X105.927 Y60.19 E4.57024
G1 X105.792 Y59.531 E4.59165
G1 X105.744 Y59.181 E4.60289
G1 X105.65 Y58.197 E4.63436
G1 X105.638 Y57.866 E4.6449
G1 X105.637 Y57.025 E4.67167
G1 X105.651 Y56.754 E4.68031
G1 X105.748 Y55.733 E4.71296
G1 X105.814 Y55.33 E4.72595
G1 X105.937 Y54.756 E4.74464
G1 X106.059 Y54.298 E4.75973
G1 X106.27 Y53.63 E4.78203
G1 X106.563 Y52.896 E4.80718
G1 X106.86 Y52.24 E4.8301
G0 F2100 X107.219 Y52.417
G1 F1500 X107.515 Y51.832 E4.85097
G1 X107.798 Y51.353 E4.86868
G1 X107.838 Y51.292 E4.871
G1 X108.485 Y50.4 E4.90608
G1 X109.005 Y49.776 E4.93193
G1 X109.332 Y49.429 E4.94711
G1 X109.776 Y49.008 E4.96659
G1 X109.945 Y48.863 E4.97368
G1 X110.45 Y48.45 E4.99444
G1 X110.678 Y48.278 E5.00353
G1 X111.453 Y47.754 E5.03331
G1 X112.244 Y47.297 E5.06239
G1 X112.723 Y47.059 E5.07942
G1 X112.814 Y47.019 E5.08258
G1 X113.707 Y46.672 E5.11308
G1 X114.139 Y46.535 E5.1275
G1 X114.92 Y46.323 E5.15326
G1 X115.512 Y46.193 E5.17255
G1 X116.045 Y46.108 E5.18973
G1 X116.575 Y46.056 E5.20669
G1 X117.413 Y46.025 E5.23338
G1 X118.015 Y46.031 E5.25254
G1 X118.663 Y46.078 E5.27322
G1 X119.337 Y46.171 E5.29488
G1 X119.646 Y46.225 E5.30486
G1 X120.276 Y46.367 E5.32542
G1 X121.153 Y46.618 E5.35446
G1 X121.775 Y46.844 E5.37552
G1 X121.934 Y46.911 E5.38101
G1 X122.556 Y47.193 E5.40275
G1 X123.105 Y47.478 E5.42244
G1 X123.435 Y47.679 E5.43474
G1 X124.029 Y48.069 E5.45736
G1 X124.073 Y48.1 E5.45907
G1 X124.812 Y48.661 E5.48861
G1 X124.88 Y48.718 E5.49143
G1 X125.747 Y49.504 E5.52868
G1 X126.104 Y49.895 E5.54554
G1 X126.645 Y50.573 E5.57315
G1 X127.133 Y51.255 E5.59984
G1 X127.502 Y51.863 E5.62248
G1 X127.836 Y52.52 E5.64594
G1 X128.046 Y52.984 E5.66215
G1 X128.219 Y53.409 E5.67676
G1 X128.51 Y54.26 E5.70538
G1 X128.683 Y54.899 E5.72646
G1 X128.812 Y55.517 E5.74655
G1 X128.867 Y55.928 E5.75975
G1 X128.949 Y56.776 E5.78687
G1 X128.963 Y57.183 E5.79983
G1 X128.962 Y58.014 E5.82628
G1 X128.95 Y58.209 E5.8325
G1 X128.847 Y59.278 E5.86669
G1 X128.803 Y59.543 E5.87524
G1 X128.674 Y60.153 E5.89508
G1 X128.56 Y60.589 E5.90943
G1 X128.365 Y61.205 E5.93
G1 X128.067 Y61.951 E5.95557
G1 X127.781 Y62.583 E5.97765
G1 X127.485 Y63.168 E5.99852
G1 X127.221 Y63.617 E6.0151
G1 X127.156 Y63.717 E6.01889
G1 X126.519 Y64.596 E6.05345
G1 X126.485 Y64.64 E6.05522
G1 X125.991 Y65.231 E6.07974
G1 X125.678 Y65.561 E6.09421
G1 X125.231 Y65.986 E6.11385
G1 X125.055 Y66.137 E6.12123
G1 X124.55 Y66.55 E6.14199
G1 X124.321 Y66.723 E6.15113
G1 X123.696 Y67.145 E6.17513
G1 X123.07 Y67.533 E6.19858
G1 X122.314 Y67.924 E6.22567
G1 X122.219 Y67.966 E6.22898
G1 X121.237 Y68.347 E6.2625
G1 X120.86 Y68.465 E6.27508
G1 X120.106 Y68.67 E6.29995
G1 X119.474 Y68.809 E6.32055
G1 X118.903 Y68.898 E6.33894
G1 X118.399 Y68.946 E6.35506
G1 X117.591 Y68.975 E6.38079
G1 X117.01 Y68.97 E6.39929
G1 X116.337 Y68.922 E6.42077
G1 X115.663 Y68.829 E6.44242
G1 X115.354 Y68.775 E6.45241
G1 X114.7 Y68.628 E6.47374
G1 X114.35 Y68.533 E6.48529
G1 X113.805 Y68.367 E6.50342
G1 X113.225 Y68.156 E6.52307
G1 X113.066 Y68.089 E6.52856
G1 X112.444 Y67.807 E6.5503
G1 X111.895 Y67.522 E6.56999
G1 X111.565 Y67.321 E6.58229
G1 X110.971 Y66.931 E6.60491
G1 X110.927 Y66.9 E6.60662
G1 X110.187 Y66.339 E6.63618
G1 X110.106 Y66.272 E6.63953
G1 X109.294 Y65.535 E6.67443
G1 X108.897 Y65.105 E6.69306
G1 X108.353 Y64.423 E6.72083
G1 X107.86 Y63.734 E6.7478
G1 X107.731 Y63.534 E6.75537
G1 X107.312 Y62.775 E6.78297
G1 X106.958 Y62.023 E6.80943
G1 X106.774 Y61.573 E6.8249
G1 X106.5 Y60.773 E6.85182
G1 X106.315 Y60.094 E6.87422
G1 X106.185 Y59.459 E6.89485
G1 X106.143 Y59.143 E6.905
G1 X106.045 Y58.109 E6.93806
G1 X106.038 Y57.866 E6.9458
G1 X106.037 Y57.025 E6.97257
G1 X106.05 Y56.791 E6.98003
G1 X106.153 Y55.721 E7.01424
G1 X106.205 Y55.413 E7.02419
G1 X106.324 Y54.857 E7.04228
G1 X106.44 Y54.418 E7.05674
G1 X106.667 Y53.704 E7.08059
G1 X106.933 Y53.049 E7.10309
G1 X107.219 Y52.417 E7.12517
G0 F2100 X107.578 Y52.593
G1 F1500 X107.869 Y52.017 E7.14571
G1 X108.141 Y51.56 E7.16264
G1 X108.162 Y51.527 E7.16389
G1 X108.826 Y50.613 E7.19985
G1 X109.312 Y50.032 E7.22396
G1 X109.608 Y49.718 E7.23769
G1 X110.037 Y49.311 E7.25652
G1 X110.199 Y49.172 E7.26331
G1 X110.693 Y48.768 E7.28362
G1 X110.903 Y48.609 E7.29201
G1 X111.666 Y48.092 E7.32135
G1 X112.432 Y47.65 E7.3495
G1 X112.882 Y47.425 E7.36551
G1 X112.959 Y47.392 E7.36818
G1 X113.877 Y47.036 E7.39952
G1 X114.245 Y46.921 E7.41179
G1 X115.013 Y46.712 E7.43713
G1 X115.593 Y46.585 E7.45603
G1 X116.132 Y46.5 E7.47339
G1 X116.616 Y46.454 E7.48887
G1 X117.415 Y46.425 E7.51432
G1 X117.986 Y46.43 E7.5325
G1 X118.66 Y46.48 E7.55401
G1 X119.295 Y46.569 E7.57442
G1 X119.559 Y46.616 E7.58295
G1 X120.172 Y46.753 E7.60295
G1 X121.038 Y47.001 E7.63162
G1 X121.632 Y47.217 E7.65174
G1 X121.768 Y47.275 E7.65645
G1 X122.379 Y47.552 E7.6778
G1 X122.912 Y47.828 E7.69691
G1 X123.216 Y48.014 E7.70825
G1 X123.832 Y48.419 E7.73172
G1 X124.558 Y48.969 E7.76071
G1 X124.611 Y49.014 E7.76292
G1 X125.46 Y49.783 E7.79938
G1 X125.804 Y50.161 E7.81565
G1 X126.327 Y50.816 E7.84233
G1 X126.8 Y51.477 E7.86821
G1 X127.154 Y52.059 E7.88989
G1 X127.487 Y52.717 E7.91336
G1 X127.814 Y53.468 E7.93944
G1 X127.84 Y53.539 E7.94184
G1 X128.128 Y54.377 E7.97005
G1 X128.295 Y54.996 E7.99046
G1 X128.418 Y55.59 E8.00977
G1 X128.469 Y55.967 E8.02187
G1 X128.549 Y56.79 E8.0482
G1 X128.563 Y57.197 E8.06116
G1 X128.562 Y58.002 E8.08678
G1 X128.552 Y58.171 E8.09217
G1 X128.452 Y59.216 E8.12559
G1 X128.412 Y59.461 E8.13349
G1 X128.287 Y60.053 E8.15275
G1 X128.178 Y60.469 E8.16644
G1 X127.98 Y61.094 E8.18731
G1 X127.698 Y61.798 E8.21145
G1 X127.422 Y62.407 E8.23273
G1 X127.131 Y62.983 E8.25327
G1 X126.873 Y63.42 E8.26942
G1 X126.832 Y63.483 E8.27182
G1 X126.178 Y64.383 E8.30723
G1 X125.692 Y64.965 E8.33136
G1 X125.402 Y65.271 E8.34478
G1 X124.97 Y65.683 E8.36379
G1 X124.801 Y65.828 E8.37087
G1 X124.307 Y66.232 E8.39119
G1 X124.097 Y66.391 E8.39957
G1 X123.484 Y66.806 E8.42313
G1 X122.88 Y67.181 E8.44576
G1 X122.134 Y67.567 E8.4725
G1 X122.074 Y67.594 E8.4746
G1 X121.117 Y67.966 E8.50728
G1 X120.755 Y68.079 E8.51935
G1 X120.013 Y68.281 E8.54383
G1 X119.394 Y68.417 E8.564
G1 X118.863 Y68.5 E8.58111
G1 X118.353 Y68.548 E8.59741
G1 X117.589 Y68.575 E8.62175
G1 X117.027 Y68.571 E8.63964
G1 X116.34 Y68.52 E8.66157
G1 X115.705 Y68.431 E8.68198
G1 X115.441 Y68.384 E8.69051
G1 X114.804 Y68.242 E8.71129
G1 X114.465 Y68.15 E8.72247
G1 X113.938 Y67.99 E8.74
G1 X113.368 Y67.783 E8.7593
G1 X113.232 Y67.725 E8.76401
G1 X112.621 Y67.448 E8.78536
G1 X112.088 Y67.172 E8.80447
G1 X111.784 Y66.986 E8.81581
G1 X111.169 Y66.581 E8.83925
G1 X110.439 Y66.028 E8.8684
G1 X110.374 Y65.975 E8.87107
G1 X109.572 Y65.247 E8.90555
G1 X109.196 Y64.84 E8.92319
G1 X108.67 Y64.18 E8.95005
G1 X108.177 Y63.49 E8.97704
G1 X108.081 Y63.341 E8.98269
G1 X107.669 Y62.594 E9.00984
G1 X107.323 Y61.859 E9.0357
G1 X107.153 Y61.444 E9.04997
G1 X106.883 Y60.655 E9.07652
G1 X106.704 Y59.999 E9.09816
G1 X106.579 Y59.387 E9.11805
G1 X106.541 Y59.105 E9.1271
G1 X106.445 Y58.096 E9.15937
G1 X106.438 Y57.865 E9.16672
G1 X106.438 Y56.997 E9.19435
G1 X106.448 Y56.829 E9.19971
G1 X106.548 Y55.783 E9.23316
G1 X106.597 Y55.496 E9.24242
G1 X106.711 Y54.959 E9.2599
G1 X106.822 Y54.539 E9.27372
G1 X107.041 Y53.848 E9.2968
G1 X107.302 Y53.202 E9.31898
G1 X107.578 Y52.593 E9.34026
G0 F2100 X108.092 Y52.432
G1 F1500 X108.333 Y51.989 E9.35631
G1 X108.495 Y51.73 E9.36604
G1 X108.787 Y51.309 E9.38234
G1 X109.232 Y50.722 E9.40579
G1 X109.71 Y50.172 E9.42899
G1 X110.155 Y49.736 E9.44882
G1 X110.536 Y49.398 E9.46503
G1 X110.619 Y49.328 E9.46849
G1 X111.047 Y48.99 E9.48584
G1 X111.305 Y48.797 E9.4961
G1 X112.17 Y48.235 E9.52894
G1 X112.214 Y48.209 E9.53056
G1 X113.045 Y47.779 E9.56035
G1 X113.587 Y47.555 E9.57901
G1 X114.117 Y47.361 E9.59698
G1 X114.618 Y47.214 E9.6136
G1 X115.134 Y47.084 E9.63054
G1 X115.494 Y47.004 E9.64227
G1 X116.124 Y46.895 E9.66263
G1 X116.215 Y46.882 E9.66555
G1 X116.859 Y46.828 E9.68612
G1 X117.627 Y46.814 E9.71057
G1 X118.218 Y46.829 E9.72939
G1 X118.748 Y46.878 E9.74633
G1 X119.274 Y46.962 E9.76329
G1 X119.954 Y47.103 E9.78539
G1 X120.249 Y47.179 E9.79509
G1 X120.774 Y47.329 E9.81247
G1 X121.259 Y47.493 E9.82877
G1 X121.755 Y47.692 E9.84578
G1 X122.454 Y48.024 E9.87041
G1 X122.552 Y48.076 E9.87394
G1 X123.149 Y48.43 E9.89604
G1 X123.857 Y48.913 E9.92332
G1 X124.351 Y49.303 E9.94335
G1 X124.755 Y49.654 E9.96039
G1 X125.187 Y50.062 E9.9793
G1 X125.51 Y50.416 E9.99455
