;FLAVOR:Marlin
;TIME:12210
;Filament used: 8.20479m
;Layer height: 0.15
;MINX:70.017
;MINY:85.6
;MINZ:0.25
;MAXX:164.984
;MAXY:149.4
;MAXZ:19.9
;Generated with Cura_SteamEngine 4.8
M140 S60
M105
M190 S60
M104 S200
M105
M109 S200
M82 ;absolute extrusion mode
G28 ;home
G92 E0 ;Reset Extruder
G1 Z4.0 F3000 ;Move Z Axis up
G1 X1.1 Y20 Z0.28 F5000.0 ;Move to start position
G1 X1.1 Y200.0 Z0.28 F1500.0 E15 ;Draw the first line
G1 X1.4 Y200.0 Z0.28 F5000.0 ;Move to side a little
G1 X1.4 Y20 Z0.28 F1500.0 E30 ;Draw the second line
G92 E0 ;Reset Extruder
G1 Z2.0 F3000 ;Move Z Axis up
G92 E0
G92 E0
G1 F4200 E-5
;LAYER_COUNT:132
;LAYER:0
M107
G0 F2100 X71.409 Y91.533 Z0.25
;TYPE:SKIRT
G1 F4200 E0
G1 F1500 X71.824 Y91.244 E0.02103
G1 X72.241 Y91.039 E0.04034
G1 X72.901 Y90.83 E0.06913
G1 X73.603 Y90.728 E0.09862
G1 X74.157 Y90.717 E0.12166
G1 X160.64 Y90.716 E3.7172
G1 X161.322 Y90.726 E3.74556
G1 X161.825 Y90.774 E3.76657
G1 X162.416 Y90.921 E3.79189
G1 X162.891 Y91.094 E3.8129
G1 X163.333 Y91.339 E3.83391
G1 X163.731 Y91.651 E3.85494
G1 X164.2 Y92.174 E3.88414
G1 X164.487 Y92.59 E3.90516
G1 X164.705 Y93.046 E3.92617
G1 X164.882 Y93.656 E3.95258
G1 X164.973 Y94.307 E3.9799
G1 X164.984 Y94.904 E4.00473
G1 X164.982 Y139.938 E5.87703
G1 X164.972 Y140.658 E5.90696
G1 X164.925 Y141.162 E5.92801
G1 X164.758 Y141.795 E5.95522
G1 X164.573 Y142.265 E5.97622
G1 X164.316 Y142.701 E5.99727
G1 X163.994 Y143.091 E6.01829
G1 X163.506 Y143.517 E6.04522
G1 X163.09 Y143.803 E6.06621
G1 X162.633 Y144.021 E6.08726
G1 X161.999 Y144.196 E6.11461
G1 X161.392 Y144.265 E6.14001
G1 X160.408 Y144.283 E6.18092
G1 X74.36 Y144.284 E9.75838
G1 X73.678 Y144.274 E9.78674
G1 X73.175 Y144.226 E9.80775
G1 X72.584 Y144.079 E9.83307
G1 X72.109 Y143.906 E9.85408
G1 X71.667 Y143.661 E9.8751
G1 X71.269 Y143.349 E9.89612
G1 X70.787 Y142.81 E9.92618
G1 X70.5 Y142.395 E9.94716
G1 X70.281 Y141.939 E9.96819
G1 X70.108 Y141.32 E9.99491
G1 X70.035 Y140.695 E10.02107
G1 X70.017 Y139.699 E10.06249
G1 X70.017 Y95.036 E11.91936
G1 X70.027 Y94.357 E11.94759
G1 X70.123 Y93.628 E11.97816
G1 X70.178 Y93.408 E11.98759
G1 X70.339 Y92.929 E12.0086
G1 X70.573 Y92.481 E12.02961
G1 X70.888 Y92.061 E12.05144
G1 X71.045 Y91.884 E12.06128
G1 X71.409 Y91.533 E12.0823
G1 F4200 E7.0823
;MESH:powerBank-Tampa.stl
G0 F2100 X109.365 Y117.373
G0 X107.93 Y117.373
G0 X108.1 Y119.3
;TYPE:WALL-INNER
G1 F4200 E12.0823
G1 F1200 X138.7 Y119.3 E13.3545
G1 X138.7 Y100.9 E14.11948
G1 X108.1 Y100.9 E15.39168
G1 X108.1 Y119.3 E16.15667
G0 F2100 X108.5 Y118.9
;TYPE:WALL-OUTER
G1 F1200 X138.3 Y118.9 E17.39561
G1 X138.3 Y101.3 E18.12733
G1 X108.5 Y101.3 E19.36627
G1 X108.5 Y118.9 E20.09799
G0 F2100 X108.7 Y118.9
G0 X108.7 Y119.34
G1 F4200 E15.09799
G0 F2100 X107.93 Y117.373
G0 X109.365 Y117.373
G0 X107.905 Y141.748
G0 X107.904 Y140.274
G0 X73.817 Y140.484
;TYPE:WALL-INNER
G1 F4200 E20.09799
G1 F1200 X73.817 Y140.285 E20.10627
G1 X73.817 Y94.517 E22.00908
G1 X160.985 Y94.516 E25.6331
G1 X161.184 Y94.516 E25.64138
G1 X161.184 Y94.715 E25.64673
G1 X161.182 Y140.483 E27.54954
G1 X74.016 Y140.484 E31.17348
G1 X73.817 Y140.484 E31.17884
G0 F2100 X73.545 Y140.829
;TYPE:WALL-OUTER
G1 F1200 X73.443 Y140.703 E31.18558
G1 X73.417 Y140.578 E31.19088
G1 X73.417 Y94.417 E33.11004
G1 X73.456 Y94.271 E33.11632
G1 X73.551 Y94.166 E33.12221
G1 X73.726 Y94.117 E33.12976
G1 X161.27 Y94.116 E36.76942
G1 X161.455 Y94.171 E36.77744
G1 X161.558 Y94.298 E36.78424
G1 X161.584 Y94.414 E36.78918
G1 X161.582 Y140.586 E38.70879
G1 X161.53 Y140.753 E38.71606
G1 X161.403 Y140.857 E38.72289
G1 X161.278 Y140.883 E38.7282
G1 X73.73 Y140.884 E42.36802
G1 X73.545 Y140.829 E42.37604
G0 F2100 X73.443 Y140.703
G0 X73.436 Y140.666
G0 X73.87 Y140.443
G0 X74.207 Y140.094
;TYPE:SKIN
G1 F1200 X74.207 Y94.907 E44.2547
G1 X160.794 Y94.906 E47.85457
G1 X160.792 Y140.093 E49.73323
G1 X74.207 Y140.094 E53.33301
G1 F4200 E48.33301
G0 F2100 X73.927 Y140.094
G0 X107.99 Y140.274
G0 X107.991 Y141.748
G0 X109.353 Y118.047
G0 X107.99 Y119.49
G0 X107.71 Y119.69
G1 F4200 E53.33301
G1 F1200 X139.09 Y119.69 E54.63764
G1 X139.09 Y100.51 E55.43505
G1 X107.71 Y100.51 E56.73968
G1 X107.71 Y119.69 E57.53709
G1 F4200 E52.53709
G0 F2100 X107.99 Y119.44
G0 X107.93 Y117.373
G0 X109.365 Y117.373
G0 X107.905 Y141.748
G0 X107.904 Y140.274
G0 X74.859 Y140.374
G0 X74.859 Y139.913
G1 F4200 E57.53709
G1 F1200 X74.386 Y139.44 E57.5649
G0 F2100 X74.386 Y138.875
G1 F1200 X75.424 Y139.913 E57.62593
G0 F2100 X75.99 Y139.913
G1 F1200 X74.386 Y138.309 E57.72024
G0 F2100 X74.386 Y137.743
G1 F1200 X76.556 Y139.913 E57.84783
G0 F2100 X77.122 Y139.913
G1 F1200 X74.386 Y137.178 E58.00867
G0 F2100 X74.386 Y136.612
G1 F1200 X77.687 Y139.913 E58.20275
G0 F2100 X78.253 Y139.913
G1 F1200 X74.386 Y136.046 E58.43012
G0 F2100 X74.386 Y135.48
G1 F1200 X78.819 Y139.913 E58.69076
G0 F2100 X79.384 Y139.913
G1 F1200 X74.386 Y134.915 E58.98463
G0 F2100 X74.386 Y134.349
G1 F1200 X79.95 Y139.913 E59.31177
G0 F2100 X80.516 Y139.913
G1 F1200 X74.386 Y133.783 E59.67219
G0 F2100 X74.386 Y133.218
G1 F1200 X81.081 Y139.913 E60.06583
G0 F2100 X81.647 Y139.913
G1 F1200 X74.386 Y132.652 E60.49275
G0 F2100 X74.386 Y132.086
G1 F1200 X82.213 Y139.913 E60.95294
G0 F2100 X82.778 Y139.913
G1 F1200 X74.386 Y131.521 E61.44636
G0 F2100 X74.386 Y130.955
G1 F1200 X83.344 Y139.913 E61.97306
G0 F2100 X83.91 Y139.913
G1 F1200 X74.386 Y130.389 E62.53303
G0 F2100 X74.386 Y129.824
G1 F1200 X84.475 Y139.913 E63.12623
G0 F2100 X85.041 Y139.913
G1 F1200 X74.386 Y129.258 E63.7527
G0 F2100 X74.386 Y128.692
G1 F1200 X85.607 Y139.913 E64.41245
G0 F2100 X86.172 Y139.913
G1 F1200 X74.386 Y128.127 E65.10542
G0 F2100 X74.386 Y127.561
G1 F1200 X86.738 Y139.913 E65.83167
G0 F2100 X87.304 Y139.913
G1 F1200 X74.386 Y126.995 E66.5912
G0 F2100 X74.386 Y126.429
G1 F1200 X87.87 Y139.913 E67.38401
G0 F2100 X88.435 Y139.913
G1 F1200 X74.386 Y125.864 E68.21004
G0 F2100 X74.386 Y125.298
G1 F1200 X89.001 Y139.913 E69.06934
G0 F2100 X89.567 Y139.913
G1 F1200 X74.386 Y124.732 E69.96193
G0 F2100 X74.386 Y124.167
G1 F1200 X90.132 Y139.913 E70.88773
G0 F2100 X90.698 Y139.913
G1 F1200 X74.386 Y123.601 E71.84682
G0 F2100 X74.386 Y123.035
G1 F1200 X91.264 Y139.913 E72.83918
G0 F2100 X91.829 Y139.913
G1 F1200 X74.386 Y122.47 E73.86476
G0 F2100 X74.386 Y121.904
G1 F1200 X92.395 Y139.913 E74.92362
G0 F2100 X92.961 Y139.913
G1 F1200 X74.386 Y121.338 E76.01576
G0 F2100 X74.386 Y120.773
G1 F1200 X93.526 Y139.913 E77.14112
G0 F2100 X94.092 Y139.913
G1 F1200 X74.386 Y120.207 E78.29975
G0 F2100 X74.386 Y119.641
G1 F1200 X94.658 Y139.913 E79.49167
G0 F2100 X95.223 Y139.913
G1 F1200 X74.386 Y119.076 E80.71681
G0 F2100 X74.386 Y118.51
G1 F1200 X95.789 Y139.913 E81.97522
G0 F2100 X96.355 Y139.913
G1 F1200 X74.386 Y117.944 E83.26691
G0 F2100 X74.386 Y117.379
G1 F1200 X96.921 Y139.913 E84.59186
G0 F2100 X97.486 Y139.913
G1 F1200 X74.386 Y116.813 E85.95005
G0 F2100 X74.386 Y116.247
G1 F1200 X98.052 Y139.913 E87.34152
G0 F2100 X98.618 Y139.913
G1 F1200 X74.386 Y115.681 E88.76627
G0 F2100 X74.386 Y115.116
G1 F1200 X99.183 Y139.913 E90.22423
G0 F2100 X99.749 Y139.913
G1 F1200 X74.386 Y114.55 E91.71548
G0 F2100 X74.386 Y113.984
G1 F1200 X100.315 Y139.913 E93.24001
G0 F2100 X100.88 Y139.913
G1 F1200 X74.386 Y113.419 E94.79775
G0 F2100 X74.386 Y112.853
G1 F1200 X101.446 Y139.913 E96.38878
G0 F2100 X102.012 Y139.913
G1 F1200 X74.386 Y112.287 E98.01308
G0 F2100 X74.386 Y111.722
G1 F1200 X102.577 Y139.913 E99.6706
G0 F2100 X103.143 Y139.913
G1 F1200 X74.386 Y111.156 E101.3614
G0 F2100 X74.386 Y110.59
G1 F1200 X103.709 Y139.913 E103.08548
G0 F2100 X104.274 Y139.913
G1 F1200 X74.386 Y110.025 E104.84278
G0 F2100 X74.386 Y109.459
G1 F1200 X104.84 Y139.913 E106.63336
G0 F2100 X105.406 Y139.913
G1 F1200 X74.386 Y108.893 E108.45722
G0 F2100 X74.386 Y108.328
G1 F1200 X105.971 Y139.913 E110.3143
G0 F2100 X106.537 Y139.913
G1 F1200 X74.386 Y107.762 E112.20465
G0 F2100 X74.386 Y107.196
G1 F1200 X107.103 Y139.913 E114.12829
G0 F2100 X107.669 Y139.913
G1 F1200 X74.386 Y106.63 E116.0852
G0 F2100 X74.386 Y106.065
G1 F1200 X108.234 Y139.913 E118.07533
G0 F2100 X108.8 Y139.913
G1 F1200 X74.386 Y105.499 E120.09874
G0 F2100 X74.386 Y104.933
G1 F1200 X109.366 Y139.913 E122.15543
G0 F2100 X109.931 Y139.913
G1 F1200 X74.386 Y104.368 E124.24534
G0 F2100 X74.386 Y103.802
G1 F1200 X110.497 Y139.913 E126.36853
G0 F2100 X111.063 Y139.913
G1 F1200 X74.386 Y103.236 E128.525
G0 F2100 X74.386 Y102.671
G1 F1200 X111.628 Y139.913 E130.71469
G0 F2100 X112.194 Y139.913
G1 F1200 X74.386 Y102.105 E132.93765
G0 F2100 X74.386 Y101.539
G1 F1200 X112.76 Y139.913 E135.1939
G0 F2100 X113.325 Y139.913
G1 F1200 X74.386 Y100.974 E137.48336
G0 F2100 X74.386 Y100.408
G1 F1200 X113.891 Y139.913 E139.8061
G0 F2100 X114.457 Y139.913
G1 F1200 X74.386 Y99.842 E142.16212
G0 F2100 X74.386 Y99.277
G1 F1200 X115.022 Y139.913 E144.55136
G0 F2100 X115.588 Y139.913
G1 F1200 X74.386 Y98.711 E146.97388
G0 F2100 X74.386 Y98.145
G1 F1200 X116.154 Y139.913 E149.42968
G0 F2100 X116.719 Y139.913
G1 F1200 X74.386 Y97.58 E151.9187
G0 F2100 X74.386 Y97.014
G1 F1200 X117.285 Y139.913 E154.441
G0 F2100 X117.851 Y139.913
G1 F1200 X74.386 Y96.448 E156.99657
G0 F2100 X74.386 Y95.882
G1 F1200 X118.417 Y139.913 E159.58543
G0 F2100 X118.982 Y139.913
G1 F1200 X74.386 Y95.317 E162.2075
G0 F2100 X74.722 Y95.086
G1 F1200 X119.548 Y139.913 E164.84313
G0 F2100 X120.114 Y139.913
G1 F1200 X75.287 Y95.086 E167.47878
G0 F2100 X75.853 Y95.086
G1 F1200 X120.679 Y139.913 E170.11441
G0 F2100 X121.245 Y139.913
G1 F1200 X76.419 Y95.086 E172.75004
G0 F2100 X76.984 Y95.086
G1 F1200 X121.811 Y139.913 E175.38569
G0 F2100 X122.376 Y139.913
G1 F1200 X77.55 Y95.086 E178.02132
G0 F2100 X78.116 Y95.086
G1 F1200 X122.942 Y139.913 E180.65694
G0 F2100 X123.508 Y139.913
G1 F1200 X78.681 Y95.086 E183.2926
G0 F2100 X79.247 Y95.086
G1 F1200 X124.073 Y139.913 E185.92823
G0 F2100 X124.639 Y139.913
G1 F1200 X79.813 Y95.086 E188.56385
G0 F2100 X80.378 Y95.086
G1 F1200 X125.205 Y139.913 E191.19951
G0 F2100 X125.77 Y139.913
G1 F1200 X80.944 Y95.086 E193.83514
G0 F2100 X81.51 Y95.086
G1 F1200 X126.336 Y139.913 E196.47076
G0 F2100 X126.902 Y139.913
G1 F1200 X82.076 Y95.086 E199.10639
G0 F2100 X82.641 Y95.086
G1 F1200 X127.468 Y139.913 E201.74204
G0 F2100 X128.033 Y139.913
G1 F1200 X107.99 Y119.87 E202.9205
G0 F2100 X108.556 Y119.87
G1 F1200 X128.599 Y139.913 E204.09895
G0 F2100 X129.165 Y139.913
G1 F1200 X109.122 Y119.87 E205.2774
G0 F2100 X109.687 Y119.87
G1 F1200 X129.73 Y139.913 E206.45585
G0 F2100 X130.296 Y139.913
G1 F1200 X110.253 Y119.87 E207.6343
G0 F2100 X110.819 Y119.87
G1 F1200 X130.862 Y139.913 E208.81275
G0 F2100 X131.427 Y139.913
G1 F1200 X111.384 Y119.87 E209.99121
G0 F2100 X111.95 Y119.87
G1 F1200 X131.993 Y139.913 E211.16966
G0 F2100 X132.559 Y139.913
G1 F1200 X112.516 Y119.87 E212.34811
G0 F2100 X113.081 Y119.87
G1 F1200 X133.124 Y139.913 E213.52656
G0 F2100 X133.69 Y139.913
G1 F1200 X113.647 Y119.87 E214.70501
G0 F2100 X114.213 Y119.87
G1 F1200 X134.256 Y139.913 E215.88346
G0 F2100 X134.821 Y139.913
G1 F1200 X114.778 Y119.87 E217.06191
G0 F2100 X115.344 Y119.87
G1 F1200 X135.387 Y139.913 E218.24037
G0 F2100 X135.953 Y139.913
G1 F1200 X115.91 Y119.87 E219.41882
G0 F2100 X116.476 Y119.87
G1 F1200 X136.518 Y139.913 E220.59724
G0 F2100 X137.084 Y139.913
G1 F1200 X117.041 Y119.87 E221.77569
G0 F2100 X117.607 Y119.87
G1 F1200 X137.65 Y139.913 E222.95414
G0 F2100 X138.216 Y139.913
G1 F1200 X118.173 Y119.87 E224.13259
G0 F2100 X118.738 Y119.87
G1 F1200 X138.781 Y139.913 E225.31105
G0 F2100 X139.347 Y139.913
G1 F1200 X119.304 Y119.87 E226.4895
G0 F2100 X119.87 Y119.87
G1 F1200 X139.913 Y139.913 E227.66795
G0 F2100 X140.478 Y139.913
G1 F1200 X120.435 Y119.87 E228.8464
G0 F2100 X121.001 Y119.87
G1 F1200 X141.044 Y139.913 E230.02485
G0 F2100 X141.61 Y139.913
G1 F1200 X121.567 Y119.87 E231.2033
G0 F2100 X122.132 Y119.87
G1 F1200 X142.175 Y139.913 E232.38176
G0 F2100 X142.741 Y139.913
G1 F1200 X122.698 Y119.87 E233.56021
G0 F2100 X123.264 Y119.87
G1 F1200 X143.307 Y139.913 E234.73866
G0 F2100 X143.872 Y139.913
G1 F1200 X123.829 Y119.87 E235.91711
G0 F2100 X124.395 Y119.87
G1 F1200 X144.438 Y139.913 E237.09556
G0 F2100 X145.004 Y139.913
G1 F1200 X124.961 Y119.87 E238.27401
G0 F2100 X125.527 Y119.87
G1 F1200 X145.569 Y139.913 E239.45244
G0 F2100 X146.135 Y139.913
G1 F1200 X126.092 Y119.87 E240.63089
G0 F2100 X126.658 Y119.87
G1 F1200 X146.701 Y139.913 E241.80934
G0 F2100 X147.267 Y139.913
G1 F1200 X127.224 Y119.87 E242.98779
G0 F2100 X127.789 Y119.87
G1 F1200 X147.832 Y139.913 E244.16624
G0 F2100 X148.398 Y139.913
G1 F1200 X128.355 Y119.87 E245.34469
G0 F2100 X128.921 Y119.87
G1 F1200 X148.964 Y139.913 E246.52315
G0 F2100 X149.529 Y139.913
G1 F1200 X129.486 Y119.87 E247.7016
G0 F2100 X130.052 Y119.87
G1 F1200 X150.095 Y139.913 E248.88005
G0 F2100 X150.661 Y139.913
G1 F1200 X130.618 Y119.87 E250.0585
G0 F2100 X131.183 Y119.87
G1 F1200 X151.226 Y139.913 E251.23695
G0 F2100 X151.792 Y139.913
G1 F1200 X131.749 Y119.87 E252.4154
G0 F2100 X132.315 Y119.87
G1 F1200 X152.358 Y139.913 E253.59385
G0 F2100 X152.923 Y139.913
G1 F1200 X132.88 Y119.87 E254.77231
G0 F2100 X133.446 Y119.87
G1 F1200 X153.489 Y139.913 E255.95076
G0 F2100 X154.055 Y139.913
G1 F1200 X134.012 Y119.87 E257.12921
G0 F2100 X134.577 Y119.87
G1 F1200 X154.62 Y139.913 E258.30766
G0 F2100 X155.186 Y139.913
G1 F1200 X135.143 Y119.87 E259.48611
G0 F2100 X135.709 Y119.87
G1 F1200 X155.752 Y139.913 E260.66456
G0 F2100 X156.317 Y139.913
G1 F1200 X136.275 Y119.87 E261.84299
G0 F2100 X136.84 Y119.87
G1 F1200 X156.883 Y139.913 E263.02144
G0 F2100 X157.449 Y139.913
G1 F1200 X137.406 Y119.87 E264.19989
G0 F2100 X137.972 Y119.87
G1 F1200 X158.015 Y139.913 E265.37834
G0 F2100 X158.58 Y139.913
G1 F1200 X138.537 Y119.87 E266.55679
G0 F2100 X139.103 Y119.87
G1 F1200 X159.146 Y139.913 E267.73524
G0 F2100 X159.712 Y139.913
G1 F1200 X139.268 Y119.469 E268.93727
G0 F2100 X139.268 Y118.904
G1 F1200 X160.277 Y139.913 E270.17252
G0 F2100 X160.612 Y139.681
G1 F1200 X139.268 Y118.338 E271.42744
G0 F2100 X139.268 Y117.772
G1 F1200 X160.612 Y139.116 E272.68238
G0 F2100 X160.612 Y138.55
G1 F1200 X139.268 Y117.207 E273.9373
G0 F2100 X139.268 Y116.641
G1 F1200 X160.612 Y137.984 E275.19222
G0 F2100 X160.612 Y137.419
G1 F1200 X139.268 Y116.075 E276.44716
G0 F2100 X139.268 Y115.51
G1 F1200 X160.612 Y136.853 E277.70208
G0 F2100 X160.612 Y136.287
G1 F1200 X139.268 Y114.944 E278.95699
G0 F2100 X139.268 Y114.378
G1 F1200 X160.612 Y135.722 E280.21194
G0 F2100 X160.612 Y135.156
G1 F1200 X139.268 Y113.813 E281.46685
G0 F2100 X139.268 Y113.247
G1 F1200 X160.612 Y134.59 E282.72177
G0 F2100 X160.612 Y134.025
G1 F1200 X139.268 Y112.681 E283.97672
G0 F2100 X139.268 Y112.116
G1 F1200 X160.612 Y133.459 E285.23163
G0 F2100 X160.612 Y132.893
G1 F1200 X139.268 Y111.55 E286.48655
G0 F2100 X139.268 Y110.984
G1 F1200 X160.612 Y132.327 E287.74146
G0 F2100 X160.612 Y131.762
G1 F1200 X139.268 Y110.418 E288.99641
G0 F2100 X139.268 Y109.853
G1 F1200 X160.612 Y131.196 E290.25133
G0 F2100 X160.612 Y130.63
G1 F1200 X139.268 Y109.287 E291.50624
G0 F2100 X139.268 Y108.721
G1 F1200 X160.612 Y130.065 E292.76119
G0 F2100 X160.612 Y129.499
G1 F1200 X139.268 Y108.156 E294.0161
G0 F2100 X139.268 Y107.59
G1 F1200 X160.612 Y128.933 E295.27102
G0 F2100 X160.612 Y128.368
G1 F1200 X139.268 Y107.024 E296.52596
G0 F2100 X139.268 Y106.459
G1 F1200 X160.612 Y127.802 E297.78088
G0 F2100 X160.612 Y127.236
G1 F1200 X139.268 Y105.893 E299.0358
G0 F2100 X139.268 Y105.327
G1 F1200 X160.612 Y126.671 E300.29074
G0 F2100 X160.612 Y126.105
G1 F1200 X139.268 Y104.762 E301.54566
G0 F2100 X139.268 Y104.196
G1 F1200 X160.612 Y125.539 E302.80057
G0 F2100 X160.612 Y124.974
G1 F1200 X139.268 Y103.63 E304.05552
G0 F2100 X139.268 Y103.065
G1 F1200 X160.612 Y124.409 E305.31046
G0 F2100 X160.612 Y123.843
G1 F1200 X139.268 Y102.499 E306.56541
G0 F2100 X139.268 Y101.933
G1 F1200 X160.612 Y123.277 E307.82035
G0 F2100 X160.612 Y122.712
G1 F1200 X139.268 Y101.367 E309.07533
G0 F2100 X139.268 Y100.802
G1 F1200 X160.612 Y122.146 E310.33028
G0 F2100 X160.612 Y121.58
G1 F1200 X134.119 Y95.086 E311.88799
G0 F2100 X134.684 Y95.086
