;FLAVOR:Marlin
;TIME:11861
;Filament used: 8.40684m
;Layer height: 0.2
;MINX:67.55
;MINY:27.8
;MINZ:0.25
;MAXX:167.45
;MAXY:87.2
;MAXZ:19.85
;Generated with Cura_SteamEngine 4.8
M140 S100
M105
M190 S100
M104 S250
M105
M109 S250
M82 ;absolute extrusion mode
G28 ;home
G92 E0 ;Reset Extruder
G1 Z4.0 F3000 ;Move Z Axis up
G1 X1.1 Y20 Z0.28 F5000.0 ;Move to start position
G1 X1.1 Y200.0 Z0.28 F1500.0 E15 ;Draw the first line
G1 X1.4 Y200.0 Z0.28 F5000.0 ;Move to side a little
G1 X1.4 Y20 Z0.28 F1500.0 E30 ;Draw the second line
G92 E0 ;Reset Extruder
G1 Z2.0 F3000 ;Move Z Axis up
G92 E0
G92 E0
G1 F4200 E-5
;LAYER_COUNT:99
;LAYER:0
M107
G0 F2100 X68.025 Y31.825 Z0.25
;TYPE:SKIRT
G1 F4200 E0
G1 F1500 X68.307 Y31.224 E0.02381
G1 X68.64 Y30.668 E0.04706
G1 X68.943 Y30.248 E0.06563
G1 X69.402 Y29.732 E0.0904
G1 X69.705 Y29.444 E0.1054
G1 X70.255 Y28.999 E0.13077
G1 X70.886 Y28.605 E0.15745
G1 X71.28 Y28.41 E0.17322
G1 X71.95 Y28.146 E0.19905
G1 X72.583 Y27.968 E0.22263
G1 X72.754 Y27.933 E0.22889
G1 X73.528 Y27.84 E0.25686
G1 X73.697 Y27.829 E0.26293
G1 X74.592 Y27.802 E0.29505
G1 X74.952 Y27.8 E0.30796
G1 X160 Y27.8 E3.35839
G1 X160.62 Y27.804 E3.38063
G1 X161.042 Y27.817 E3.39577
G1 X161.65 Y27.854 E3.41762
G1 X162.174 Y27.924 E3.43658
G1 X162.689 Y28.035 E3.45547
G1 X163.355 Y28.251 E3.48059
G1 X163.937 Y28.515 E3.50351
G1 X163.97 Y28.532 E3.50484
G1 X164.448 Y28.807 E3.52462
G1 X164.872 Y29.098 E3.54306
G1 X165.291 Y29.439 E3.56244
G1 X165.717 Y29.853 E3.58375
G1 X166.053 Y30.244 E3.60224
G1 X166.544 Y30.966 E3.63355
G1 X166.588 Y31.04 E3.63664
G1 X166.827 Y31.499 E3.6552
G1 X167.123 Y32.254 E3.68429
G1 X167.277 Y32.812 E3.70505
G1 X167.363 Y33.303 E3.72293
G1 X167.417 Y33.895 E3.74425
G1 X167.448 Y34.872 E3.77931
G1 X167.45 Y35.189 E3.79068
G1 X167.45 Y79.75 E5.38896
G1 X167.446 Y80.369 E5.41116
G1 X167.434 Y80.777 E5.4258
G1 X167.394 Y81.418 E5.44884
G1 X167.299 Y82.073 E5.47257
G1 X167.175 Y82.585 E5.49147
G1 X167.001 Y83.104 E5.5111
G1 X166.698 Y83.768 E5.53728
G1 X166.43 Y84.222 E5.55619
G1 X166.106 Y84.69 E5.57661
G1 X165.778 Y85.073 E5.59469
G1 X165.678 Y85.182 E5.6
G1 X165.183 Y85.658 E5.62463
G1 X164.786 Y85.965 E5.64263
G1 X164.147 Y86.375 E5.66986
G1 X163.557 Y86.665 E5.69344
G1 X162.909 Y86.901 E5.71818
G1 X162.292 Y87.057 E5.741
G1 X161.529 Y87.158 E5.76861
G1 X160.317 Y87.198 E5.8121
G1 X160.052 Y87.2 E5.82161
G1 X75 Y87.2 E8.87218
G1 X74.38 Y87.196 E8.89442
G1 X73.826 Y87.179 E8.9143
G1 X73.232 Y87.138 E8.93565
G1 X72.709 Y87.06 E8.95462
G1 X72.103 Y86.907 E8.97704
G1 X71.525 Y86.707 E8.99898
G1 X71.092 Y86.501 E9.01617
G1 X70.469 Y86.139 E9.04202
G1 X70.045 Y85.839 E9.06065
G1 X69.451 Y85.32 E9.08894
G1 X69.037 Y84.872 E9.11082
G1 X68.708 Y84.43 E9.13058
G1 X68.34 Y83.836 E9.15564
G1 X68.125 Y83.396 E9.17321
G1 X67.914 Y82.855 E9.19404
G1 X67.716 Y82.16 E9.21995
G1 X67.627 Y81.624 E9.23944
G1 X67.579 Y81.043 E9.26035
G1 X67.553 Y80.177 E9.29143
G1 X67.55 Y79.802 E9.30488
G1 X67.55 Y35.202 E10.90455
G1 X67.554 Y34.609 E10.92582
G1 X67.565 Y34.254 E10.93856
G1 X67.609 Y33.529 E10.96461
G1 X67.716 Y32.846 E10.98941
G1 X67.826 Y32.413 E11.00543
G1 X68.025 Y31.825 E11.0277
G0 F2100 X68.424 Y31.872
G1 F1500 X68.652 Y31.405 E11.04634
G1 X68.964 Y30.885 E11.06809
G1 X69.266 Y30.466 E11.08661
G1 X69.676 Y30.01 E11.10861
G1 X70.085 Y29.623 E11.1288
G1 X70.488 Y29.311 E11.14708
G1 X71.083 Y28.941 E11.17221
G1 X71.585 Y28.697 E11.19223
G1 X72.1 Y28.506 E11.21194
G1 X72.677 Y28.346 E11.23341
G1 X73.201 Y28.26 E11.25246
G1 X73.871 Y28.209 E11.27656
G1 X74.558 Y28.2 E11.3012
G1 X160.42 Y28.2 E14.38083
G1 X161.197 Y28.211 E14.4087
G1 X161.77 Y28.256 E14.42931
G1 X162.332 Y28.35 E14.44975
G1 X162.835 Y28.479 E14.46838
G1 X163.374 Y28.676 E14.48896
G1 X163.835 Y28.897 E14.5073
G1 X164.356 Y29.209 E14.52908
G1 X164.835 Y29.557 E14.55031
G1 X165.285 Y29.968 E14.57217
G1 X165.633 Y30.343 E14.59052
G1 X165.997 Y30.827 E14.61224
G1 X166.284 Y31.291 E14.63181
G1 X166.54 Y31.804 E14.65237
G1 X166.76 Y32.399 E14.67513
G1 X166.902 Y32.917 E14.69439
G1 X166.986 Y33.413 E14.71244
G1 X167.041 Y34.121 E14.73791
G1 X167.05 Y34.803 E14.76237
G1 X167.05 Y80.17 E16.38956
G1 X167.039 Y80.947 E16.41743
G1 X166.995 Y81.507 E16.43757
G1 X166.905 Y82.06 E16.45767
G1 X166.773 Y82.577 E16.47681
G1 X166.587 Y83.1 E16.49672
G1 X166.348 Y83.595 E16.51643
G1 X166.093 Y84.026 E16.53439
G1 X165.767 Y84.493 E16.55482
G1 X165.301 Y85.017 E16.57997
G1 X164.909 Y85.381 E16.59916
G1 X164.423 Y85.747 E16.62098
G1 X163.897 Y86.069 E16.6431
G1 X163.384 Y86.315 E16.66351
G1 X162.758 Y86.54 E16.68737
G1 X162.182 Y86.682 E16.70865
G1 X161.453 Y86.774 E16.735
G1 X161.129 Y86.791 E16.74664
G1 X160.443 Y86.8 E16.77124
G1 X74.58 Y86.8 E19.85091
G1 X73.803 Y86.789 E19.87878
G1 X73.279 Y86.751 E19.89762
G1 X72.761 Y86.673 E19.91641
G1 X72.136 Y86.511 E19.93957
G1 X71.656 Y86.339 E19.95786
G1 X71.146 Y86.093 E19.97816
G1 X70.598 Y85.76 E20.00116
G1 X70.13 Y85.414 E20.02204
G1 X69.698 Y85.017 E20.04308
G1 X69.326 Y84.609 E20.06289
G1 X68.994 Y84.16 E20.08291
G1 X68.674 Y83.635 E20.10497
G1 X68.439 Y83.145 E20.12446
G1 X68.256 Y82.65 E20.14339
G1 X68.096 Y82.072 E20.1649
G1 X68.009 Y81.541 E20.1842
G1 X67.959 Y80.879 E20.20801
G1 X67.95 Y80.193 E20.23262
G1 X67.95 Y34.803 E21.86063
G1 X67.961 Y34.043 E21.88789
G1 X68.006 Y33.48 E21.90815
G1 X68.1 Y32.918 E21.92858
G1 X68.227 Y32.422 E21.94695
G1 X68.424 Y31.872 E21.9679
G1 F4200 E16.9679
;MESH:powerBank-Body.stl
G0 F2100 X125.123 Y73.635
G0 X125.123 Y75.07
G0 X127.05 Y74.9
;TYPE:WALL-INNER
G1 F4200 E21.9679
G1 F1200 X127.05 Y57.1 E22.60634
G1 X97.15 Y57.1 E23.67877
G1 X97.15 Y74.9 E24.3172
G1 X127.05 Y74.9 E25.38963
G0 F2100 X126.65 Y74.5
;TYPE:WALL-OUTER
G1 F1200 X126.65 Y57.5 E25.99937
G1 X97.55 Y57.5 E27.0431
G1 X97.55 Y74.5 E27.65285
G1 X126.65 Y74.5 E28.69658
G0 F2100 X126.65 Y74.3
G0 X127.09 Y74.3
G1 F4200 E23.69658
G0 F2100 X125.123 Y75.07
G0 X125.123 Y73.635
G0 X96.955 Y81.94
G0 X96.954 Y80.466
G0 X74.076 Y80.676
;TYPE:WALL-INNER
G1 F4200 E28.69658
G1 F1200 X74.076 Y80.477 E28.70372
G1 X74.075 Y34.524 E30.35192
G1 X74.075 Y34.325 E30.35906
G1 X74.274 Y34.325 E30.36368
G1 X160.925 Y34.325 E33.4716
G1 X160.926 Y80.674 E35.13401
G1 X74.275 Y80.676 E38.24193
G1 X74.076 Y80.676 E38.24655
G0 F2100 X73.785 Y80.995
;TYPE:WALL-OUTER
G1 F1200 X73.676 Y80.784 E38.25507
G1 X73.675 Y34.239 E39.92451
G1 X73.755 Y34.036 E39.93233
G1 X73.977 Y33.925 E39.94124
G1 X161.011 Y33.925 E43.0629
G1 X161.214 Y34.005 E43.07072
G1 X161.325 Y34.227 E43.07963
G1 X161.326 Y80.761 E44.74867
G1 X161.245 Y80.965 E44.75654
G1 X161.034 Y81.074 E44.76506
G1 X73.989 Y81.076 E47.88712
G1 X73.785 Y80.995 E47.89499
G0 F2100 X73.694 Y80.817
G0 X74.085 Y80.616
G0 X74.466 Y80.286
;TYPE:SKIN
G1 F1200 X74.465 Y34.715 E49.52949
G1 X160.535 Y34.715 E52.61658
G1 X160.536 Y80.284 E54.25101
G1 X74.466 Y80.286 E57.33809
G1 F4200 E52.33809
G0 F2100 X74.466 Y80.566
G0 X97.04 Y80.466
G0 X97.041 Y81.94
G0 X98.403 Y73.647
G0 X97.04 Y75.09
G0 X96.76 Y75.29
G1 F4200 E57.33809
G1 F1200 X127.44 Y75.29 E58.4385
G1 X127.44 Y56.71 E59.10491
G1 X96.76 Y56.71 E60.20531
G1 X96.76 Y75.29 E60.87173
G1 F4200 E55.87173
G0 F2100 X97.04 Y75.04
G0 X99.479 Y75.07
G0 X99.479 Y73.635
G0 X96.955 Y81.94
G0 X96.954 Y80.466
G0 X75.013 Y80.566
G0 X75.013 Y80.104
G1 F4200 E60.87173
G1 F1200 X74.645 Y79.736 E60.89039
G0 F2100 X74.645 Y79.171
G1 F1200 X75.579 Y80.104 E60.93774
G0 F2100 X76.144 Y80.104
G1 F1200 X74.645 Y78.605 E61.01378
G0 F2100 X74.645 Y78.039
G1 F1200 X76.71 Y80.104 E61.11852
G0 F2100 X77.276 Y80.104
G1 F1200 X74.645 Y77.474 E61.25195
G0 F2100 X74.645 Y76.908
G1 F1200 X77.841 Y80.104 E61.41407
G0 F2100 X78.407 Y80.104
G1 F1200 X74.645 Y76.342 E61.60489
G0 F2100 X74.645 Y75.777
G1 F1200 X78.973 Y80.104 E61.8244
G0 F2100 X79.538 Y80.104
G1 F1200 X74.645 Y75.211 E62.07259
G0 F2100 X74.645 Y74.645
G1 F1200 X80.104 Y80.104 E62.34949
G0 F2100 X80.67 Y80.104
G1 F1200 X74.645 Y74.08 E62.65507
G0 F2100 X74.645 Y73.514
G1 F1200 X81.235 Y80.104 E62.98934
G0 F2100 X81.801 Y80.104
G1 F1200 X74.645 Y72.948 E63.35232
G0 F2100 X74.645 Y72.382
G1 F1200 X82.367 Y80.104 E63.74401
G0 F2100 X82.933 Y80.104
G1 F1200 X74.645 Y71.817 E64.16439
G0 F2100 X74.645 Y71.251
G1 F1200 X83.498 Y80.104 E64.61345
G0 F2100 X84.064 Y80.104
G1 F1200 X74.645 Y70.685 E65.09121
G0 F2100 X74.645 Y70.12
G1 F1200 X84.63 Y80.104 E65.59767
G0 F2100 X85.195 Y80.104
G1 F1200 X74.645 Y69.554 E66.1328
G0 F2100 X74.645 Y68.988
G1 F1200 X85.761 Y80.104 E66.69665
G0 F2100 X86.327 Y80.104
G1 F1200 X74.645 Y68.423 E67.28918
G0 F2100 X74.645 Y67.857
G1 F1200 X86.892 Y80.104 E67.91039
G0 F2100 X87.458 Y80.104
G1 F1200 X74.645 Y67.291 E68.56032
G0 F2100 X74.645 Y66.726
G1 F1200 X88.024 Y80.104 E69.23893
G0 F2100 X88.589 Y80.104
G1 F1200 X74.645 Y66.16 E69.94622
G0 F2100 X74.645 Y65.594
G1 F1200 X89.155 Y80.104 E70.68222
G0 F2100 X89.721 Y80.104
G1 F1200 X74.645 Y65.028 E71.44693
G0 F2100 X74.645 Y64.462
G1 F1200 X90.286 Y80.104 E72.24033
G0 F2100 X90.852 Y80.104
G1 F1200 X74.645 Y63.896 E73.06244
G0 F2100 X74.645 Y63.331
G1 F1200 X91.418 Y80.104 E73.91323
G0 F2100 X91.983 Y80.104
G1 F1200 X74.645 Y62.765 E74.7927
G0 F2100 X74.645 Y62.199
G1 F1200 X92.549 Y80.104 E75.70089
G0 F2100 X93.115 Y80.104
G1 F1200 X74.645 Y61.634 E76.63776
G0 F2100 X74.645 Y61.068
G1 F1200 X93.681 Y80.104 E77.60333
G0 F2100 X94.246 Y80.104
G1 F1200 X74.645 Y60.502 E78.5976
G0 F2100 X74.645 Y59.937
G1 F1200 X94.812 Y80.104 E79.62054
G0 F2100 X95.378 Y80.104
G1 F1200 X74.645 Y59.371 E80.6722
G0 F2100 X74.645 Y58.805
G1 F1200 X95.943 Y80.104 E81.75254
G0 F2100 X96.509 Y80.104
G1 F1200 X74.645 Y58.24 E82.86157
G0 F2100 X74.645 Y57.674
G1 F1200 X97.075 Y80.104 E83.9993
G0 F2100 X97.64 Y80.104
G1 F1200 X74.645 Y57.108 E85.16572
G0 F2100 X74.645 Y56.543
G1 F1200 X98.206 Y80.104 E86.36083
G0 F2100 X98.772 Y80.104
G1 F1200 X74.645 Y55.977 E87.58464
G0 F2100 X74.645 Y55.411
G1 F1200 X99.337 Y80.104 E88.83714
G0 F2100 X99.903 Y80.104
G1 F1200 X74.645 Y54.846 E90.11832
G0 F2100 X74.645 Y54.28
G1 F1200 X100.469 Y80.104 E91.42821
G0 F2100 X101.034 Y80.104
G1 F1200 X74.645 Y53.714 E92.76679
G0 F2100 X74.645 Y53.148
G1 F1200 X96.579 Y75.083 E93.87939
G0 F2100 X96.966 Y75.47
G1 F1200 X101.6 Y80.104 E94.11445
G0 F2100 X102.166 Y80.104
G1 F1200 X97.531 Y75.47 E94.34952
G0 F2100 X98.097 Y75.47
G1 F1200 X102.732 Y80.104 E94.5846
G0 F2100 X103.297 Y80.104
G1 F1200 X98.663 Y75.47 E94.81966
G0 F2100 X99.229 Y75.47
G1 F1200 X103.863 Y80.104 E95.05471
G0 F2100 X104.429 Y80.104
G1 F1200 X99.794 Y75.47 E95.28979
G0 F2100 X100.36 Y75.47
G1 F1200 X104.994 Y80.104 E95.52485
G0 F2100 X105.56 Y80.104
G1 F1200 X100.926 Y75.47 E95.7599
G0 F2100 X101.491 Y75.47
G1 F1200 X106.126 Y80.104 E95.99498
G0 F2100 X106.691 Y80.104
G1 F1200 X102.057 Y75.47 E96.23003
G0 F2100 X102.623 Y75.47
G1 F1200 X107.257 Y80.104 E96.46509
G0 F2100 X107.823 Y80.104
G1 F1200 X103.188 Y75.47 E96.70017
G0 F2100 X103.754 Y75.47
G1 F1200 X108.388 Y80.104 E96.93522
G0 F2100 X108.954 Y80.104
G1 F1200 X104.32 Y75.47 E97.17028
G0 F2100 X104.885 Y75.47
G1 F1200 X109.52 Y80.104 E97.40536
G0 F2100 X110.085 Y80.104
G1 F1200 X105.451 Y75.47 E97.64041
G0 F2100 X106.017 Y75.47
G1 F1200 X110.651 Y80.104 E97.87546
G0 F2100 X111.217 Y80.104
G1 F1200 X106.582 Y75.47 E98.11054
G0 F2100 X107.148 Y75.47
G1 F1200 X111.782 Y80.104 E98.3456
G0 F2100 X112.348 Y80.104
G1 F1200 X107.714 Y75.47 E98.58065
G0 F2100 X108.279 Y75.47
G1 F1200 X112.914 Y80.104 E98.81573
G0 F2100 X113.48 Y80.104
G1 F1200 X108.845 Y75.47 E99.05081
G0 F2100 X109.411 Y75.47
G1 F1200 X114.045 Y80.104 E99.28587
G0 F2100 X114.611 Y80.104
G1 F1200 X109.977 Y75.47 E99.52092
G0 F2100 X110.542 Y75.47
G1 F1200 X115.177 Y80.104 E99.756
G0 F2100 X115.742 Y80.104
G1 F1200 X111.108 Y75.47 E99.99105
G0 F2100 X111.674 Y75.47
G1 F1200 X116.308 Y80.104 E100.22611
G0 F2100 X116.874 Y80.104
G1 F1200 X112.239 Y75.47 E100.46119
G0 F2100 X112.805 Y75.47
G1 F1200 X117.439 Y80.104 E100.69624
G0 F2100 X118.004 Y80.103
G1 F1200 X113.371 Y75.47 E100.93124
G0 F2100 X113.936 Y75.47
G1 F1200 X118.57 Y80.103 E101.16627
G0 F2100 X119.136 Y80.103
G1 F1200 X114.502 Y75.47 E101.4013
G0 F2100 X115.068 Y75.47
G1 F1200 X119.701 Y80.103 E101.63631
G0 F2100 X120.267 Y80.103
G1 F1200 X115.633 Y75.47 E101.87133
G0 F2100 X116.199 Y75.47
G1 F1200 X120.833 Y80.103 E102.10636
G0 F2100 X121.398 Y80.103
G1 F1200 X116.765 Y75.47 E102.34137
G0 F2100 X117.33 Y75.47
G1 F1200 X121.964 Y80.103 E102.5764
G0 F2100 X122.53 Y80.103
G1 F1200 X117.896 Y75.47 E102.81142
G0 F2100 X118.462 Y75.47
G1 F1200 X123.095 Y80.103 E103.04643
G0 F2100 X123.661 Y80.103
G1 F1200 X119.027 Y75.47 E103.28146
G0 F2100 X119.593 Y75.47
G1 F1200 X124.227 Y80.103 E103.51649
G0 F2100 X124.793 Y80.103
G1 F1200 X120.159 Y75.47 E103.75151
G0 F2100 X120.725 Y75.47
G1 F1200 X125.358 Y80.103 E103.98652
G0 F2100 X125.924 Y80.103
G1 F1200 X121.29 Y75.47 E104.22155
G0 F2100 X121.856 Y75.47
G1 F1200 X126.49 Y80.103 E104.45658
G0 F2100 X127.055 Y80.103
G1 F1200 X122.422 Y75.47 E104.69158
G0 F2100 X122.987 Y75.47
G1 F1200 X127.621 Y80.103 E104.92661
G0 F2100 X128.187 Y80.103
G1 F1200 X123.553 Y75.47 E105.16164
G0 F2100 X124.119 Y75.47
G1 F1200 X128.752 Y80.103 E105.39664
G0 F2100 X129.318 Y80.103
G1 F1200 X124.684 Y75.47 E105.63167
G0 F2100 X125.25 Y75.47
G1 F1200 X129.884 Y80.103 E105.8667
G0 F2100 X130.449 Y80.103
G1 F1200 X125.816 Y75.47 E106.1017
G0 F2100 X126.381 Y75.47
G1 F1200 X131.015 Y80.103 E106.33673
G0 F2100 X131.581 Y80.103
G1 F1200 X126.947 Y75.47 E106.57176
G0 F2100 X127.513 Y75.47
G1 F1200 X132.146 Y80.103 E106.80676
G0 F2100 X132.712 Y80.103
G1 F1200 X127.619 Y75.01 E107.0651
G0 F2100 X127.619 Y74.444
G1 F1200 X133.278 Y80.103 E107.35215
G0 F2100 X133.843 Y80.103
G1 F1200 X127.619 Y73.879 E107.66785
G0 F2100 X127.619 Y73.313
G1 F1200 X134.409 Y80.103 E108.01227
G0 F2100 X134.975 Y80.103
G1 F1200 X127.619 Y72.747 E108.38539
G0 F2100 X127.619 Y72.182
G1 F1200 X135.541 Y80.103 E108.7872
G0 F2100 X136.106 Y80.103
G1 F1200 X127.619 Y71.616 E109.21769
G0 F2100 X127.619 Y71.05
G1 F1200 X136.672 Y80.103 E109.67689
G0 F2100 X137.238 Y80.103
G1 F1200 X127.619 Y70.485 E110.16478
G0 F2100 X127.619 Y69.919
G1 F1200 X137.803 Y80.103 E110.68135
G0 F2100 X138.369 Y80.103
G1 F1200 X127.619 Y69.353 E111.22663
G0 F2100 X127.619 Y68.788
G1 F1200 X138.935 Y80.103 E111.8006
G0 F2100 X139.5 Y80.103
G1 F1200 X127.619 Y68.222 E112.40325
G0 F2100 X127.619 Y67.656
G1 F1200 X140.066 Y80.103 E113.03461
G0 F2100 X140.632 Y80.103
G1 F1200 X127.619 Y67.09 E113.69468
G0 F2100 X127.619 Y66.525
G1 F1200 X141.197 Y80.103 E114.38341
G0 F2100 X141.763 Y80.103
G1 F1200 X127.619 Y65.959 E115.10084
G0 F2100 X127.619 Y65.393
G1 F1200 X142.329 Y80.103 E115.84699
G0 F2100 X142.894 Y80.103
G1 F1200 X127.619 Y64.828 E116.6218
G0 F2100 X127.619 Y64.262
G1 F1200 X143.46 Y80.103 E117.42531
G0 F2100 X144.026 Y80.103
G1 F1200 X127.619 Y63.696 E118.25754
G0 F2100 X127.619 Y63.131
G1 F1200 X144.592 Y80.103 E119.11845
G0 F2100 X145.157 Y80.103
G1 F1200 X127.619 Y62.565 E120.00804
G0 F2100 X127.619 Y61.999
G1 F1200 X145.723 Y80.103 E120.92635
G0 F2100 X146.289 Y80.103
G1 F1200 X127.619 Y61.434 E121.87334
G0 F2100 X127.619 Y60.868
G1 F1200 X146.854 Y80.103 E122.84901
G0 F2100 X147.42 Y80.103
G1 F1200 X127.619 Y60.302 E123.85339
G0 F2100 X127.619 Y59.737
G1 F1200 X147.986 Y80.103 E124.88646
G0 F2100 X148.551 Y80.103
G1 F1200 X127.619 Y59.171 E125.94821
G0 F2100 X127.619 Y58.605
G1 F1200 X149.117 Y80.103 E127.03867
G0 F2100 X149.683 Y80.103
G1 F1200 X127.619 Y58.04 E128.15781
G0 F2100 X127.619 Y57.474
G1 F1200 X150.248 Y80.103 E129.30564
G0 F2100 X150.814 Y80.103
G1 F1200 X127.619 Y56.908 E130.48218
G0 F2100 X127.24 Y56.529
G1 F1200 X105.605 Y34.895 E131.57957
G0 F2100 X105.04 Y34.895
G1 F1200 X126.674 Y56.529 E132.67693
G0 F2100 X126.108 Y56.529
G1 F1200 X104.474 Y34.895 E133.77429
G0 F2100 X103.908 Y34.895
G1 F1200 X125.543 Y56.529 E134.87167
G0 F2100 X124.977 Y56.529
G1 F1200 X103.342 Y34.895 E135.96905
G0 F2100 X102.777 Y34.895
G1 F1200 X124.411 Y56.529 E137.06641
G0 F2100 X123.846 Y56.529
G1 F1200 X102.211 Y34.895 E138.1638
G0 F2100 X101.645 Y34.895
