;FLAVOR:Marlin
;TIME:26787
;Filament used: 17.6054m
;Layer height: 0.2
;MINX:69.9
;MINY:15.05
;MINZ:0.25
;MAXX:165.2
;MAXY:69.95
;MAXZ:67.05
;Generated with Cura_SteamEngine 4.8
M140 S110
M105
M190 S110
M104 S250
M105
M109 S250
M82 ;absolute extrusion mode
G28 ;home
G92 E0 ;Reset Extruder
G1 Z4.0 F3000 ;Move Z Axis up
G1 X1.1 Y20 Z0.28 F5000.0 ;Move to start position
G1 X1.1 Y200.0 Z0.28 F1500.0 E15 ;Draw the first line
G1 X1.4 Y200.0 Z0.28 F5000.0 ;Move to side a little
G1 X1.4 Y20 Z0.28 F1500.0 E30 ;Draw the second line
G92 E0 ;Reset Extruder
G1 Z2.0 F3000 ;Move Z Axis up
G92 E0
G92 E0
G1 F4200 E-5
;LAYER_COUNT:335
;LAYER:0
M107
G0 F2100 X70.222 Y19.524 Z0.25
;TYPE:SKIRT
G1 F4200 E0
G1 F1500 X70.275 Y19.352 E0.00646
G1 X70.485 Y18.824 E0.02684
G1 X70.534 Y18.714 E0.03116
G1 X70.871 Y18.099 E0.05631
G1 X71.218 Y17.594 E0.07828
G1 X71.579 Y17.153 E0.09873
G1 X72.041 Y16.697 E0.12201
G1 X72.526 Y16.312 E0.14422
G1 X72.975 Y16.012 E0.16359
G1 X73.537 Y15.694 E0.18675
G1 X74.125 Y15.444 E0.20966
G1 X74.662 Y15.284 E0.22976
G1 X75.214 Y15.167 E0.25
G1 X75.803 Y15.089 E0.27131
G1 X75.856 Y15.084 E0.27322
G1 X77.056 Y15.05 E0.31628
G1 X157.789 Y15.05 E3.21194
G1 X158.408 Y15.054 E3.23414
G1 X158.777 Y15.065 E3.24738
G1 X159.49 Y15.109 E3.27301
G1 X160.348 Y15.265 E3.30429
G1 X160.854 Y15.405 E3.32312
G1 X161.447 Y15.635 E3.34593
G1 X161.91 Y15.878 E3.36468
G1 X162.487 Y16.246 E3.38923
G1 X162.979 Y16.622 E3.41144
G1 X163.385 Y17.013 E3.43166
G1 X163.857 Y17.571 E3.45787
G1 X164.195 Y18.059 E3.47916
G1 X164.523 Y18.625 E3.50262
G1 X164.539 Y18.657 E3.50391
G1 X164.743 Y19.129 E3.52235
G1 X164.803 Y19.286 E3.52838
G1 X164.962 Y19.819 E3.54833
G1 X165.118 Y20.556 E3.57535
G1 X165.14 Y20.739 E3.58196
G1 X165.182 Y21.419 E3.6064
G1 X165.198 Y21.996 E3.6271
G1 X165.2 Y22.171 E3.63338
G1 X165.2 Y62.594 E5.08323
G1 X165.196 Y63.1 E5.10138
G1 X165.18 Y63.64 E5.12076
G1 X165.147 Y64.147 E5.13898
G1 X165.049 Y64.791 E5.16235
G1 X164.933 Y65.307 E5.18132
G1 X164.779 Y65.79 E5.1995
G1 X164.498 Y66.44 E5.2249
G1 X164.191 Y66.963 E5.24665
G1 X163.867 Y67.422 E5.2668
G1 X163.461 Y67.908 E5.28952
G1 X163.088 Y68.276 E5.30831
G1 X162.598 Y68.669 E5.33084
G1 X162.112 Y68.996 E5.35185
G1 X161.514 Y69.33 E5.37642
G1 X161.031 Y69.535 E5.39524
G1 X160.552 Y69.679 E5.41318
G1 X160.063 Y69.796 E5.43121
G1 X159.33 Y69.904 E5.45778
G1 X158.673 Y69.94 E5.48138
G1 X157.769 Y69.95 E5.51381
G1 X77.321 Y69.95 E8.39925
G1 X76.724 Y69.946 E8.42066
G1 X76.207 Y69.93 E8.43922
G1 X75.62 Y69.895 E8.46031
G1 X75.108 Y69.818 E8.47888
G1 X74.484 Y69.667 E8.50191
G1 X74.46 Y69.66 E8.5028
G1 X73.753 Y69.407 E8.52974
G1 X73.252 Y69.162 E8.54974
G1 X72.652 Y68.787 E8.57512
G1 X72.239 Y68.468 E8.59383
G1 X71.76 Y68.028 E8.61716
G1 X71.313 Y67.528 E8.64122
G1 X71.023 Y67.133 E8.65879
G1 X70.74 Y66.676 E8.67807
G1 X70.451 Y66.103 E8.70109
G1 X70.256 Y65.615 E8.71994
G1 X70.098 Y65.04 E8.74133
G1 X69.969 Y64.343 E8.76675
G1 X69.916 Y63.715 E8.78936
G1 X69.904 Y63.142 E8.80991
G1 X69.9 Y62.448 E8.8348
G1 X69.9 Y22.36 E10.27265
G1 X69.903 Y21.881 E10.28983
G1 X69.922 Y21.253 E10.31236
G1 X69.961 Y20.737 E10.33092
G1 X70.094 Y20.016 E10.35722
G1 X70.222 Y19.524 E10.37545
G0 F2100 X70.658 Y19.428
G1 F1500 X70.922 Y18.795 E10.40005
G1 X71.219 Y18.277 E10.42147
G1 X71.527 Y17.832 E10.44088
G1 X71.875 Y17.406 E10.46061
G1 X72.315 Y16.976 E10.48268
G1 X72.753 Y16.629 E10.50272
G1 X73.197 Y16.333 E10.52186
G1 X73.728 Y16.034 E10.54372
G1 X74.269 Y15.806 E10.56477
G1 X74.758 Y15.662 E10.58306
G1 X75.274 Y15.552 E10.60198
G1 X75.866 Y15.474 E10.6234
G1 X76.269 Y15.455 E10.63787
G1 X76.786 Y15.45 E10.65641
G1 X158.209 Y15.45 E13.57682
G1 X158.986 Y15.461 E13.60469
G1 X159.522 Y15.504 E13.62398
G1 X160.272 Y15.648 E13.65137
G1 X160.767 Y15.786 E13.6698
G1 X161.32 Y16.005 E13.69114
G1 X161.835 Y16.281 E13.71209
G1 X162.328 Y16.61 E13.73335
G1 X162.785 Y16.968 E13.75417
G1 X163.212 Y17.395 E13.77583
G1 X163.617 Y17.897 E13.79897
G1 X163.943 Y18.388 E13.82011
G1 X164.206 Y18.858 E13.83942
G1 X164.453 Y19.457 E13.86266
G1 X164.639 Y20.125 E13.88753
G1 X164.739 Y20.653 E13.90681
G1 X164.788 Y21.273 E13.92912
G1 X164.793 Y21.388 E13.93324
G1 X164.8 Y21.939 E13.95301
G1 X164.8 Y62.944 E15.42374
G1 X164.789 Y63.696 E15.45072
G1 X164.747 Y64.259 E15.47097
G1 X164.658 Y64.771 E15.48961
G1 X164.535 Y65.287 E15.50863
G1 X164.362 Y65.8 E15.52805
G1 X164.141 Y66.28 E15.547
G1 X163.869 Y66.741 E15.5662
G1 X163.553 Y67.19 E15.58589
G1 X163.166 Y67.653 E15.60754
G1 X162.808 Y68.003 E15.62549
G1 X162.356 Y68.364 E15.64624
G1 X161.896 Y68.671 E15.66608
G1 X161.32 Y68.992 E15.68973
G1 X160.845 Y69.189 E15.70817
G1 X160.246 Y69.358 E15.7305
G1 X159.62 Y69.48 E15.75337
G1 X159.105 Y69.533 E15.77194
G1 X158.324 Y69.55 E15.79996
G1 X76.971 Y69.55 E18.71786
G1 X76.082 Y69.537 E18.74975
G1 X75.496 Y69.492 E18.77083
G1 X74.939 Y69.384 E18.79118
G1 X74.409 Y69.24 E18.81088
G1 X73.883 Y69.04 E18.83106
G1 X73.42 Y68.809 E18.84962
G1 X72.853 Y68.452 E18.87365
G1 X72.358 Y68.063 E18.89623
G1 X71.945 Y67.667 E18.91676
G1 X71.606 Y67.272 E18.93543
G1 X71.305 Y66.857 E18.95381
G1 X71.01 Y66.36 E18.97454
G1 X70.766 Y65.857 E18.9946
G1 X70.58 Y65.363 E19.01353
G1 X70.438 Y64.782 E19.03498
G1 X70.354 Y64.282 E19.05317
G1 X70.313 Y63.845 E19.06891
G1 X70.3 Y62.878 E19.10359
G1 X70.3 Y22.03 E20.5687
G1 X70.311 Y21.291 E20.59521
G1 X70.347 Y20.787 E20.61333
G1 X70.488 Y20.031 E20.64091
G1 X70.658 Y19.428 E20.66338
G1 F4200 E15.66338
;MESH:powerBank-Base.stl
G0 F2100 X75.152 Y21.777
G0 X76.627 Y21.777
G0 X76.599 Y63.252
G0 X158.683 Y63.433
;TYPE:WALL-INNER
G1 F4200 E20.66338
G1 F1200 X76.616 Y63.434 E23.60689
G1 X76.417 Y63.434 E23.61403
G1 X76.417 Y63.235 E23.61865
G1 X76.417 Y21.567 E25.11316
G1 X158.683 Y21.567 E28.06381
G1 X158.683 Y63.433 E29.56542
G0 F2100 X158.949 Y63.784
;TYPE:WALL-OUTER
G1 F1200 X158.774 Y63.833 E29.57194
G1 X76.329 Y63.834 E32.52901
G1 X76.151 Y63.782 E32.53566
G1 X76.051 Y63.67 E32.54105
G1 X76.017 Y63.525 E32.54639
G1 X76.017 Y21.477 E34.05453
G1 X76.068 Y21.301 E34.0611
G1 X76.17 Y21.207 E34.06608
G1 X76.327 Y21.167 E34.07189
G1 X158.783 Y21.167 E37.02935
G1 X158.929 Y21.206 E37.03477
G1 X159.034 Y21.301 E37.03985
G1 X159.083 Y21.476 E37.04637
G1 X159.083 Y63.533 E38.55483
G1 X159.044 Y63.679 E38.56025
G1 X158.949 Y63.784 E38.56533
G0 F2100 X158.774 Y63.833
G0 X158.755 Y63.833
G0 X158.643 Y63.393
G0 X158.293 Y63.043
;TYPE:SKIN
G1 F1200 X76.807 Y63.044 E41.488
G1 X76.807 Y21.957 E42.96168
G1 X158.293 Y21.957 E45.88435
G1 X158.293 Y63.043 E47.35799
G0 F2100 X158.573 Y63.043
G0 X158.573 Y22.347
G0 X158.111 Y22.347
G1 F1200 X157.901 Y22.137 E47.36864
G0 F2100 X157.336 Y22.137
G1 F1200 X158.111 Y22.913 E47.40797
G0 F2100 X158.111 Y23.478
G1 F1200 X156.77 Y22.137 E47.47599
G0 F2100 X156.204 Y22.137
G1 F1200 X158.111 Y24.044 E47.57273
G0 F2100 X158.111 Y24.61
G1 F1200 X155.639 Y22.137 E47.69814
G0 F2100 X155.073 Y22.137
G1 F1200 X158.111 Y25.175 E47.85224
G0 F2100 X158.111 Y25.741
G1 F1200 X154.507 Y22.137 E48.03505
G0 F2100 X153.942 Y22.137
G1 F1200 X158.111 Y26.307 E48.24654
G0 F2100 X158.111 Y26.872
G1 F1200 X153.376 Y22.137 E48.48672
G0 F2100 X152.81 Y22.137
G1 F1200 X158.111 Y27.438 E48.7556
G0 F2100 X158.111 Y28.004
G1 F1200 X152.245 Y22.137 E49.05318
G0 F2100 X151.679 Y22.137
G1 F1200 X158.111 Y28.569 E49.37943
G0 F2100 X158.111 Y29.135
G1 F1200 X151.113 Y22.137 E49.7344
G0 F2100 X150.547 Y22.137
G1 F1200 X158.111 Y29.701 E50.11807
G0 F2100 X158.111 Y30.266
G1 F1200 X149.982 Y22.137 E50.53041
G0 F2100 X149.416 Y22.137
G1 F1200 X158.111 Y30.832 E50.97145
G0 F2100 X158.111 Y31.398
G1 F1200 X148.85 Y22.137 E51.4412
G0 F2100 X148.285 Y22.137
G1 F1200 X158.111 Y31.964 E51.93964
G0 F2100 X158.111 Y32.529
G1 F1200 X147.719 Y22.137 E52.46676
G0 F2100 X147.153 Y22.137
G1 F1200 X158.111 Y33.095 E53.02259
G0 F2100 X158.111 Y33.661
G1 F1200 X146.588 Y22.137 E53.60711
G0 F2100 X146.022 Y22.137
G1 F1200 X158.111 Y34.226 E54.22031
G0 F2100 X158.111 Y34.792
G1 F1200 X145.456 Y22.137 E54.86222
G0 F2100 X144.891 Y22.137
G1 F1200 X158.111 Y35.358 E55.53281
G0 F2100 X158.111 Y35.923
G1 F1200 X144.325 Y22.137 E56.23209
G0 F2100 X143.759 Y22.137
G1 F1200 X158.111 Y36.489 E56.96008
G0 F2100 X158.111 Y37.055
G1 F1200 X143.194 Y22.137 E57.71675
G0 F2100 X142.628 Y22.137
G1 F1200 X158.111 Y37.62 E58.50211
G0 F2100 X158.111 Y38.186
G1 F1200 X142.062 Y22.137 E59.31618
G0 F2100 X141.497 Y22.137
G1 F1200 X158.111 Y38.752 E60.15893
G0 F2100 X158.111 Y39.317
G1 F1200 X140.931 Y22.137 E61.03036
G0 F2100 X140.365 Y22.137
G1 F1200 X158.111 Y39.883 E61.93051
G0 F2100 X158.111 Y40.449
G1 F1200 X139.799 Y22.137 E62.85936
G0 F2100 X139.234 Y22.137
G1 F1200 X158.111 Y41.015 E63.8169
G0 F2100 X158.111 Y41.58
G1 F1200 X138.668 Y22.137 E64.80313
G0 F2100 X138.102 Y22.137
G1 F1200 X158.111 Y42.146 E65.81806
G0 F2100 X158.111 Y42.712
G1 F1200 X137.537 Y22.137 E66.86168
G0 F2100 X136.971 Y22.137
G1 F1200 X158.111 Y43.277 E67.93398
G0 F2100 X158.111 Y43.843
G1 F1200 X136.405 Y22.137 E69.03499
G0 F2100 X135.84 Y22.137
G1 F1200 X158.111 Y44.409 E70.16468
G0 F2100 X158.111 Y44.974
G1 F1200 X135.274 Y22.137 E71.32306
G0 F2100 X134.708 Y22.137
G1 F1200 X158.111 Y45.54 E72.51015
G0 F2100 X158.111 Y46.106
G1 F1200 X134.143 Y22.137 E73.72593
G0 F2100 X133.577 Y22.137
G1 F1200 X158.111 Y46.671 E74.97039
G0 F2100 X158.111 Y47.237
G1 F1200 X133.011 Y22.137 E76.24355
G0 F2100 X132.446 Y22.137
G1 F1200 X158.111 Y47.803 E77.54541
G0 F2100 X158.111 Y48.368
G1 F1200 X131.88 Y22.137 E78.87594
G0 F2100 X131.314 Y22.137
G1 F1200 X158.111 Y48.934 E80.23519
G0 F2100 X158.111 Y49.5
G1 F1200 X130.748 Y22.137 E81.62314
G0 F2100 X130.183 Y22.137
G1 F1200 X158.111 Y50.065 E83.03976
G0 F2100 X158.111 Y50.631
G1 F1200 X129.617 Y22.137 E84.48508
G0 F2100 X129.051 Y22.137
G1 F1200 X158.111 Y51.197 E85.95912
G0 F2100 X158.111 Y51.763
G1 F1200 X128.486 Y22.137 E87.46184
G0 F2100 X127.92 Y22.137
G1 F1200 X158.111 Y52.328 E88.99324
G0 F2100 X158.111 Y52.894
G1 F1200 X127.354 Y22.137 E90.55335
G0 F2100 X126.789 Y22.137
G1 F1200 X158.111 Y53.46 E92.14215
G0 F2100 X158.111 Y54.025
G1 F1200 X126.223 Y22.137 E93.75963
G0 F2100 X125.657 Y22.137
G1 F1200 X158.111 Y54.591 E95.40582
G0 F2100 X158.111 Y55.157
G1 F1200 X125.092 Y22.137 E97.0807
G0 F2100 X124.526 Y22.137
G1 F1200 X158.111 Y55.722 E98.78426
G0 F2100 X158.111 Y56.288
G1 F1200 X123.96 Y22.137 E100.51653
G0 F2100 X123.395 Y22.137
G1 F1200 X158.111 Y56.854 E102.27748
G0 F2100 X158.111 Y57.419
G1 F1200 X122.829 Y22.137 E104.06712
G0 F2100 X122.263 Y22.137
G1 F1200 X158.111 Y57.985 E105.88546
G0 F2100 X158.111 Y58.551
G1 F1200 X121.698 Y22.137 E107.7325
G0 F2100 X121.132 Y22.137
G1 F1200 X158.111 Y59.116 E109.60821
G0 F2100 X158.111 Y59.682
G1 F1200 X120.566 Y22.137 E111.51264
G0 F2100 X120 Y22.137
G1 F1200 X158.111 Y60.248 E113.44577
G0 F2100 X158.111 Y60.814
G1 F1200 X119.435 Y22.137 E115.40759
G0 F2100 X118.869 Y22.137
G1 F1200 X158.111 Y61.379 E117.3981
G0 F2100 X158.111 Y61.945
G1 F1200 X118.303 Y22.137 E119.41731
G0 F2100 X117.738 Y22.137
G1 F1200 X158.111 Y62.511 E121.46521
G0 F2100 X157.898 Y62.863
G1 F1200 X117.172 Y22.137 E123.53099
G0 F2100 X116.606 Y22.137
G1 F1200 X157.332 Y62.863 E125.59677
G0 F2100 X156.766 Y62.863
G1 F1200 X116.041 Y22.137 E127.66252
G0 F2100 X115.475 Y22.137
G1 F1200 X156.201 Y62.863 E129.7283
G0 F2100 X155.635 Y62.863
G1 F1200 X114.909 Y22.137 E131.79408
G0 F2100 X114.344 Y22.137
G1 F1200 X155.069 Y62.863 E133.85983
G0 F2100 X154.504 Y62.863
G1 F1200 X113.778 Y22.137 E135.92561
G0 F2100 X113.212 Y22.137
G1 F1200 X153.938 Y62.863 E137.99139
G0 F2100 X153.372 Y62.863
G1 F1200 X112.647 Y22.137 E140.05714
G0 F2100 X112.081 Y22.137
G1 F1200 X152.807 Y62.863 E142.12292
G0 F2100 X152.241 Y62.863
G1 F1200 X111.515 Y22.137 E144.1887
G0 F2100 X110.95 Y22.137
G1 F1200 X151.675 Y62.863 E146.25445
G0 F2100 X151.11 Y62.863
G1 F1200 X110.384 Y22.137 E148.32023
G0 F2100 X109.818 Y22.137
G1 F1200 X150.544 Y62.863 E150.38601
G0 F2100 X149.978 Y62.863
G1 F1200 X109.252 Y22.137 E152.45178
G0 F2100 X108.687 Y22.137
G1 F1200 X149.413 Y62.863 E154.51756
G0 F2100 X148.847 Y62.863
G1 F1200 X108.121 Y22.137 E156.58334
G0 F2100 X107.555 Y22.137
G1 F1200 X148.281 Y62.863 E158.64912
G0 F2100 X147.716 Y62.863
G1 F1200 X106.99 Y22.137 E160.7149
G0 F2100 X106.424 Y22.137
G1 F1200 X147.15 Y62.863 E162.78068
G0 F2100 X146.584 Y62.863
G1 F1200 X105.858 Y22.137 E164.84645
G0 F2100 X105.293 Y22.137
G1 F1200 X146.018 Y62.863 E166.91221
G0 F2100 X145.453 Y62.863
G1 F1200 X104.727 Y22.137 E168.97798
G0 F2100 X104.161 Y22.137
G1 F1200 X144.887 Y62.863 E171.04376
G0 F2100 X144.321 Y62.863
G1 F1200 X103.596 Y22.137 E173.10952
G0 F2100 X103.03 Y22.137
G1 F1200 X143.756 Y62.863 E175.17529
G0 F2100 X143.19 Y62.863
G1 F1200 X102.464 Y22.137 E177.24107
G0 F2100 X101.899 Y22.137
G1 F1200 X142.624 Y62.863 E179.30683
G0 F2100 X142.059 Y62.863
G1 F1200 X101.333 Y22.137 E181.3726
G0 F2100 X100.767 Y22.137
G1 F1200 X141.493 Y62.863 E183.43838
G0 F2100 X140.927 Y62.863
G1 F1200 X100.201 Y22.137 E185.50416
G0 F2100 X99.636 Y22.137
G1 F1200 X140.362 Y62.863 E187.56994
G0 F2100 X139.796 Y62.863
G1 F1200 X99.07 Y22.137 E189.63572
G0 F2100 X98.504 Y22.137
G1 F1200 X139.23 Y62.863 E191.7015
G0 F2100 X138.665 Y62.863
G1 F1200 X97.939 Y22.137 E193.76727
G0 F2100 X97.373 Y22.137
G1 F1200 X138.099 Y62.863 E195.83305
G0 F2100 X137.533 Y62.863
G1 F1200 X96.807 Y22.137 E197.89883
G0 F2100 X96.242 Y22.137
G1 F1200 X136.967 Y62.863 E199.96458
G0 F2100 X136.402 Y62.863
G1 F1200 X95.676 Y22.137 E202.03036
G0 F2100 X95.11 Y22.137
G1 F1200 X135.836 Y62.863 E204.09614
G0 F2100 X135.27 Y62.863
G1 F1200 X94.545 Y22.137 E206.16189
G0 F2100 X93.979 Y22.137
G1 F1200 X134.705 Y62.863 E208.22767
G0 F2100 X134.139 Y62.863
G1 F1200 X93.413 Y22.137 E210.29345
G0 F2100 X92.848 Y22.137
G1 F1200 X133.573 Y62.863 E212.3592
G0 F2100 X133.008 Y62.863
G1 F1200 X92.282 Y22.137 E214.42498
G0 F2100 X91.716 Y22.137
G1 F1200 X132.442 Y62.863 E216.49076
G0 F2100 X131.876 Y62.863
G1 F1200 X91.151 Y22.137 E218.55651
G0 F2100 X90.585 Y22.137
G1 F1200 X131.311 Y62.863 E220.62229
G0 F2100 X130.745 Y62.863
G1 F1200 X90.019 Y22.137 E222.68807
G0 F2100 X89.453 Y22.137
G1 F1200 X130.179 Y62.863 E224.75385
G0 F2100 X129.614 Y62.863
G1 F1200 X88.888 Y22.137 E226.81963
G0 F2100 X88.322 Y22.137
G1 F1200 X129.048 Y62.863 E228.8854
G0 F2100 X128.482 Y62.863
G1 F1200 X87.756 Y22.137 E230.95118
G0 F2100 X87.191 Y22.137
G1 F1200 X127.917 Y62.863 E233.01696
G0 F2100 X127.351 Y62.863
G1 F1200 X86.625 Y22.137 E235.08274
G0 F2100 X86.059 Y22.137
G1 F1200 X126.785 Y62.863 E237.14852
G0 F2100 X126.219 Y62.863
G1 F1200 X85.494 Y22.137 E239.21427
G0 F2100 X84.928 Y22.137
G1 F1200 X125.654 Y62.863 E241.28005
G0 F2100 X125.088 Y62.863
G1 F1200 X84.362 Y22.137 E243.34583
G0 F2100 X83.797 Y22.137
G1 F1200 X124.522 Y62.863 E245.41158
G0 F2100 X123.957 Y62.863
G1 F1200 X83.231 Y22.137 E247.47736
G0 F2100 X82.665 Y22.137
G1 F1200 X123.391 Y62.863 E249.54314
G0 F2100 X122.825 Y62.863
G1 F1200 X82.1 Y22.137 E251.60889
G0 F2100 X81.534 Y22.137
G1 F1200 X122.26 Y62.863 E253.67467
G0 F2100 X121.694 Y62.863
G1 F1200 X80.968 Y22.137 E255.74045
G0 F2100 X80.402 Y22.137
G1 F1200 X121.128 Y62.863 E257.80623
G0 F2100 X120.563 Y62.863
G1 F1200 X79.837 Y22.137 E259.872
G0 F2100 X79.271 Y22.137
G1 F1200 X119.997 Y62.863 E261.93778
G0 F2100 X119.431 Y62.863
G1 F1200 X78.705 Y22.137 E264.00356
G0 F2100 X78.14 Y22.137
G1 F1200 X118.866 Y62.863 E266.06934
G0 F2100 X118.3 Y62.863
G1 F1200 X77.574 Y22.137 E268.13512
G0 F2100 X77.008 Y22.137
G1 F1200 X117.734 Y62.863 E270.2009
G0 F2100 X117.169 Y62.863
G1 F1200 X76.986 Y22.68 E272.23913
G0 F2100 X76.986 Y23.246
G1 F1200 X116.603 Y62.863 E274.24866
G0 F2100 X116.037 Y62.863
G1 F1200 X76.986 Y23.811 E276.2295
G0 F2100 X76.986 Y24.377
G1 F1200 X115.471 Y62.863 E278.18163
G0 F2100 X114.906 Y62.863
G1 F1200 X76.986 Y24.943 E280.10508
G0 F2100 X76.986 Y25.508
G1 F1200 X114.34 Y62.863 E281.99984
G0 F2100 X113.774 Y62.863
G1 F1200 X76.986 Y26.074 E283.86589
G0 F2100 X76.986 Y26.64
G1 F1200 X113.209 Y62.863 E285.70326
G0 F2100 X112.643 Y62.863
