;FLAVOR:Marlin
;TIME:1107
;Filament used: 0.823418m
;Layer height: 0.15
;MINX:103.621
;MINY:100.772
;MINZ:0.25
;MAXX:131.389
;MAXY:128.529
;MAXZ:22
;Generated with Cura_SteamEngine 4.8
M140 S60
M105
M190 S60
M104 S200
M105
M109 S200
M82 ;absolute extrusion mode
G28 ;home
G92 E0 ;Reset Extruder
G1 Z4.0 F3000 ;Move Z Axis up
G1 X1.1 Y20 Z0.28 F5000.0 ;Move to start position
G1 X1.1 Y200.0 Z0.28 F1500.0 E15 ;Draw the first line
G1 X1.4 Y200.0 Z0.28 F5000.0 ;Move to side a little
G1 X1.4 Y20 Z0.28 F1500.0 E30 ;Draw the second line
G92 E0 ;Reset Extruder
G1 Z2.0 F3000 ;Move Z Axis up
G92 E0
G92 E0
G1 F4200 E-5
;LAYER_COUNT:146
;LAYER:0
M107
G0 F2100 X107.432 Y104.977 Z0.25
;TYPE:SKIRT
G1 F4200 E0
G1 F1500 X107.891 Y104.529 E0.02667
G1 X108.307 Y104.184 E0.04914
G1 X110.256 Y102.76 E0.14949
G1 X110.766 Y102.429 E0.17477
G1 X111.408 Y102.089 E0.20497
G1 X111.981 Y101.855 E0.2307
G1 X113.045 Y101.506 E0.27726
G1 X113.37 Y101.389 E0.29162
G1 X114.459 Y101.048 E0.33906
G1 X115.076 Y100.903 E0.36541
G1 X115.736 Y100.814 E0.3931
G1 X116.356 Y100.78 E0.41891
G1 X118.571 Y100.772 E0.511
G1 X119.227 Y100.8 E0.5383
G1 X119.956 Y100.907 E0.56894
G1 X120.562 Y101.056 E0.59488
G1 X121.852 Y101.472 E0.65123
G1 X122.055 Y101.527 E0.65998
G1 X123.065 Y101.87 E0.70432
G1 X123.546 Y102.065 E0.7259
G1 X124.101 Y102.349 E0.75182
G1 X124.615 Y102.67 E0.77702
G1 X125.556 Y103.35 E0.82528
G1 X125.946 Y103.641 E0.84551
G1 X126.514 Y104.045 E0.87449
G1 X127.03 Y104.459 E0.902
G1 X127.58 Y104.991 E0.93381
G1 X127.97 Y105.455 E0.95901
G1 X128.746 Y106.517 E1.01369
G1 X128.832 Y106.617 E1.01918
G1 X129.511 Y107.578 E1.0681
G1 X129.826 Y108.097 E1.09334
G1 X130.081 Y108.61 E1.11716
G1 X130.31 Y109.19 E1.14308
G1 X130.356 Y109.338 E1.14953
G1 X131.036 Y111.402 E1.23987
G1 X131.194 Y111.98 E1.26479
G1 X131.329 Y112.739 E1.29684
G1 X131.377 Y113.402 E1.32447
G1 X131.381 Y114.648 E1.37628
G1 X131.389 Y114.863 E1.38522
G1 X131.377 Y115.947 E1.43029
G1 X131.332 Y116.544 E1.45518
G1 X131.24 Y117.122 E1.47951
G1 X131.091 Y117.723 E1.50526
G1 X130.711 Y118.889 E1.55624
G1 X130.633 Y119.117 E1.56626
G1 X130.347 Y120.016 E1.60548
G1 X130.06 Y120.734 E1.63763
G1 X129.766 Y121.307 E1.66441
G1 X129.475 Y121.768 E1.68707
G1 X127.994 Y123.818 E1.79222
G1 X127.667 Y124.218 E1.8137
G1 X127.153 Y124.738 E1.84409
G1 X126.688 Y125.128 E1.86933
G1 X125.709 Y125.84 E1.91965
G1 X125.335 Y126.104 E1.93869
G1 X124.79 Y126.507 E1.96687
G1 X124.111 Y126.938 E2.0003
G1 X123.549 Y127.229 E2.02661
G1 X122.987 Y127.453 E2.05177
G1 X122.775 Y127.521 E2.06102
G1 X120.753 Y128.186 E2.14952
G1 X119.975 Y128.383 E2.18288
G1 X119.351 Y128.484 E2.20917
G1 X118.682 Y128.524 E2.23703
G1 X118.342 Y128.521 E2.25117
G1 X116.372 Y128.529 E2.33307
G1 X115.667 Y128.492 E2.36242
G1 X115.022 Y128.39 E2.38957
G1 X114.434 Y128.244 E2.41476
G1 X113.199 Y127.845 E2.46872
G1 X113.03 Y127.804 E2.47595
G1 X111.936 Y127.432 E2.52399
G1 X111.385 Y127.201 E2.54883
G1 X110.844 Y126.917 E2.57423
G1 X110.383 Y126.625 E2.59692
G1 X108.327 Y125.139 E2.70238
G1 X107.892 Y124.78 E2.72583
G1 X107.418 Y124.309 E2.75361
G1 X107.025 Y123.841 E2.77902
G1 X106.336 Y122.896 E2.82764
G1 X106.154 Y122.666 E2.83984
G1 X105.489 Y121.724 E2.88778
G1 X105.163 Y121.187 E2.9139
G1 X104.943 Y120.753 E2.93413
G1 X104.702 Y120.165 E2.96055
G1 X104.345 Y119.073 E3.00831
G1 X104.183 Y118.552 E3.03099
G1 X103.974 Y117.929 E3.05831
G1 X103.832 Y117.437 E3.0796
G1 X103.72 Y116.893 E3.10269
G1 X103.671 Y116.545 E3.11731
G1 X103.629 Y115.922 E3.14327
G1 X103.631 Y115.421 E3.16409
G1 X103.621 Y113.606 E3.23955
G1 X103.659 Y112.818 E3.27235
G1 X103.756 Y112.194 E3.29861
G1 X103.907 Y111.585 E3.32469
G1 X104.305 Y110.36 E3.37824
G1 X104.43 Y109.935 E3.39666
G1 X104.722 Y109.081 E3.43419
G1 X104.972 Y108.488 E3.46094
G1 X105.203 Y108.044 E3.48175
G1 X105.52 Y107.535 E3.50668
G1 X106.3 Y106.455 E3.56207
G1 X106.373 Y106.336 E3.56787
G1 X107.047 Y105.428 E3.61488
G1 X107.432 Y104.977 E3.63954
G0 F2100 X107.736 Y105.238
G1 F1500 X108.165 Y104.821 E3.66441
G1 X108.543 Y104.507 E3.68484
G1 X110.492 Y103.083 E3.7852
G1 X110.978 Y102.768 E3.80927
G1 X111.585 Y102.447 E3.83782
G1 X112.106 Y102.235 E3.86121
G1 X113.332 Y101.833 E3.91485
G1 X113.49 Y101.771 E3.9219
G1 X114.579 Y101.43 E3.96935
G1 X115.14 Y101.298 E3.99331
G1 X115.765 Y101.213 E4.01953
G1 X116.357 Y101.18 E4.04418
G1 X118.567 Y101.172 E4.13606
G1 X119.184 Y101.198 E4.16174
G1 X119.888 Y101.301 E4.19132
G1 X120.439 Y101.436 E4.21491
G1 X121.733 Y101.853 E4.27143
G1 X121.926 Y101.905 E4.27974
G1 X122.936 Y102.248 E4.32408
G1 X123.485 Y102.479 E4.34885
G1 X123.913 Y102.703 E4.36893
G1 X124.381 Y102.994 E4.39184
G1 X125.316 Y103.671 E4.43984
G1 X125.685 Y103.947 E4.45899
G1 X126.282 Y104.371 E4.48944
G1 X126.774 Y104.766 E4.51567
G1 X127.292 Y105.269 E4.54569
G1 X127.647 Y105.691 E4.56861
G1 X128.369 Y106.68 E4.61952
G1 X128.505 Y106.848 E4.62851
G1 X129.184 Y107.809 E4.67743
G1 X129.47 Y108.28 E4.70034
G1 X129.721 Y108.782 E4.72367
G1 X129.928 Y109.31 E4.74725
G1 X129.965 Y109.429 E4.75243
G1 X130.656 Y111.527 E4.84427
G1 X130.807 Y112.079 E4.86806
G1 X130.933 Y112.796 E4.89833
G1 X130.977 Y113.404 E4.92367
G1 X130.981 Y114.747 E4.97951
G1 X130.989 Y114.858 E4.98413
G1 X130.977 Y115.942 E5.0292
G1 X130.935 Y116.5 E5.05247
G1 X130.846 Y117.053 E5.07575
G1 X130.71 Y117.6 E5.09919
G1 X130.333 Y118.76 E5.1499
G1 X130.248 Y119.007 E5.16076
G1 X129.966 Y119.895 E5.19949
G1 X129.693 Y120.574 E5.22992
G1 X129.415 Y121.114 E5.25517
G1 X129.15 Y121.533 E5.27578
G1 X127.669 Y123.583 E5.38093
G1 X127.27 Y124.059 E5.40675
G1 X126.875 Y124.45 E5.42986
G1 X126.452 Y124.805 E5.45281
G1 X125.478 Y125.514 E5.5029
G1 X125.099 Y125.782 E5.5222
G1 X124.552 Y126.186 E5.55047
G1 X123.905 Y126.595 E5.58229
G1 X123.376 Y126.868 E5.60704
G1 X122.865 Y127.072 E5.62992
G1 X120.627 Y127.807 E5.72785
G1 X119.886 Y127.993 E5.75962
G1 X119.299 Y128.088 E5.78434
G1 X118.686 Y128.124 E5.80987
G1 X118.344 Y128.121 E5.82409
G1 X116.379 Y128.129 E5.90578
G1 X115.717 Y128.095 E5.93334
G1 X115.091 Y127.996 E5.95969
G1 X114.557 Y127.863 E5.98257
G1 X113.449 Y127.505 E6.03098
G1 X113.159 Y127.425 E6.04349
G1 X112.065 Y127.053 E6.09153
G1 X111.564 Y126.844 E6.1141
G1 X111.037 Y126.566 E6.13887
G1 X110.617 Y126.301 E6.15952
G1 X108.561 Y124.815 E6.26498
G1 X108.166 Y124.489 E6.28628
G1 X107.705 Y124.03 E6.31332
G1 X107.348 Y123.605 E6.3364
G1 X106.695 Y122.711 E6.38243
G1 X106.481 Y122.435 E6.39695
G1 X105.816 Y121.493 E6.44489
G1 X105.513 Y120.994 E6.46916
G1 X105.301 Y120.575 E6.48868
G1 X105.082 Y120.041 E6.51268
G1 X104.727 Y118.955 E6.56018
G1 X104.565 Y118.434 E6.58286
G1 X104.353 Y117.802 E6.61058
G1 X104.13 Y116.922 E6.64832
G1 X104.067 Y116.49 E6.66647
G1 X104.029 Y115.924 E6.69005
G1 X104.031 Y115.423 E6.71088
G1 X104.021 Y113.604 E6.78651
G1 X104.056 Y112.868 E6.81714
G1 X104.151 Y112.262 E6.84265
G1 X104.287 Y111.709 E6.86632
G1 X104.658 Y110.567 E6.91624
G1 X104.808 Y110.065 E6.93803
G1 X105.1 Y109.211 E6.97555
G1 X105.333 Y108.66 E7.00042
G1 X105.556 Y108.232 E7.02049
G1 X105.844 Y107.769 E7.04316
G1 X106.56 Y106.778 E7.09398
G1 X106.694 Y106.575 E7.1041
G1 X107.368 Y105.667 E7.15111
G1 X107.736 Y105.238 E7.17461
G0 F2100 X108.04 Y105.5
G1 F1500 X108.439 Y105.112 E7.19775
G1 X108.779 Y104.83 E7.21611
G1 X110.728 Y103.406 E7.31647
G1 X111.189 Y103.108 E7.33929
G1 X111.762 Y102.806 E7.36622
G1 X112.23 Y102.615 E7.38723
G1 X113.509 Y102.196 E7.44319
G1 X113.609 Y102.152 E7.44773
G1 X114.698 Y101.811 E7.49517
G1 X115.203 Y101.693 E7.51673
G1 X115.793 Y101.612 E7.54149
G1 X116.359 Y101.58 E7.56506
G1 X118.563 Y101.572 E7.6567
G1 X119.14 Y101.596 E7.6807
G1 X119.821 Y101.695 E7.70932
G1 X120.316 Y101.817 E7.73051
G1 X121.595 Y102.23 E7.78639
G1 X121.798 Y102.284 E7.79512
G1 X122.808 Y102.627 E7.83947
G1 X123.312 Y102.84 E7.86222
G1 X124.147 Y103.318 E7.90222
G1 X125.077 Y103.991 E7.94994
G1 X125.476 Y104.289 E7.97065
G1 X126.05 Y104.697 E7.99993
G1 X126.518 Y105.073 E8.02489
G1 X127.005 Y105.547 E8.05314
G1 X127.324 Y105.927 E8.07377
G1 X128.098 Y106.988 E8.12837
G1 X128.178 Y107.079 E8.13341
G1 X128.857 Y108.04 E8.18233
G1 X129.222 Y108.671 E8.21263
G1 X129.36 Y108.955 E8.22576
G1 X129.547 Y109.43 E8.24699
G1 X129.601 Y109.602 E8.25448
G1 X130.276 Y111.652 E8.34421
G1 X130.419 Y112.178 E8.36687
G1 X130.538 Y112.854 E8.39541
G1 X130.577 Y113.405 E8.41838
G1 X130.58 Y114.599 E8.46802
G1 X130.589 Y114.854 E8.47862
G1 X130.577 Y115.938 E8.52369
G1 X130.537 Y116.456 E8.54529
G1 X130.452 Y116.984 E8.56753
G1 X130.33 Y117.476 E8.5886
G1 X129.955 Y118.63 E8.63905
G1 X129.869 Y118.882 E8.65012
G1 X129.585 Y119.774 E8.68904
G1 X129.326 Y120.414 E8.71774
G1 X129.065 Y120.922 E8.74149
G1 X128.826 Y121.299 E8.76005
G1 X127.345 Y123.349 E8.86519
G1 X126.976 Y123.788 E8.88903
G1 X126.598 Y124.162 E8.91114
G1 X126.217 Y124.482 E8.93183
G1 X125.247 Y125.187 E8.98168
G1 X124.886 Y125.442 E9.00006
G1 X124.315 Y125.864 E9.02958
G1 X123.7 Y126.252 E9.05981
G1 X123.202 Y126.508 E9.08309
G1 X122.556 Y126.751 E9.11178
G1 X120.502 Y127.427 E9.20168
G1 X119.798 Y127.603 E9.23185
G1 X119.247 Y127.691 E9.25505
G1 X118.689 Y127.724 E9.27829
G1 X118.345 Y127.721 E9.29259
G1 X116.386 Y127.729 E9.37404
G1 X115.767 Y127.698 E9.39981
G1 X115.161 Y127.602 E9.42532
G1 X114.68 Y127.482 E9.44593
G1 X113.454 Y127.086 E9.49949
G1 X113.288 Y127.046 E9.50659
G1 X112.194 Y126.674 E9.55463
G1 X111.567 Y126.398 E9.58311
G1 X110.851 Y125.977 E9.61764
G1 X108.795 Y124.491 E9.72311
G1 X108.325 Y124.089 E9.74883
G1 X107.671 Y123.37 E9.78923
G1 X106.883 Y122.289 E9.84485
G1 X106.808 Y122.204 E9.84956
G1 X106.143 Y121.262 E9.8975
G1 X105.863 Y120.801 E9.91993
G1 X105.659 Y120.397 E9.93874
G1 X105.462 Y119.916 E9.96035
G1 X105.109 Y118.836 E10.00759
G1 X104.957 Y118.347 E10.02888
G1 X104.732 Y117.675 E10.05834
G1 X104.525 Y116.858 E10.09338
G1 X104.463 Y116.435 E10.11116
G1 X104.429 Y115.926 E10.13237
G1 X104.431 Y115.425 E10.1532
G1 X104.422 Y113.515 E10.23261
G1 X104.453 Y112.918 E10.25746
G1 X104.545 Y112.33 E10.2822
G1 X104.668 Y111.832 E10.30353
G1 X105.065 Y110.609 E10.35699
G1 X105.187 Y110.194 E10.37497
G1 X105.479 Y109.34 E10.4125
G1 X105.695 Y108.831 E10.43548
G1 X106.169 Y108.004 E10.47511
G1 X106.932 Y106.949 E10.52924
G1 X107.015 Y106.813 E10.53587
G1 X107.689 Y105.905 E10.58288
G1 X108.04 Y105.5 E10.60516
G0 F2100 X108.343 Y105.763
G1 F1500 X108.713 Y105.404 E10.6266
G1 X109.015 Y105.153 E10.64292
G1 X110.964 Y103.729 E10.74328
G1 X111.4 Y103.448 E10.76484
G1 X111.938 Y103.165 E10.79012
G1 X112.355 Y102.995 E10.80884
G1 X113.556 Y102.601 E10.86139
G1 X113.729 Y102.534 E10.8691
G1 X114.818 Y102.193 E10.91654
G1 X115.541 Y102.043 E10.94724
G1 X116.145 Y101.988 E10.97246
G1 X116.36 Y101.98 E10.9814
G1 X118.559 Y101.972 E11.07283
G1 X119.096 Y101.993 E11.09517
G1 X119.753 Y102.089 E11.12278
G1 X120.194 Y102.198 E11.14166
G1 X121.465 Y102.608 E11.19719
G1 X121.669 Y102.663 E11.20597
G1 X122.679 Y103.006 E11.25032
G1 X123.14 Y103.201 E11.27113
G1 X123.912 Y103.642 E11.30809
G1 X124.838 Y104.312 E11.35561
G1 X125.238 Y104.61 E11.37635
G1 X125.818 Y105.023 E11.40595
G1 X126.262 Y105.38 E11.42964
G1 X126.717 Y105.825 E11.4561
G1 X127.001 Y106.163 E11.47445
G1 X127.7 Y107.12 E11.52372
G1 X127.851 Y107.309 E11.53378
G1 X128.53 Y108.27 E11.5827
G1 X128.867 Y108.855 E11.61077
G1 X129.165 Y109.549 E11.64217
G1 X129.218 Y109.718 E11.64953
G1 X129.896 Y111.777 E11.73966
G1 X130.032 Y112.277 E11.7612
G1 X130.142 Y112.911 E11.78795
G1 X130.177 Y113.406 E11.80858
G1 X130.181 Y114.73 E11.86363
G1 X130.189 Y114.849 E11.86859
G1 X130.177 Y115.933 E11.91366
G1 X130.111 Y116.612 E11.94202
G1 X129.949 Y117.353 E11.97355
G1 X129.576 Y118.5 E12.0237
G1 X129.501 Y118.719 E12.03332
G1 X129.204 Y119.653 E12.07407
G1 X128.96 Y120.254 E12.10104
G1 X128.714 Y120.73 E12.12331
G1 X128.502 Y121.065 E12.1398
G1 X127.021 Y123.115 E12.24494
G1 X126.681 Y123.517 E12.26683
G1 X126.32 Y123.874 E12.28794
G1 X125.981 Y124.158 E12.30632
G1 X125.016 Y124.861 E12.35596
G1 X124.613 Y125.146 E12.37648
G1 X124.077 Y125.542 E12.40419
G1 X123.494 Y125.909 E12.43283
G1 X123.029 Y126.147 E12.45455
G1 X122.431 Y126.371 E12.4811
G1 X120.377 Y127.047 E12.571
G1 X119.709 Y127.213 E12.59961
G1 X119.194 Y127.294 E12.62129
G1 X118.692 Y127.324 E12.6422
G1 X118.346 Y127.321 E12.65658
G1 X116.393 Y127.33 E12.73778
G1 X115.817 Y127.301 E12.76176
G1 X115.231 Y127.208 E12.78643
G1 X114.803 Y127.102 E12.80476
G1 X113.745 Y126.76 E12.85098
G1 X113.417 Y126.668 E12.86515
G1 X112.323 Y126.296 E12.91319
G1 X111.746 Y126.04 E12.93943
G1 X111.086 Y125.653 E12.97124
G1 X109.03 Y124.167 E13.07671
G1 X108.598 Y123.798 E13.10033
G1 X107.994 Y123.134 E13.13765
G1 X107.216 Y122.067 E13.19255
G1 X107.135 Y121.973 E13.19771
G1 X106.47 Y121.031 E13.24565
G1 X106.149 Y120.483 E13.27205
G1 X105.843 Y119.792 E13.30347
G1 X105.491 Y118.717 E13.3505
G1 X105.35 Y118.262 E13.3703
G1 X105.111 Y117.548 E13.40161
G1 X104.92 Y116.795 E13.4339
G1 X104.829 Y115.927 E13.47019
G1 X104.831 Y115.426 E13.49102
G1 X104.822 Y113.522 E13.57018
G1 X104.85 Y112.968 E13.59324
G1 X104.939 Y112.398 E13.61723
G1 X105.048 Y111.956 E13.63615
G1 X105.41 Y110.842 E13.68485
G1 X105.557 Y110.347 E13.70632
G1 X105.857 Y109.47 E13.74485
G1 X106.056 Y109.002 E13.766
G1 X106.493 Y108.238 E13.80259
G1 X107.172 Y107.299 E13.85077
G1 X107.337 Y107.052 E13.86312
G1 X108.011 Y106.144 E13.91013
G1 X108.343 Y105.763 E13.93114
G1 F4200 E8.93114
;MESH:picadorEngrMenor.stl
G0 F2100 X114.806 Y112.69
G0 X113.621 Y111.833
G0 X113.183 Y113.614
G0 X113.062 Y114.477
G0 X113.114 Y115.345
G0 X113.332 Y116.188
G0 X113.713 Y116.971
G0 X114.238 Y117.665
G0 X114.89 Y118.244
G0 X115.497 Y118.601
G0 X117.319 Y119.251
;TYPE:WALL-INNER
G1 F4200 E13.93114
G1 F1200 X118.22 Y119.197 E13.96867
G1 X119.093 Y118.97 E14.00617
G1 X119.905 Y118.576 E14.04369
G1 X120.624 Y118.031 E14.0812
G1 X121.224 Y117.356 E14.11875
G1 X121.684 Y116.569 E14.15665
G1 X121.975 Y115.726 E14.19373
G1 X122.1 Y114.832 E14.23126
G1 X122.046 Y113.931 E14.26878
G1 X121.819 Y113.057 E14.30632
G1 X121.425 Y112.246 E14.34381
G1 X120.88 Y111.527 E14.38132
G1 X120.205 Y110.927 E14.41887
G1 X119.427 Y110.471 E14.45636
G1 X118.575 Y110.175 E14.49386
G1 X117.681 Y110.051 E14.53138
G1 X116.78 Y110.105 E14.56891
G1 X115.907 Y110.332 E14.60641
G1 X115.095 Y110.726 E14.64393
G1 X114.376 Y111.271 E14.68144
G1 X113.776 Y111.946 E14.71899
G1 X113.319 Y112.724 E14.7565
G1 X113.025 Y113.576 E14.79397
G1 X112.9 Y114.47 E14.8315
G1 X112.954 Y115.371 E14.86903
G1 X113.181 Y116.244 E14.90653
G1 X113.575 Y117.056 E14.94406
G1 X114.12 Y117.775 E14.98157
G1 X114.795 Y118.375 E15.01911
G1 X115.573 Y118.832 E15.05663
G1 X116.425 Y119.126 E15.0941
G1 X117.319 Y119.251 E15.13163
G0 F2100 X117.335 Y118.849
;TYPE:WALL-OUTER
G1 F1200 X118.157 Y118.8 E15.16586
G1 X118.954 Y118.593 E15.2001
G1 X119.695 Y118.233 E15.23435
G1 X120.351 Y117.736 E15.26857
G1 X120.899 Y117.12 E15.30284
G1 X121.319 Y116.401 E15.33746
G1 X121.584 Y115.632 E15.37128
G1 X121.698 Y114.816 E15.40553
G1 X121.649 Y113.994 E15.43977
G1 X121.442 Y113.196 E15.47404
G1 X121.082 Y112.456 E15.50826
G1 X120.585 Y111.8 E15.54247
G1 X119.969 Y111.252 E15.57675
G1 X119.259 Y110.836 E15.61096
G1 X118.481 Y110.566 E15.6452
G1 X117.665 Y110.453 E15.67945
G1 X116.843 Y110.502 E15.71369
G1 X116.046 Y110.709 E15.74792
G1 X115.305 Y111.069 E15.78217
G1 X114.649 Y111.566 E15.81639
G1 X114.101 Y112.182 E15.85067
G1 X113.684 Y112.892 E15.8849
G1 X113.416 Y113.67 E15.91911
G1 X113.302 Y114.486 E15.95336
G1 X113.351 Y115.308 E15.9876
G1 X113.558 Y116.105 E16.02183
G1 X113.918 Y116.846 E16.05608
G1 X114.415 Y117.502 E16.0903
G1 X115.031 Y118.05 E16.12458
G1 X115.741 Y118.467 E16.15881
G1 X116.519 Y118.735 E16.19302
G1 X117.335 Y118.849 E16.22728
G0 F2100 X117.534 Y118.838
G0 X117.559 Y119.277
G1 F4200 E11.22728
G0 F2100 X117.995 Y121.49
G0 X118.87 Y123.262
;TYPE:WALL-INNER
G1 F4200 E16.22728
G1 F1200 X118.854 Y123.234 E16.22862
G1 X118.576 Y122.764 E16.25132
G1 X118.558 Y122.702 E16.25401
G1 X118.374 Y122.063 E16.28165
G1 X117.916 Y121.696 E16.30605
G1 X117.246 Y121.659 E16.33395
