;FLAVOR:Marlin
;TIME:25383
;Filament used: 18.9762m
;Layer height: 0.15
;MINX:69.5
;MINY:85.448
;MINZ:0.25
;MAXX:165.5
;MAXY:149.782
;MAXZ:67
;Generated with Cura_SteamEngine 4.8
M140 S60
M105
M190 S60
M104 S200
M105
M109 S200
M82 ;absolute extrusion mode
G28 ;home
G92 E0 ;Reset Extruder
G1 Z4.0 F3000 ;Move Z Axis up
G1 X1.1 Y20 Z0.28 F5000.0 ;Move to start position
G1 X1.1 Y200.0 Z0.28 F1500.0 E15 ;Draw the first line
G1 X1.4 Y200.0 Z0.28 F5000.0 ;Move to side a little
G1 X1.4 Y20 Z0.28 F1500.0 E30 ;Draw the second line
G92 E0 ;Reset Extruder
G1 Z2.0 F3000 ;Move Z Axis up
G92 E0
G92 E0
G1 F4200 E-5
;LAYER_COUNT:446
;LAYER:0
M107
G0 F2100 X70.88 Y90.783 Z0.25
;TYPE:SKIRT
G1 F4200 E0
G1 F1500 X71.317 Y90.528 E0.02104
G1 X71.788 Y90.344 E0.04206
G1 X72.282 Y90.238 E0.06306
G1 X72.94 Y90.201 E0.09046
G1 X161.639 Y90.2 E3.77814
G1 X162.337 Y90.21 E3.80716
G1 X162.84 Y90.257 E3.82817
G1 X163.33 Y90.383 E3.8492
G1 X163.794 Y90.585 E3.87024
G1 X164.22 Y90.857 E3.89125
G1 X164.598 Y91.192 E3.91225
G1 X164.918 Y91.583 E3.93326
G1 X165.173 Y92.02 E3.95429
G1 X165.356 Y92.491 E3.9753
G1 X165.463 Y92.985 E3.99632
G1 X165.499 Y93.64 E4.02359
G1 X165.5 Y140.904 E5.9886
G1 X165.491 Y141.631 E6.01882
G1 X165.445 Y142.134 E6.03982
G1 X165.32 Y142.624 E6.06085
G1 X165.119 Y143.088 E6.08187
G1 X164.848 Y143.515 E6.1029
G1 X164.513 Y143.894 E6.12393
G1 X164.123 Y144.215 E6.14493
G1 X163.687 Y144.471 E6.16595
G1 X163.216 Y144.654 E6.18696
G1 X162.722 Y144.762 E6.20798
G1 X162.06 Y144.799 E6.23555
G1 X73.366 Y144.8 E9.92301
G1 X72.668 Y144.791 E9.95204
G1 X72.164 Y144.744 E9.97308
G1 X71.674 Y144.619 E9.9941
G1 X71.21 Y144.418 E10.01513
G1 X70.784 Y144.147 E10.03612
G1 X70.405 Y143.812 E10.05715
G1 X70.084 Y143.421 E10.07818
G1 X69.829 Y142.985 E10.09918
G1 X69.645 Y142.514 E10.1202
G1 X69.538 Y142.02 E10.14122
G1 X69.501 Y141.344 E10.16936
G1 X69.5 Y94.031 E12.13641
G1 X69.509 Y93.366 E12.16406
G1 X69.556 Y92.862 E12.18511
G1 X69.682 Y92.373 E12.2061
G1 X69.883 Y91.909 E12.22712
G1 X70.154 Y91.482 E12.24815
G1 X70.489 Y91.104 E12.26915
G1 X70.88 Y90.783 E12.29018
G1 F4200 E7.29018
;MESH:powerBank-Base.stl
G0 F2100 X73.51 Y92.735
G0 X73.51 Y94.21
G0 X73.482 Y140.818
G0 X161.7 Y141
;TYPE:WALL-INNER
G1 F4200 E12.29018
G1 F1200 X73.3 Y141 E15.96543
G1 X73.3 Y94 E17.91946
G1 X161.7 Y94 E21.5947
G1 X161.7 Y141 E23.54874
G0 F2100 X162.1 Y141.4
;TYPE:WALL-OUTER
G1 F1200 X72.9 Y141.4 E27.25724
G1 X72.9 Y93.6 E29.24453
G1 X162.1 Y93.6 E32.95304
G1 X162.1 Y141.4 E34.94033
G0 F2100 X161.9 Y141.4
G0 X161.66 Y140.96
G0 X161.31 Y140.61
;TYPE:SKIN
G1 F1200 X73.69 Y140.61 E38.58315
G1 X73.69 Y94.39 E40.50475
G1 X161.31 Y94.39 E44.14757
G1 X161.31 Y140.61 E46.06917
G0 F2100 X161.59 Y140.61
G0 X161.59 Y94.944
G0 X161.129 Y94.944
G1 F1200 X160.755 Y94.569 E46.09119
G0 F2100 X160.189 Y94.569
G1 F1200 X161.129 Y95.51 E46.14649
G0 F2100 X161.129 Y96.076
G1 F1200 X159.623 Y94.569 E46.23507
G0 F2100 X159.058 Y94.569
G1 F1200 X161.129 Y96.641 E46.35686
G0 F2100 X161.129 Y97.207
G1 F1200 X158.492 Y94.569 E46.51194
G0 F2100 X157.926 Y94.569
G1 F1200 X161.129 Y97.773 E46.70029
G0 F2100 X161.129 Y98.338
G1 F1200 X157.36 Y94.569 E46.92189
G0 F2100 X156.795 Y94.569
G1 F1200 X161.129 Y98.904 E47.17675
G0 F2100 X161.129 Y99.47
G1 F1200 X156.229 Y94.569 E47.46488
G0 F2100 X155.663 Y94.569
G1 F1200 X161.129 Y100.035 E47.78626
G0 F2100 X161.129 Y100.601
G1 F1200 X155.098 Y94.569 E48.14089
G0 F2100 X154.532 Y94.569
G1 F1200 X161.129 Y101.167 E48.52879
G0 F2100 X161.129 Y101.732
G1 F1200 X153.966 Y94.569 E48.94995
G0 F2100 X153.401 Y94.569
G1 F1200 X161.129 Y102.298 E49.40436
G0 F2100 X161.129 Y102.864
G1 F1200 X152.835 Y94.569 E49.89204
G0 F2100 X152.269 Y94.569
G1 F1200 X161.129 Y103.429 E50.41298
G0 F2100 X161.129 Y103.995
G1 F1200 X151.704 Y94.569 E50.96716
G0 F2100 X151.138 Y94.569
G1 F1200 X161.129 Y104.561 E51.55462
G0 F2100 X161.129 Y105.126
G1 F1200 X150.572 Y94.569 E52.17533
G0 F2100 X150.007 Y94.569
G1 F1200 X161.129 Y105.692 E52.82929
G0 F2100 X161.129 Y106.258
G1 F1200 X149.441 Y94.569 E53.51653
G0 F2100 X148.875 Y94.569
G1 F1200 X161.129 Y106.824 E54.23705
G0 F2100 X161.129 Y107.389
G1 F1200 X148.309 Y94.569 E54.99082
G0 F2100 X147.744 Y94.569
G1 F1200 X161.129 Y107.955 E55.77783
G0 F2100 X161.129 Y108.521
G1 F1200 X147.178 Y94.569 E56.59813
G0 F2100 X146.612 Y94.569
G1 F1200 X161.129 Y109.086 E57.45167
G0 F2100 X161.129 Y109.652
G1 F1200 X146.047 Y94.569 E58.33846
G0 F2100 X145.481 Y94.569
G1 F1200 X161.129 Y110.218 E59.25854
G0 F2100 X161.129 Y110.783
G1 F1200 X144.915 Y94.569 E60.21186
G0 F2100 X144.35 Y94.569
G1 F1200 X161.129 Y111.349 E61.19843
G0 F2100 X161.129 Y111.915
G1 F1200 X143.784 Y94.569 E62.21828
G0 F2100 X143.218 Y94.569
G1 F1200 X161.129 Y112.48 E63.27137
G0 F2100 X161.129 Y113.046
G1 F1200 X142.653 Y94.569 E64.35772
G0 F2100 X142.087 Y94.569
G1 F1200 X161.129 Y113.612 E65.47735
G0 F2100 X161.129 Y114.177
G1 F1200 X141.521 Y94.569 E66.63022
G0 F2100 X140.956 Y94.569
G1 F1200 X161.129 Y114.743 E67.81635
G0 F2100 X161.129 Y115.309
G1 F1200 X140.39 Y94.569 E69.03575
G0 F2100 X139.824 Y94.569
G1 F1200 X161.129 Y115.875 E70.28843
G0 F2100 X161.129 Y116.44
G1 F1200 X139.259 Y94.569 E71.57433
G0 F2100 X138.693 Y94.569
G1 F1200 X161.129 Y117.006 E72.89351
G0 F2100 X161.129 Y117.572
G1 F1200 X138.127 Y94.569 E74.24597
G0 F2100 X137.561 Y94.569
G1 F1200 X161.129 Y118.137 E75.63168
G0 F2100 X161.129 Y118.703
G1 F1200 X136.996 Y94.569 E77.05064
G0 F2100 X136.43 Y94.569
G1 F1200 X161.129 Y119.269 E78.50287
G0 F2100 X161.129 Y119.834
G1 F1200 X135.864 Y94.569 E79.98836
G0 F2100 X135.299 Y94.569
G1 F1200 X161.129 Y120.4 E81.50709
G0 F2100 X161.129 Y120.966
G1 F1200 X134.733 Y94.569 E83.05911
G0 F2100 X134.167 Y94.569
G1 F1200 X161.129 Y121.531 E84.64437
G0 F2100 X161.129 Y122.097
G1 F1200 X133.602 Y94.569 E86.26288
G0 F2100 X133.036 Y94.569
G1 F1200 X161.129 Y122.663 E87.91467
G0 F2100 X161.129 Y123.228
G1 F1200 X132.47 Y94.569 E89.59971
G0 F2100 X131.905 Y94.569
G1 F1200 X161.129 Y123.794 E91.318
G0 F2100 X161.129 Y124.36
G1 F1200 X131.339 Y94.569 E93.06957
G0 F2100 X130.773 Y94.569
G1 F1200 X161.129 Y124.925 E94.85438
G0 F2100 X161.129 Y125.491
G1 F1200 X130.208 Y94.569 E96.67245
G0 F2100 X129.642 Y94.569
G1 F1200 X161.129 Y126.057 E98.52379
G0 F2100 X161.129 Y126.623
G1 F1200 X129.076 Y94.569 E100.40842
G0 F2100 X128.511 Y94.569
G1 F1200 X161.129 Y127.188 E102.32626
G0 F2100 X161.129 Y127.754
G1 F1200 X127.945 Y94.569 E104.27738
G0 F2100 X127.379 Y94.569
G1 F1200 X161.129 Y128.32 E106.26178
G0 F2100 X161.129 Y128.885
G1 F1200 X126.813 Y94.569 E108.27943
G0 F2100 X126.248 Y94.569
G1 F1200 X161.129 Y129.451 E110.33033
G0 F2100 X161.129 Y130.017
G1 F1200 X125.682 Y94.569 E112.4145
G0 F2100 X125.116 Y94.569
G1 F1200 X161.129 Y130.582 E114.53193
G0 F2100 X161.129 Y131.148
G1 F1200 X124.551 Y94.569 E116.68261
G0 F2100 X123.985 Y94.569
G1 F1200 X161.129 Y131.714 E118.86656
G0 F2100 X161.129 Y132.279
G1 F1200 X123.419 Y94.569 E121.08376
G0 F2100 X122.854 Y94.569
G1 F1200 X161.129 Y132.845 E123.33422
G0 F2100 X161.129 Y133.411
G1 F1200 X122.288 Y94.569 E125.61795
G0 F2100 X121.722 Y94.569
G1 F1200 X161.129 Y133.976 E127.93493
G0 F2100 X161.129 Y134.542
G1 F1200 X121.157 Y94.569 E130.28516
G0 F2100 X120.591 Y94.569
G1 F1200 X161.129 Y135.108 E132.66867
G0 F2100 X161.129 Y135.673
G1 F1200 X120.025 Y94.569 E135.08542
G0 F2100 X119.46 Y94.569
G1 F1200 X161.129 Y136.239 E137.53543
G0 F2100 X161.129 Y136.805
G1 F1200 X118.894 Y94.569 E140.01872
G0 F2100 X118.328 Y94.569
G1 F1200 X161.129 Y137.371 E142.53528
G0 F2100 X161.129 Y137.936
G1 F1200 X117.762 Y94.569 E145.08509
G0 F2100 X117.197 Y94.569
G1 F1200 X161.129 Y138.502 E147.66816
G0 F2100 X161.129 Y139.068
G1 F1200 X116.631 Y94.569 E150.2845
G0 F2100 X116.065 Y94.569
G1 F1200 X161.129 Y139.633 E152.93409
G0 F2100 X161.129 Y140.199
G1 F1200 X115.5 Y94.569 E155.61693
G0 F2100 X114.934 Y94.569
G1 F1200 X160.793 Y140.429 E158.31329
G0 F2100 X160.228 Y140.429
G1 F1200 X114.368 Y94.569 E161.00968
G0 F2100 X113.803 Y94.569
G1 F1200 X159.662 Y140.429 E163.70605
G0 F2100 X159.096 Y140.429
G1 F1200 X113.237 Y94.569 E166.40241
G0 F2100 X112.671 Y94.569
G1 F1200 X158.531 Y140.429 E169.0988
G0 F2100 X157.965 Y140.429
G1 F1200 X112.106 Y94.569 E171.79516
G0 F2100 X111.54 Y94.569
G1 F1200 X157.399 Y140.429 E174.49153
G0 F2100 X156.834 Y140.429
G1 F1200 X110.974 Y94.569 E177.18792
G0 F2100 X110.409 Y94.569
G1 F1200 X156.268 Y140.429 E179.88428
G0 F2100 X155.702 Y140.429
G1 F1200 X109.843 Y94.569 E182.58065
G0 F2100 X109.277 Y94.569
G1 F1200 X155.137 Y140.429 E185.27704
G0 F2100 X154.571 Y140.429
G1 F1200 X108.712 Y94.569 E187.9734
G0 F2100 X108.146 Y94.569
G1 F1200 X154.005 Y140.429 E190.66976
G0 F2100 X153.44 Y140.429
G1 F1200 X107.58 Y94.569 E193.36616
G0 F2100 X107.014 Y94.569
G1 F1200 X152.874 Y140.429 E196.06255
G0 F2100 X152.308 Y140.429
G1 F1200 X106.449 Y94.569 E198.75891
G0 F2100 X105.883 Y94.569
G1 F1200 X151.742 Y140.429 E201.45527
G0 F2100 X151.177 Y140.429
G1 F1200 X105.317 Y94.569 E204.15167
G0 F2100 X104.752 Y94.569
G1 F1200 X150.611 Y140.429 E206.84803
G0 F2100 X150.045 Y140.429
G1 F1200 X104.186 Y94.569 E209.54439
G0 F2100 X103.62 Y94.569
G1 F1200 X149.48 Y140.429 E212.24078
G0 F2100 X148.914 Y140.429
G1 F1200 X103.055 Y94.569 E214.93715
G0 F2100 X102.489 Y94.569
G1 F1200 X148.348 Y140.429 E217.63351
G0 F2100 X147.783 Y140.429
G1 F1200 X101.923 Y94.569 E220.3299
G0 F2100 X101.358 Y94.569
G1 F1200 X147.217 Y140.429 E223.02626
G0 F2100 X146.651 Y140.429
G1 F1200 X100.792 Y94.569 E225.72263
G0 F2100 X100.226 Y94.569
G1 F1200 X146.086 Y140.429 E228.41902
G0 F2100 X145.52 Y140.429
G1 F1200 X99.661 Y94.569 E231.11538
G0 F2100 X99.095 Y94.569
G1 F1200 X144.954 Y140.429 E233.81175
G0 F2100 X144.389 Y140.429
G1 F1200 X98.529 Y94.569 E236.50814
G0 F2100 X97.963 Y94.569
G1 F1200 X143.823 Y140.429 E239.20453
G0 F2100 X143.257 Y140.429
G1 F1200 X97.398 Y94.569 E241.90089
G0 F2100 X96.832 Y94.569
G1 F1200 X142.692 Y140.429 E244.59728
G0 F2100 X142.126 Y140.429
G1 F1200 X96.266 Y94.569 E247.29368
G0 F2100 X95.701 Y94.569
G1 F1200 X141.56 Y140.429 E249.99004
G0 F2100 X140.994 Y140.429
G1 F1200 X95.135 Y94.569 E252.6864
G0 F2100 X94.569 Y94.569
G1 F1200 X140.429 Y140.429 E255.3828
G0 F2100 X139.863 Y140.429
G1 F1200 X94.004 Y94.569 E258.07916
G0 F2100 X93.438 Y94.569
G1 F1200 X139.297 Y140.429 E260.77552
G0 F2100 X138.732 Y140.429
G1 F1200 X92.872 Y94.569 E263.47191
G0 F2100 X92.307 Y94.569
G1 F1200 X138.166 Y140.429 E266.16828
G0 F2100 X137.6 Y140.429
G1 F1200 X91.741 Y94.569 E268.86464
G0 F2100 X91.175 Y94.569
G1 F1200 X137.035 Y140.429 E271.56103
G0 F2100 X136.469 Y140.429
G1 F1200 X90.61 Y94.569 E274.25739
G0 F2100 X90.044 Y94.569
G1 F1200 X135.903 Y140.429 E276.95376
G0 F2100 X135.338 Y140.429
G1 F1200 X89.478 Y94.569 E279.65015
G0 F2100 X88.913 Y94.569
G1 F1200 X134.772 Y140.429 E282.34651
G0 F2100 X134.206 Y140.429
G1 F1200 X88.347 Y94.569 E285.04287
G0 F2100 X87.781 Y94.569
G1 F1200 X133.641 Y140.429 E287.73927
G0 F2100 X133.075 Y140.429
G1 F1200 X87.215 Y94.569 E290.43566
G0 F2100 X86.65 Y94.569
G1 F1200 X132.509 Y140.429 E293.13202
G0 F2100 X131.944 Y140.429
G1 F1200 X86.084 Y94.569 E295.82841
G0 F2100 X85.518 Y94.569
G1 F1200 X131.378 Y140.429 E298.52481
G0 F2100 X130.812 Y140.429
G1 F1200 X84.953 Y94.569 E301.22117
G0 F2100 X84.387 Y94.569
G1 F1200 X130.246 Y140.429 E303.91753
G0 F2100 X129.681 Y140.429
G1 F1200 X83.821 Y94.569 E306.61392
G0 F2100 X83.256 Y94.569
G1 F1200 X129.115 Y140.429 E309.31029
G0 F2100 X128.549 Y140.429
G1 F1200 X82.69 Y94.569 E312.00665
G0 F2100 X82.124 Y94.569
G1 F1200 X127.984 Y140.429 E314.70304
G0 F2100 X127.418 Y140.429
G1 F1200 X81.559 Y94.569 E317.39941
G0 F2100 X80.993 Y94.569
G1 F1200 X126.852 Y140.429 E320.09577
G0 F2100 X126.287 Y140.429
G1 F1200 X80.427 Y94.569 E322.79216
G0 F2100 X79.862 Y94.569
G1 F1200 X125.721 Y140.429 E325.48852
G0 F2100 X125.155 Y140.429
G1 F1200 X79.296 Y94.569 E328.18489
G0 F2100 X78.73 Y94.569
G1 F1200 X124.59 Y140.429 E330.88128
G0 F2100 X124.024 Y140.429
G1 F1200 X78.164 Y94.569 E333.57767
G0 F2100 X77.599 Y94.569
G1 F1200 X123.458 Y140.429 E336.27403
G0 F2100 X122.893 Y140.429
G1 F1200 X77.033 Y94.569 E338.97043
G0 F2100 X76.467 Y94.569
G1 F1200 X122.327 Y140.429 E341.66682
G0 F2100 X121.761 Y140.429
G1 F1200 X75.902 Y94.569 E344.36318
G0 F2100 X75.336 Y94.569
G1 F1200 X121.195 Y140.429 E347.05954
G0 F2100 X120.63 Y140.429
G1 F1200 X74.77 Y94.569 E349.75594
G0 F2100 X74.205 Y94.569
G1 F1200 X120.064 Y140.429 E352.4523
G0 F2100 X119.498 Y140.429
G1 F1200 X73.869 Y94.799 E355.13514
G0 F2100 X73.869 Y95.365
G1 F1200 X118.933 Y140.429 E357.78473
G0 F2100 X118.367 Y140.429
G1 F1200 X73.869 Y95.931 E360.40104
G0 F2100 X73.869 Y96.496
G1 F1200 X117.801 Y140.429 E362.9841
G0 F2100 X117.236 Y140.429
G1 F1200 X73.869 Y97.062 E365.53392
G0 F2100 X73.869 Y97.628
G1 F1200 X116.67 Y140.429 E368.05045
G0 F2100 X116.104 Y140.429
G1 F1200 X73.869 Y98.193 E370.53374
G0 F2100 X73.869 Y98.759
G1 F1200 X115.539 Y140.429 E372.98377
G0 F2100 X114.973 Y140.429
G1 F1200 X73.869 Y99.325 E375.40053
G0 F2100 X73.869 Y99.89
G1 F1200 X114.407 Y140.429 E377.78404
G0 F2100 X113.842 Y140.429
G1 F1200 X73.869 Y100.456 E380.1343
G0 F2100 X73.869 Y101.022
G1 F1200 X113.276 Y140.429 E382.45128
G0 F2100 X112.71 Y140.429
G1 F1200 X73.869 Y101.587 E384.73501
G0 F2100 X73.869 Y102.153
G1 F1200 X112.145 Y140.429 E386.98549
G0 F2100 X111.579 Y140.429
G1 F1200 X73.869 Y102.719 E389.2027
G0 F2100 X73.869 Y103.284
G1 F1200 X111.013 Y140.429 E391.38665
G0 F2100 X110.447 Y140.429
G1 F1200 X73.869 Y103.85 E393.53733
G0 F2100 X73.869 Y104.416
G1 F1200 X109.882 Y140.429 E395.65475
G0 F2100 X109.316 Y140.429
G1 F1200 X73.869 Y104.982 E397.7389
G0 F2100 X73.869 Y105.547
G1 F1200 X108.75 Y140.429 E399.7898
G0 F2100 X108.185 Y140.429
G1 F1200 X73.869 Y106.113 E401.80745
G0 F2100 X73.869 Y106.679
G1 F1200 X107.619 Y140.429 E403.79182
G0 F2100 X107.053 Y140.429
G1 F1200 X73.869 Y107.244 E405.74294
G0 F2100 X73.869 Y107.81
G1 F1200 X106.488 Y140.429 E407.66081
G0 F2100 X105.922 Y140.429
G1 F1200 X73.869 Y108.376 E409.54541
G0 F2100 X73.869 Y108.941
G1 F1200 X105.356 Y140.429 E411.39675
G0 F2100 X104.791 Y140.429
G1 F1200 X73.869 Y109.507 E413.21485
G0 F2100 X73.869 Y110.073
G1 F1200 X104.225 Y140.429 E414.99966
G0 F2100 X103.659 Y140.429
G1 F1200 X73.869 Y110.638 E416.75123
G0 F2100 X73.869 Y111.204
G1 F1200 X103.094 Y140.429 E418.46955
G0 F2100 X102.528 Y140.429
G1 F1200 X73.869 Y111.77 E420.15459
G0 F2100 X73.869 Y112.335
G1 F1200 X101.962 Y140.429 E421.80638
G0 F2100 X101.396 Y140.429
G1 F1200 X73.869 Y112.901 E423.42489
G0 F2100 X73.869 Y113.467
G1 F1200 X100.831 Y140.429 E425.01015
G0 F2100 X100.265 Y140.429
G1 F1200 X73.869 Y114.032 E426.56216
G0 F2100 X73.869 Y114.598
G1 F1200 X99.699 Y140.429 E428.0809
G0 F2100 X99.134 Y140.429
G1 F1200 X73.869 Y115.164 E429.56638
G0 F2100 X73.869 Y115.73
G1 F1200 X98.568 Y140.429 E431.01859
G0 F2100 X98.002 Y140.429
G1 F1200 X73.869 Y116.295 E432.43755
G0 F2100 X73.869 Y116.861
G1 F1200 X97.437 Y140.429 E433.82325
G0 F2100 X96.871 Y140.429
G1 F1200 X73.869 Y117.427 E435.17568
G0 F2100 X73.869 Y117.992
G1 F1200 X96.305 Y140.429 E436.49486
G0 F2100 X95.74 Y140.429
G1 F1200 X73.869 Y118.558 E437.7808
G0 F2100 X73.869 Y119.124
G1 F1200 X95.174 Y140.429 E439.03345
G0 F2100 X94.608 Y140.429
G1 F1200 X73.869 Y119.689 E440.25285
G0 F2100 X73.869 Y120.255
G1 F1200 X94.043 Y140.429 E441.439
G0 F2100 X93.477 Y140.429
G1 F1200 X73.869 Y120.821 E442.59188
G0 F2100 X73.869 Y121.386
G1 F1200 X92.911 Y140.429 E443.71151
G0 F2100 X92.346 Y140.429
G1 F1200 X73.869 Y121.952 E444.79788
G0 F2100 X73.869 Y122.518
G1 F1200 X91.78 Y140.429 E445.85098
G0 F2100 X91.214 Y140.429
G1 F1200 X73.869 Y123.083 E446.87083
G0 F2100 X73.869 Y123.649
G1 F1200 X90.648 Y140.429 E447.8574
G0 F2100 X90.083 Y140.429
G1 F1200 X73.869 Y124.215 E448.81072
G0 F2100 X73.869 Y124.781
G1 F1200 X89.517 Y140.429 E449.73076
G0 F2100 X88.951 Y140.429
G1 F1200 X73.869 Y125.346 E450.61756
G0 F2100 X73.869 Y125.912
G1 F1200 X88.386 Y140.429 E451.4711
G0 F2100 X87.82 Y140.429
