;FLAVOR:Marlin
;TIME:12141
;Filament used: 8.2014m
;Layer height: 0.15
;MINX:70.017
;MINY:15.562
;MINZ:0.25
;MAXX:164.984
;MAXY:79.4
;MAXZ:19.9
;Generated with Cura_SteamEngine 4.8
M140 S60
M105
M190 S60
M104 S200
M105
M109 S200
M82 ;absolute extrusion mode
G28 ;home
G92 E0 ;Reset Extruder
G1 Z4.0 F3000 ;Move Z Axis up
G1 X1.1 Y20 Z0.28 F5000.0 ;Move to start position
G1 X1.1 Y200.0 Z0.28 F1500.0 E15 ;Draw the first line
G1 X1.4 Y200.0 Z0.28 F5000.0 ;Move to side a little
G1 X1.4 Y20 Z0.28 F1500.0 E30 ;Draw the second line
G92 E0 ;Reset Extruder
G1 Z2.0 F3000 ;Move Z Axis up
G92 E0
G92 E0
G1 F4200 E-5
;LAYER_COUNT:132
;LAYER:0
M107
G0 F2100 X70.178 Y23.408 Z0.25
;TYPE:SKIRT
G1 F4200 E0
G1 F1500 X70.339 Y22.929 E0.02101
G1 X70.573 Y22.481 E0.04202
G1 X70.888 Y22.061 E0.06385
G1 X71.045 Y21.884 E0.07369
G1 X71.409 Y21.533 E0.09471
G1 X71.824 Y21.244 E0.11573
G1 X72.241 Y21.039 E0.13505
G1 X72.901 Y20.83 E0.16384
G1 X73.603 Y20.728 E0.19333
G1 X74.157 Y20.717 E0.21636
G1 X160.64 Y20.716 E3.81191
G1 X161.322 Y20.726 E3.84027
G1 X161.825 Y20.774 E3.86127
G1 X162.416 Y20.921 E3.88659
G1 X162.891 Y21.094 E3.90761
G1 X163.333 Y21.339 E3.92862
G1 X163.731 Y21.651 E3.94965
G1 X164.2 Y22.174 E3.97885
G1 X164.487 Y22.59 E3.99987
G1 X164.705 Y23.046 E4.02088
G1 X164.882 Y23.656 E4.04729
G1 X164.973 Y24.307 E4.07461
G1 X164.984 Y24.904 E4.09944
G1 X164.982 Y69.938 E5.97173
G1 X164.972 Y70.658 E6.00167
G1 X164.925 Y71.162 E6.02272
G1 X164.758 Y71.795 E6.04993
G1 X164.573 Y72.265 E6.07093
G1 X164.316 Y72.701 E6.09198
G1 X163.994 Y73.091 E6.113
G1 X163.506 Y73.517 E6.13993
G1 X163.09 Y73.803 E6.16092
G1 X162.633 Y74.021 E6.18197
G1 X161.999 Y74.196 E6.20932
G1 X161.392 Y74.265 E6.23472
G1 X160.408 Y74.283 E6.27563
G1 X74.36 Y74.284 E9.85309
G1 X73.678 Y74.274 E9.88145
G1 X73.175 Y74.226 E9.90246
G1 X72.584 Y74.079 E9.92778
G1 X72.109 Y73.906 E9.94879
G1 X71.667 Y73.661 E9.9698
G1 X71.269 Y73.349 E9.99083
G1 X70.787 Y72.81 E10.02089
G1 X70.5 Y72.395 E10.04187
G1 X70.281 Y71.939 E10.0629
G1 X70.108 Y71.32 E10.08962
G1 X70.035 Y70.695 E10.11578
G1 X70.017 Y69.699 E10.1572
G1 X70.017 Y25.036 E12.01407
G1 X70.027 Y24.357 E12.0423
G1 X70.123 Y23.628 E12.07287
G1 X70.178 Y23.408 E12.0823
G1 F4200 E7.0823
;MESH:PB-Tampa.stl
G0 F2100 X109.365 Y47.373
G0 X107.93 Y47.373
G0 X108.1 Y49.3
;TYPE:WALL-INNER
G1 F4200 E12.0823
G1 F1200 X138.7 Y49.3 E13.3545
G1 X138.7 Y30.9 E14.11948
G1 X108.1 Y30.9 E15.39168
G1 X108.1 Y49.3 E16.15667
G0 F2100 X108.5 Y48.9
;TYPE:WALL-OUTER
G1 F1200 X138.3 Y48.9 E17.39561
G1 X138.3 Y31.3 E18.12733
G1 X108.5 Y31.3 E19.36627
G1 X108.5 Y48.9 E20.09799
G0 F2100 X108.7 Y48.9
G0 X108.7 Y49.34
G1 F4200 E15.09799
G0 F2100 X107.93 Y47.373
G0 X109.365 Y47.373
G0 X107.905 Y71.748
G0 X107.904 Y70.274
G0 X73.817 Y70.484
;TYPE:WALL-INNER
G1 F4200 E20.09799
G1 F1200 X73.817 Y70.285 E20.10627
G1 X73.817 Y24.517 E22.00908
G1 X160.985 Y24.516 E25.6331
G1 X161.184 Y24.516 E25.64138
G1 X161.184 Y24.715 E25.64673
G1 X161.182 Y70.483 E27.54954
G1 X74.016 Y70.484 E31.17348
G1 X73.817 Y70.484 E31.17884
G0 F2100 X73.545 Y70.829
;TYPE:WALL-OUTER
G1 F1200 X73.443 Y70.703 E31.18558
G1 X73.417 Y70.578 E31.19088
G1 X73.417 Y24.417 E33.11004
G1 X73.456 Y24.271 E33.11632
G1 X73.551 Y24.166 E33.12221
G1 X73.726 Y24.117 E33.12976
G1 X161.27 Y24.116 E36.76942
G1 X161.455 Y24.171 E36.77744
G1 X161.558 Y24.298 E36.78424
G1 X161.584 Y24.414 E36.78918
G1 X161.582 Y70.586 E38.70879
G1 X161.53 Y70.753 E38.71606
G1 X161.403 Y70.857 E38.72289
G1 X161.278 Y70.883 E38.7282
G1 X73.73 Y70.884 E42.36802
G1 X73.545 Y70.829 E42.37604
G0 F2100 X73.443 Y70.703
G0 X73.436 Y70.666
G0 X73.87 Y70.443
G0 X74.207 Y70.094
;TYPE:SKIN
G1 F1200 X74.207 Y24.907 E44.2547
G1 X160.794 Y24.906 E47.85457
G1 X160.792 Y70.093 E49.73323
G1 X74.207 Y70.094 E53.33301
G1 F4200 E48.33301
G0 F2100 X73.927 Y70.094
G0 X107.99 Y70.274
G0 X107.991 Y71.748
G0 X109.353 Y48.047
G0 X107.99 Y49.49
G0 X107.71 Y49.69
G1 F4200 E53.33301
G1 F1200 X139.09 Y49.69 E54.63764
G1 X139.09 Y30.51 E55.43505
G1 X107.71 Y30.51 E56.73968
G1 X107.71 Y49.69 E57.53709
G1 F4200 E52.53709
G0 F2100 X107.99 Y49.44
G0 X107.93 Y47.373
G0 X109.365 Y47.373
G0 X107.905 Y71.748
G0 X107.904 Y70.274
G0 X75.004 Y70.374
G0 X75.004 Y69.913
G1 F4200 E57.53709
G1 F1200 X74.386 Y69.295 E57.57343
G0 F2100 X74.386 Y68.729
G1 F1200 X75.57 Y69.913 E57.64304
G0 F2100 X76.136 Y69.913
G1 F1200 X74.386 Y68.163 E57.74594
G0 F2100 X74.386 Y67.597
G1 F1200 X76.701 Y69.913 E57.88208
G0 F2100 X77.267 Y69.913
G1 F1200 X74.386 Y67.032 E58.05147
G0 F2100 X74.386 Y66.466
G1 F1200 X77.833 Y69.913 E58.25414
G0 F2100 X78.399 Y69.913
G1 F1200 X74.386 Y65.9 E58.49009
G0 F2100 X74.386 Y65.335
G1 F1200 X78.964 Y69.913 E58.75926
G0 F2100 X79.53 Y69.913
G1 F1200 X74.386 Y64.769 E59.06171
G0 F2100 X74.386 Y64.203
G1 F1200 X80.096 Y69.913 E59.39743
G0 F2100 X80.661 Y69.913
G1 F1200 X74.386 Y63.638 E59.76638
G0 F2100 X74.386 Y63.072
G1 F1200 X81.227 Y69.913 E60.1686
G0 F2100 X81.793 Y69.913
G1 F1200 X74.386 Y62.506 E60.60411
G0 F2100 X74.386 Y61.941
G1 F1200 X82.358 Y69.913 E61.07283
G0 F2100 X82.924 Y69.913
G1 F1200 X74.386 Y61.375 E61.57483
G0 F2100 X74.386 Y60.809
G1 F1200 X83.49 Y69.913 E62.11011
G0 F2100 X84.055 Y69.913
G1 F1200 X74.386 Y60.244 E62.67861
G0 F2100 X74.386 Y59.678
G1 F1200 X84.621 Y69.913 E63.28039
G0 F2100 X85.187 Y69.913
G1 F1200 X74.386 Y59.112 E63.91545
G0 F2100 X74.386 Y58.547
G1 F1200 X85.752 Y69.913 E64.58373
G0 F2100 X86.318 Y69.913
G1 F1200 X74.386 Y57.981 E65.28528
G0 F2100 X74.386 Y57.415
G1 F1200 X86.884 Y69.913 E66.02012
G0 F2100 X87.45 Y69.913
G1 F1200 X74.386 Y56.849 E66.78823
G0 F2100 X74.386 Y56.284
G1 F1200 X88.015 Y69.913 E67.58956
G0 F2100 X88.581 Y69.913
G1 F1200 X74.386 Y55.718 E68.42417
G0 F2100 X74.386 Y55.152
G1 F1200 X89.147 Y69.913 E69.29206
G0 F2100 X89.712 Y69.913
G1 F1200 X74.386 Y54.587 E70.19317
G0 F2100 X74.386 Y54.021
G1 F1200 X90.278 Y69.913 E71.12756
G0 F2100 X90.844 Y69.913
G1 F1200 X74.386 Y53.455 E72.09523
G0 F2100 X74.386 Y52.89
G1 F1200 X91.409 Y69.913 E73.09612
G0 F2100 X91.975 Y69.913
G1 F1200 X74.386 Y52.324 E74.13028
G0 F2100 X74.386 Y51.758
G1 F1200 X92.541 Y69.913 E75.19773
G0 F2100 X93.106 Y69.913
G1 F1200 X74.386 Y51.193 E76.29839
G0 F2100 X74.386 Y50.627
G1 F1200 X93.672 Y69.913 E77.43233
G0 F2100 X94.238 Y69.913
G1 F1200 X74.386 Y50.061 E78.59956
G0 F2100 X74.386 Y49.496
G1 F1200 X94.803 Y69.913 E79.8
G0 F2100 X95.369 Y69.913
G1 F1200 X74.386 Y48.93 E81.03372
G0 F2100 X74.386 Y48.364
G1 F1200 X95.935 Y69.913 E82.30072
G0 F2100 X96.5 Y69.913
G1 F1200 X74.386 Y47.799 E83.60093
G0 F2100 X74.386 Y47.233
G1 F1200 X97.066 Y69.913 E84.93443
G0 F2100 X97.632 Y69.913
G1 F1200 X74.386 Y46.667 E86.30121
G0 F2100 X74.386 Y46.101
G1 F1200 X98.198 Y69.913 E87.70126
G0 F2100 X98.763 Y69.913
G1 F1200 X74.386 Y45.536 E89.13454
G0 F2100 X74.386 Y44.97
G1 F1200 X99.329 Y69.913 E90.60109
G0 F2100 X99.895 Y69.913
G1 F1200 X74.386 Y44.404 E92.10092
G0 F2100 X74.386 Y43.839
G1 F1200 X100.46 Y69.913 E93.63397
G0 F2100 X101.026 Y69.913
G1 F1200 X74.386 Y43.273 E95.2003
G0 F2100 X74.386 Y42.707
G1 F1200 X101.592 Y69.913 E96.79991
G0 F2100 X102.157 Y69.913
G1 F1200 X74.386 Y42.142 E98.43274
G0 F2100 X74.386 Y41.576
G1 F1200 X102.723 Y69.913 E100.09885
G0 F2100 X103.289 Y69.913
G1 F1200 X74.386 Y41.01 E101.79823
G0 F2100 X74.386 Y40.445
G1 F1200 X103.854 Y69.913 E103.53084
G0 F2100 X104.42 Y69.913
G1 F1200 X74.386 Y39.879 E105.29672
G0 F2100 X74.386 Y39.313
G1 F1200 X104.986 Y69.913 E107.09588
G0 F2100 X105.551 Y69.913
G1 F1200 X74.386 Y38.748 E108.92827
G0 F2100 X74.386 Y38.182
G1 F1200 X106.117 Y69.913 E110.79393
G0 F2100 X106.683 Y69.913
G1 F1200 X74.386 Y37.616 E112.69287
G0 F2100 X74.386 Y37.05
G1 F1200 X107.249 Y69.913 E114.62509
G0 F2100 X107.814 Y69.913
G1 F1200 X74.386 Y36.485 E116.59052
G0 F2100 X74.386 Y35.919
G1 F1200 X108.38 Y69.913 E118.58924
G0 F2100 X108.946 Y69.913
G1 F1200 X74.386 Y35.353 E120.62124
G0 F2100 X74.386 Y34.788
G1 F1200 X109.511 Y69.913 E122.68645
G0 F2100 X110.077 Y69.913
G1 F1200 X74.386 Y34.222 E124.78495
G0 F2100 X74.386 Y33.656
G1 F1200 X110.643 Y69.913 E126.91672
G0 F2100 X111.208 Y69.913
G1 F1200 X74.386 Y33.091 E129.08171
G0 F2100 X74.386 Y32.525
G1 F1200 X111.774 Y69.913 E131.27998
G0 F2100 X112.34 Y69.913
G1 F1200 X74.386 Y31.959 E133.51153
G0 F2100 X74.386 Y31.394
G1 F1200 X112.905 Y69.913 E135.7763
G0 F2100 X113.471 Y69.913
G1 F1200 X74.386 Y30.828 E138.07435
G0 F2100 X74.386 Y30.262
G1 F1200 X114.037 Y69.913 E140.40568
G0 F2100 X114.602 Y69.913
G1 F1200 X74.386 Y29.697 E142.77022
G0 F2100 X74.386 Y29.131
G1 F1200 X115.168 Y69.913 E145.16805
G0 F2100 X115.734 Y69.913
G1 F1200 X74.386 Y28.565 E147.59915
G0 F2100 X74.386 Y28
G1 F1200 X116.299 Y69.913 E150.06348
G0 F2100 X116.865 Y69.913
G1 F1200 X74.386 Y27.434 E152.56108
G0 F2100 X74.386 Y26.868
G1 F1200 X117.431 Y69.913 E155.09196
G0 F2100 X117.996 Y69.913
G1 F1200 X74.386 Y26.302 E157.65609
G0 F2100 X74.386 Y25.737
G1 F1200 X118.562 Y69.913 E160.25347
G0 F2100 X119.127 Y69.913
G1 F1200 X74.386 Y25.171 E162.8841
G0 F2100 X74.867 Y25.086
G1 F1200 X119.693 Y69.913 E165.51972
G0 F2100 X120.259 Y69.913
G1 F1200 X75.432 Y25.086 E168.15538
G0 F2100 X75.998 Y25.086
G1 F1200 X120.824 Y69.913 E170.79101
G0 F2100 X121.39 Y69.913
G1 F1200 X76.564 Y25.086 E173.42663
G0 F2100 X77.129 Y25.086
G1 F1200 X121.956 Y69.913 E176.06229
G0 F2100 X122.521 Y69.913
G1 F1200 X77.695 Y25.086 E178.69791
G0 F2100 X78.261 Y25.086
G1 F1200 X123.087 Y69.913 E181.33354
G0 F2100 X123.653 Y69.913
G1 F1200 X78.826 Y25.086 E183.9692
G0 F2100 X79.392 Y25.086
G1 F1200 X124.218 Y69.913 E186.60482
G0 F2100 X124.784 Y69.913
G1 F1200 X79.958 Y25.086 E189.24045
G0 F2100 X80.523 Y25.086
G1 F1200 X125.35 Y69.913 E191.87611
G0 F2100 X125.915 Y69.913
G1 F1200 X81.089 Y25.086 E194.51173
G0 F2100 X81.655 Y25.086
G1 F1200 X126.481 Y69.913 E197.14736
G0 F2100 X127.047 Y69.913
G1 F1200 X82.22 Y25.086 E199.78301
G0 F2100 X82.786 Y25.086
G1 F1200 X107.529 Y49.829 E201.23781
G0 F2100 X107.57 Y49.87
G1 F1200 X127.612 Y69.913 E202.41623
G0 F2100 X128.178 Y69.913
G1 F1200 X108.135 Y49.87 E203.59468
G0 F2100 X108.701 Y49.87
G1 F1200 X128.744 Y69.913 E204.77313
G0 F2100 X129.31 Y69.913
G1 F1200 X109.267 Y49.87 E205.95158
G0 F2100 X109.832 Y49.87
G1 F1200 X129.875 Y69.913 E207.13004
G0 F2100 X130.441 Y69.913
G1 F1200 X110.398 Y49.87 E208.30849
G0 F2100 X110.964 Y49.87
G1 F1200 X131.007 Y69.913 E209.48694
G0 F2100 X131.572 Y69.913
G1 F1200 X111.529 Y49.87 E210.66539
G0 F2100 X112.095 Y49.87
G1 F1200 X132.138 Y69.913 E211.84384
G0 F2100 X132.704 Y69.913
G1 F1200 X112.661 Y49.87 E213.02229
G0 F2100 X113.226 Y49.87
G1 F1200 X133.269 Y69.913 E214.20075
G0 F2100 X133.835 Y69.913
G1 F1200 X113.792 Y49.87 E215.3792
G0 F2100 X114.358 Y49.87
G1 F1200 X134.401 Y69.913 E216.55765
G0 F2100 X134.966 Y69.913
G1 F1200 X114.923 Y49.87 E217.7361
G0 F2100 X115.489 Y49.87
G1 F1200 X135.532 Y69.913 E218.91455
G0 F2100 X136.098 Y69.913
G1 F1200 X116.055 Y49.87 E220.093
G0 F2100 X116.621 Y49.87
G1 F1200 X136.663 Y69.913 E221.27143
G0 F2100 X137.229 Y69.913
G1 F1200 X117.186 Y49.87 E222.44988
G0 F2100 X117.752 Y49.87
G1 F1200 X137.795 Y69.913 E223.62833
G0 F2100 X138.36 Y69.913
G1 F1200 X118.318 Y49.87 E224.80675
G0 F2100 X118.883 Y49.87
G1 F1200 X138.926 Y69.913 E225.9852
G0 F2100 X139.492 Y69.913
G1 F1200 X119.449 Y49.87 E227.16365
G0 F2100 X120.015 Y49.87
G1 F1200 X140.058 Y69.913 E228.34211
G0 F2100 X140.623 Y69.913
G1 F1200 X120.58 Y49.87 E229.52056
G0 F2100 X121.146 Y49.87
G1 F1200 X141.189 Y69.913 E230.69901
G0 F2100 X141.755 Y69.913
G1 F1200 X121.712 Y49.87 E231.87746
G0 F2100 X122.277 Y49.87
G1 F1200 X142.32 Y69.913 E233.05591
G0 F2100 X142.886 Y69.913
G1 F1200 X122.843 Y49.87 E234.23436
G0 F2100 X123.409 Y49.87
G1 F1200 X143.452 Y69.913 E235.41282
G0 F2100 X144.017 Y69.913
G1 F1200 X123.974 Y49.87 E236.59127
G0 F2100 X124.54 Y49.87
G1 F1200 X144.583 Y69.913 E237.76972
G0 F2100 X145.149 Y69.913
G1 F1200 X125.106 Y49.87 E238.94817
G0 F2100 X125.671 Y49.87
G1 F1200 X145.714 Y69.913 E240.12662
G0 F2100 X146.28 Y69.913
G1 F1200 X126.237 Y49.87 E241.30507
G0 F2100 X126.803 Y49.87
G1 F1200 X146.846 Y69.913 E242.48353
G0 F2100 X147.411 Y69.913
G1 F1200 X127.369 Y49.87 E243.66195
G0 F2100 X127.934 Y49.87
G1 F1200 X147.977 Y69.913 E244.8404
G0 F2100 X148.543 Y69.913
G1 F1200 X128.5 Y49.87 E246.01885
G0 F2100 X129.066 Y49.87
G1 F1200 X149.109 Y69.913 E247.1973
G0 F2100 X149.674 Y69.913
G1 F1200 X129.631 Y49.87 E248.37575
G0 F2100 X130.197 Y49.87
G1 F1200 X150.24 Y69.913 E249.55421
G0 F2100 X150.806 Y69.913
G1 F1200 X130.763 Y49.87 E250.73266
G0 F2100 X131.328 Y49.87
G1 F1200 X151.371 Y69.913 E251.91111
G0 F2100 X151.937 Y69.913
G1 F1200 X131.894 Y49.87 E253.08956
G0 F2100 X132.46 Y49.87
G1 F1200 X152.503 Y69.913 E254.26801
G0 F2100 X153.068 Y69.913
G1 F1200 X133.025 Y49.87 E255.44646
G0 F2100 X133.591 Y49.87
G1 F1200 X153.634 Y69.913 E256.62491
G0 F2100 X154.2 Y69.913
G1 F1200 X134.157 Y49.87 E257.80337
G0 F2100 X134.722 Y49.87
G1 F1200 X154.765 Y69.913 E258.98182
G0 F2100 X155.331 Y69.913
G1 F1200 X135.288 Y49.87 E260.16027
G0 F2100 X135.854 Y49.87
G1 F1200 X155.897 Y69.913 E261.33872
G0 F2100 X156.462 Y69.913
G1 F1200 X136.419 Y49.87 E262.51717
G0 F2100 X136.985 Y49.87
G1 F1200 X157.028 Y69.913 E263.69562
G0 F2100 X157.594 Y69.913
G1 F1200 X137.551 Y49.87 E264.87408
G0 F2100 X138.117 Y49.87
G1 F1200 X158.159 Y69.913 E266.0525
G0 F2100 X158.725 Y69.913
G1 F1200 X138.682 Y49.87 E267.23095
G0 F2100 X139.248 Y49.87
G1 F1200 X159.291 Y69.913 E268.4094
G0 F2100 X159.857 Y69.913
G1 F1200 X139.269 Y49.325 E269.6199
G0 F2100 X139.269 Y48.759
G1 F1200 X160.422 Y69.913 E270.86364
G0 F2100 X160.611 Y69.536
G1 F1200 X139.269 Y48.194 E272.11847
G0 F2100 X139.269 Y47.628
G1 F1200 X160.611 Y68.97 E273.3733
G0 F2100 X160.611 Y68.404
G1 F1200 X139.269 Y47.062 E274.62813
G0 F2100 X139.269 Y46.497
G1 F1200 X160.611 Y67.839 E275.88295
G0 F2100 X160.611 Y67.273
G1 F1200 X139.269 Y45.931 E277.13778
G0 F2100 X139.269 Y45.365
G1 F1200 X160.611 Y66.707 E278.39261
G0 F2100 X160.611 Y66.142
G1 F1200 X139.269 Y44.8 E279.64744
G0 F2100 X139.269 Y44.234
G1 F1200 X160.611 Y65.576 E280.90226
G0 F2100 X160.611 Y65.01
G1 F1200 X139.269 Y43.668 E282.15709
G0 F2100 X139.269 Y43.103
G1 F1200 X160.611 Y64.445 E283.41192
G0 F2100 X160.611 Y63.879
G1 F1200 X139.269 Y42.537 E284.66675
G0 F2100 X139.269 Y41.971
G1 F1200 X160.611 Y63.313 E285.92158
G0 F2100 X160.611 Y62.747
G1 F1200 X139.269 Y41.406 E287.17637
G0 F2100 X139.269 Y40.84
G1 F1200 X160.611 Y62.182 E288.4312
G0 F2100 X160.611 Y61.616
G1 F1200 X139.269 Y40.274 E289.68603
G0 F2100 X139.269 Y39.708
G1 F1200 X160.611 Y61.05 E290.94086
G0 F2100 X160.611 Y60.485
G1 F1200 X139.269 Y39.143 E292.19569
G0 F2100 X139.269 Y38.577
G1 F1200 X160.611 Y59.919 E293.45051
G0 F2100 X160.611 Y59.353
G1 F1200 X139.269 Y38.011 E294.70534
G0 F2100 X139.269 Y37.446
G1 F1200 X160.611 Y58.788 E295.96017
G0 F2100 X160.611 Y58.222
G1 F1200 X139.269 Y36.88 E297.215
G0 F2100 X139.269 Y36.314
G1 F1200 X160.611 Y57.656 E298.46982
G0 F2100 X160.611 Y57.091
G1 F1200 X139.269 Y35.749 E299.72465
G0 F2100 X139.269 Y35.183
G1 F1200 X160.611 Y56.525 E300.97948
G0 F2100 X160.611 Y55.959
G1 F1200 X139.269 Y34.617 E302.23431
G0 F2100 X139.269 Y34.052
G1 F1200 X160.611 Y55.394 E303.48914
G0 F2100 X160.612 Y54.829
G1 F1200 X139.269 Y33.486 E304.74402
G0 F2100 X139.269 Y32.92
G1 F1200 X160.612 Y54.263 E305.99891
G0 F2100 X160.612 Y53.697
G1 F1200 X139.269 Y32.355 E307.25377
G0 F2100 X139.269 Y31.789
G1 F1200 X160.612 Y53.132 E308.50865
G0 F2100 X160.612 Y52.566
G1 F1200 X139.269 Y31.223 E309.76354
G0 F2100 X139.269 Y30.658
G1 F1200 X160.612 Y52 E311.0184
G0 F2100 X160.612 Y51.434
G1 F1200 X134.264 Y25.086 E312.56756
G0 F2100 X134.829 Y25.086
G1 F1200 X160.612 Y50.869 E314.0835
G0 F2100 X160.612 Y50.303
G1 F1200 X135.395 Y25.086 E315.56616
G0 F2100 X135.961 Y25.086
G1 F1200 X160.612 Y49.737 E317.01555
G0 F2100 X160.612 Y49.172
G1 F1200 X136.526 Y25.086 E318.43171
G0 F2100 X137.092 Y25.086
G1 F1200 X160.612 Y48.606 E319.8146
G0 F2100 X160.612 Y48.04
G1 F1200 X137.658 Y25.086 E321.1642
G0 F2100 X138.223 Y25.086
