;FLAVOR:Marlin
;TIME:5117
;Filament used: 2.53386m
;Layer height: 0.15
;MINX:114.3
;MINY:14.3
;MINZ:0.25
;MAXX:200.7
;MAXY:60.7
;MAXZ:10.9
;Generated with Cura_SteamEngine 4.8
M140 S100
M105
M190 S100
M104 S250
M105
M109 S250
M82 ;absolute extrusion mode
G28 ;home
G92 E0 ;Reset Extruder
G1 Z4.0 F3000 ;Move Z Axis up
G1 X1.1 Y20 Z0.28 F5000.0 ;Move to start position
G1 X1.1 Y200.0 Z0.28 F1500.0 E15 ;Draw the first line
G1 X1.4 Y200.0 Z0.28 F5000.0 ;Move to side a little
G1 X1.4 Y20 Z0.28 F1500.0 E30 ;Draw the second line
G92 E0 ;Reset Extruder
G1 Z2.0 F3000 ;Move Z Axis up
G92 E0
G92 E0
G1 F4200 E-5
;LAYER_COUNT:72
;LAYER:0
M107
G0 F2100 X114.358 Y16.958 Z0.25
;TYPE:SKIRT
G1 F4200 E0
G1 F1500 X114.484 Y16.468 E0.0161
G1 X114.686 Y16.004 E0.03221
G1 X114.958 Y15.578 E0.0483
G1 X115.294 Y15.201 E0.06438
G1 X115.685 Y14.88 E0.08048
G1 X116.122 Y14.626 E0.09657
G1 X116.593 Y14.443 E0.11265
G1 X117.088 Y14.337 E0.12877
G1 X117.74 Y14.301 E0.14955
G1 X196.839 Y14.3 E2.66735
G1 X197.537 Y14.31 E2.68957
G1 X198.04 Y14.357 E2.70565
G1 X198.53 Y14.483 E2.72176
G1 X198.994 Y14.685 E2.73786
G1 X199.42 Y14.957 E2.75395
G1 X199.798 Y15.292 E2.77003
G1 X200.118 Y15.683 E2.78611
G1 X200.373 Y16.12 E2.80222
G1 X200.556 Y16.591 E2.8183
G1 X200.663 Y17.085 E2.83439
G1 X200.699 Y17.74 E2.85527
G1 X200.7 Y56.804 E4.09872
G1 X200.691 Y57.531 E4.12186
G1 X200.645 Y58.034 E4.13794
G1 X200.52 Y58.524 E4.15404
G1 X200.319 Y58.988 E4.17013
G1 X200.048 Y59.415 E4.18623
G1 X199.713 Y59.794 E4.20233
G1 X199.323 Y60.115 E4.21841
G1 X198.887 Y60.371 E4.2345
G1 X198.416 Y60.554 E4.25059
G1 X197.922 Y60.662 E4.26668
G1 X197.26 Y60.699 E4.28779
G1 X118.173 Y60.7 E6.80521
G1 X117.474 Y60.69 E6.82746
G1 X116.971 Y60.643 E6.84354
G1 X116.481 Y60.517 E6.85964
G1 X116.017 Y60.315 E6.87575
G1 X115.591 Y60.043 E6.89184
G1 X115.213 Y59.708 E6.90792
G1 X114.893 Y59.317 E6.924
G1 X114.638 Y58.88 E6.9401
G1 X114.455 Y58.409 E6.95619
G1 X114.346 Y57.901 E6.97273
G1 X114.303 Y57.287 E6.99232
G1 X114.3 Y56.934 E7.00356
G1 X114.3 Y18.126 E8.23885
G1 X114.31 Y17.461 E8.26002
G1 X114.358 Y16.958 E8.27611
G1 F4200 E3.27611
;MESH:suporte18650-Body.stl
G0 F2100 X116.835 Y17.814
G0 X117.814 Y17.814
G0 X118.1 Y18.1
;TYPE:WALL-INNER
G1 F4200 E8.27611
G1 F1200 X124.223 Y18.1 E8.47101
G1 X124.224 Y18.1 E8.47104
G1 X125.566 Y18.1 E8.51376
G1 X124.281 Y18.49 E8.53536
G1 X123.821 Y18.63 E8.55067
G1 X122.163 Y19.518 E8.61053
G1 X120.709 Y20.711 E8.6704
G1 X119.516 Y22.165 E8.73027
G1 X118.628 Y23.825 E8.79019
G1 X118.49 Y24.28 E8.80533
G1 X118.1 Y25.568 E8.84817
G1 X118.1 Y24.223 E8.8698
G1 X118.1 Y24.222 E8.86983
G1 X118.1 Y18.1 E9.0647
G0 F2100 X118.1 Y29.434
G1 F1200 X118.49 Y30.719 E9.10745
G1 X118.63 Y31.179 E9.12275
G1 X119.518 Y32.837 E9.18262
G1 X120.711 Y34.291 E9.24249
G1 X122.165 Y35.484 E9.30236
G1 X123.825 Y36.372 E9.36228
G1 X125.627 Y36.918 E9.42222
G1 X127.504 Y37.103 E9.48225
G1 X129.378 Y36.917 E9.5422
G1 X131.179 Y36.37 E9.60211
G1 X132.837 Y35.482 E9.66198
G1 X134.291 Y34.289 E9.72185
G1 X135.484 Y32.835 E9.78171
G1 X136.372 Y31.175 E9.84164
G1 X136.918 Y29.373 E9.90157
G1 X137.103 Y27.496 E9.96161
G1 X136.917 Y25.622 E10.02155
G1 X136.37 Y23.821 E10.08147
G1 X135.482 Y22.163 E10.14134
G1 X134.289 Y20.709 E10.2012
G1 X132.835 Y19.516 E10.26107
G1 X131.175 Y18.628 E10.321
G1 X130.72 Y18.49 E10.33613
G1 X129.432 Y18.1 E10.37897
G1 X130.777 Y18.1 E10.4006
G1 X130.778 Y18.1 E10.40064
G1 X144.223 Y18.1 E10.8286
G1 X144.224 Y18.1 E10.82863
G1 X145.566 Y18.1 E10.87135
G1 X144.281 Y18.49 E10.89296
G1 X143.821 Y18.63 E10.90826
G1 X142.163 Y19.518 E10.96813
G1 X140.709 Y20.711 E11.028
G1 X139.516 Y22.165 E11.08786
G1 X138.628 Y23.825 E11.14779
G1 X138.082 Y25.627 E11.20772
G1 X137.897 Y27.504 E11.26776
G1 X138.083 Y29.378 E11.3277
G1 X138.63 Y31.179 E11.38762
G1 X139.518 Y32.837 E11.44749
G1 X140.711 Y34.291 E11.50735
G1 X142.165 Y35.484 E11.56722
G1 X143.825 Y36.372 E11.62715
G1 X145.627 Y36.918 E11.68708
G1 X147.504 Y37.103 E11.74712
G1 X149.378 Y36.917 E11.80706
G1 X151.179 Y36.37 E11.86697
G1 X152.837 Y35.482 E11.92684
G1 X154.291 Y34.289 E11.98671
G1 X155.484 Y32.835 E12.04658
G1 X156.372 Y31.175 E12.1065
G1 X156.918 Y29.374 E12.16641
G1 X157.105 Y27.492 E12.22661
G1 X156.917 Y25.622 E12.28643
G1 X156.37 Y23.821 E12.34634
G1 X155.482 Y22.163 E12.40621
G1 X154.289 Y20.709 E12.46608
G1 X152.835 Y19.516 E12.52595
G1 X151.175 Y18.628 E12.58587
G1 X150.72 Y18.49 E12.60101
G1 X149.432 Y18.1 E12.64384
G1 X150.777 Y18.1 E12.66548
G1 X150.778 Y18.1 E12.66551
G1 X164.223 Y18.1 E13.09348
G1 X164.224 Y18.1 E13.09351
G1 X165.566 Y18.1 E13.13623
G1 X164.281 Y18.49 E13.15783
G1 X163.821 Y18.63 E13.17314
G1 X162.163 Y19.518 E13.23301
G1 X160.709 Y20.711 E13.29287
G1 X159.516 Y22.165 E13.35274
G1 X158.628 Y23.825 E13.41267
G1 X158.082 Y25.627 E13.4726
G1 X157.897 Y27.504 E13.53264
G1 X158.083 Y29.378 E13.59258
G1 X158.63 Y31.179 E13.65249
G1 X159.518 Y32.837 E13.71236
G1 X160.711 Y34.291 E13.77223
G1 X162.165 Y35.484 E13.8321
G1 X163.825 Y36.372 E13.89202
G1 X165.627 Y36.918 E13.95196
G1 X167.504 Y37.103 E14.01199
G1 X169.378 Y36.917 E14.07194
G1 X171.179 Y36.37 E14.13185
G1 X172.837 Y35.482 E14.19172
G1 X174.291 Y34.289 E14.25159
G1 X175.484 Y32.835 E14.31145
G1 X176.372 Y31.175 E14.37138
G1 X176.918 Y29.374 E14.43128
G1 X177.105 Y27.492 E14.49148
G1 X176.917 Y25.622 E14.55131
G1 X176.37 Y23.821 E14.61122
G1 X175.482 Y22.163 E14.67109
G1 X174.289 Y20.709 E14.73096
G1 X172.835 Y19.516 E14.79083
G1 X171.175 Y18.628 E14.85075
G1 X170.72 Y18.49 E14.86588
G1 X169.432 Y18.1 E14.90872
G1 X170.777 Y18.1 E14.93036
G1 X170.778 Y18.1 E14.93039
G1 X184.223 Y18.1 E15.35836
G1 X184.224 Y18.1 E15.35839
G1 X185.566 Y18.1 E15.40111
G1 X184.281 Y18.49 E15.42271
G1 X183.821 Y18.63 E15.43802
G1 X182.163 Y19.518 E15.49788
G1 X180.709 Y20.711 E15.55775
G1 X179.516 Y22.165 E15.61762
G1 X178.628 Y23.825 E15.67754
G1 X178.082 Y25.627 E15.73748
G1 X177.897 Y27.504 E15.79751
G1 X178.083 Y29.378 E15.85746
G1 X178.63 Y31.179 E15.91737
G1 X179.518 Y32.837 E15.97724
G1 X180.711 Y34.291 E16.03711
G1 X182.165 Y35.484 E16.09698
G1 X183.825 Y36.372 E16.1569
G1 X185.627 Y36.918 E16.21684
G1 X187.504 Y37.103 E16.27687
G1 X189.378 Y36.917 E16.33682
G1 X191.179 Y36.37 E16.39673
G1 X192.837 Y35.482 E16.4566
G1 X194.291 Y34.289 E16.51647
G1 X195.484 Y32.835 E16.57633
G1 X196.372 Y31.175 E16.63626
G1 X196.51 Y30.72 E16.65139
G1 X196.9 Y29.433 E16.6942
G1 X196.9 Y30.777 E16.71582
G1 X196.9 Y30.778 E16.71585
G1 X196.9 Y44.223 E17.14382
G1 X196.9 Y44.224 E17.14385
G1 X196.9 Y45.566 E17.18657
G1 X196.51 Y44.281 E17.20817
G1 X196.37 Y43.821 E17.22348
G1 X195.482 Y42.163 E17.28334
G1 X194.289 Y40.709 E17.34321
G1 X192.835 Y39.516 E17.40308
G1 X191.175 Y38.628 E17.463
G1 X189.373 Y38.082 E17.52294
G1 X187.496 Y37.897 E17.58298
G1 X185.622 Y38.083 E17.64292
G1 X183.821 Y38.63 E17.70283
G1 X182.163 Y39.518 E17.7627
G1 X180.709 Y40.711 E17.82257
G1 X179.516 Y42.165 E17.88244
G1 X178.628 Y43.825 E17.94236
G1 X178.082 Y45.627 E18.0023
G1 X177.897 Y47.504 E18.06233
G1 X178.083 Y49.378 E18.12228
G1 X178.63 Y51.179 E18.18219
G1 X179.518 Y52.837 E18.24206
G1 X180.711 Y54.291 E18.30193
G1 X182.165 Y55.484 E18.36179
G1 X183.825 Y56.372 E18.42172
G1 X184.28 Y56.51 E18.43685
G1 X185.568 Y56.9 E18.47969
G1 X184.223 Y56.9 E18.50133
G1 X184.222 Y56.9 E18.50136
G1 X170.777 Y56.9 E18.92933
G1 X170.776 Y56.9 E18.92936
G1 X169.434 Y56.9 E18.97207
G1 X170.719 Y56.51 E18.99368
G1 X171.179 Y56.37 E19.00898
G1 X172.837 Y55.482 E19.06885
G1 X174.291 Y54.289 E19.12872
G1 X175.484 Y52.835 E19.18859
G1 X176.372 Y51.175 E19.24851
G1 X176.918 Y49.373 E19.30845
G1 X177.103 Y47.496 E19.36848
G1 X176.917 Y45.622 E19.42843
G1 X176.37 Y43.821 E19.48834
G1 X175.482 Y42.163 E19.54821
G1 X174.289 Y40.709 E19.60808
G1 X172.835 Y39.516 E19.66794
G1 X171.175 Y38.628 E19.72787
G1 X169.373 Y38.082 E19.7878
G1 X167.496 Y37.897 E19.84784
G1 X165.622 Y38.083 E19.90778
G1 X163.821 Y38.63 E19.9677
G1 X162.163 Y39.518 E20.02757
G1 X160.709 Y40.711 E20.08743
G1 X159.516 Y42.165 E20.1473
G1 X158.628 Y43.825 E20.20722
G1 X158.082 Y45.627 E20.26716
G1 X157.897 Y47.504 E20.3272
G1 X158.083 Y49.378 E20.38714
G1 X158.63 Y51.179 E20.44705
G1 X159.518 Y52.837 E20.50692
G1 X160.711 Y54.291 E20.56679
G1 X162.165 Y55.484 E20.62666
G1 X163.825 Y56.372 E20.68658
G1 X164.28 Y56.51 E20.70172
G1 X165.568 Y56.9 E20.74455
G1 X164.223 Y56.9 E20.76619
G1 X164.222 Y56.9 E20.76622
G1 X150.777 Y56.9 E21.19419
G1 X150.776 Y56.9 E21.19422
G1 X149.434 Y56.9 E21.23694
G1 X150.719 Y56.51 E21.25854
G1 X151.179 Y56.37 E21.27385
G1 X152.837 Y55.482 E21.33372
G1 X154.291 Y54.289 E21.39358
G1 X155.484 Y52.835 E21.45345
G1 X156.372 Y51.175 E21.51337
G1 X156.918 Y49.373 E21.57331
G1 X157.103 Y47.496 E21.63335
G1 X156.917 Y45.622 E21.69329
G1 X156.37 Y43.821 E21.7532
G1 X155.482 Y42.163 E21.81307
G1 X154.289 Y40.709 E21.87294
G1 X152.835 Y39.516 E21.93281
G1 X151.175 Y38.628 E21.99273
G1 X149.373 Y38.082 E22.05267
G1 X147.496 Y37.897 E22.1127
G1 X145.622 Y38.083 E22.17265
G1 X143.821 Y38.63 E22.23256
G1 X142.163 Y39.518 E22.29243
G1 X140.709 Y40.711 E22.3523
G1 X139.516 Y42.165 E22.41216
G1 X138.628 Y43.825 E22.47209
G1 X138.082 Y45.627 E22.53202
G1 X137.897 Y47.504 E22.59206
G1 X138.083 Y49.378 E22.652
G1 X138.63 Y51.179 E22.71192
G1 X139.518 Y52.837 E22.77179
G1 X140.711 Y54.291 E22.83165
G1 X142.165 Y55.484 E22.89152
G1 X143.825 Y56.372 E22.95144
G1 X144.28 Y56.51 E22.96658
G1 X145.568 Y56.9 E23.00942
G1 X144.223 Y56.9 E23.03105
G1 X144.222 Y56.9 E23.03109
G1 X130.777 Y56.9 E23.45905
G1 X130.776 Y56.9 E23.45908
G1 X129.434 Y56.9 E23.5018
G1 X130.719 Y56.51 E23.52341
G1 X131.179 Y56.37 E23.53871
G1 X132.837 Y55.482 E23.59858
G1 X134.291 Y54.289 E23.65845
G1 X135.484 Y52.835 E23.71831
G1 X136.372 Y51.175 E23.77824
G1 X136.918 Y49.373 E23.83817
G1 X137.103 Y47.496 E23.89821
G1 X136.917 Y45.622 E23.95815
G1 X136.37 Y43.821 E24.01807
G1 X135.482 Y42.163 E24.07794
G1 X134.289 Y40.709 E24.1378
G1 X132.835 Y39.516 E24.19767
G1 X131.175 Y38.628 E24.2576
G1 X129.373 Y38.082 E24.31753
G1 X127.496 Y37.897 E24.37757
G1 X125.622 Y38.083 E24.43751
G1 X123.821 Y38.63 E24.49742
G1 X122.163 Y39.518 E24.55729
G1 X120.709 Y40.711 E24.61716
G1 X119.516 Y42.165 E24.67703
G1 X118.628 Y43.825 E24.73695
G1 X118.49 Y44.28 E24.75209
G1 X118.1 Y45.568 E24.79492
G1 X118.1 Y44.223 E24.81656
G1 X118.1 Y44.222 E24.81659
G1 X118.1 Y30.777 E25.24456
G1 X118.1 Y30.776 E25.24459
G1 X118.1 Y29.434 E25.26618
G0 F2100 X118.1 Y49.434
G1 F1200 X118.49 Y50.719 E25.30893
G1 X118.63 Y51.179 E25.32423
G1 X119.518 Y52.837 E25.3841
G1 X120.711 Y54.291 E25.44397
G1 X122.165 Y55.484 E25.50383
G1 X123.825 Y56.372 E25.56376
G1 X124.28 Y56.51 E25.57889
G1 X125.568 Y56.9 E25.62173
G1 X124.223 Y56.9 E25.64337
G1 X124.222 Y56.9 E25.6434
G1 X118.1 Y56.9 E25.83827
G1 X118.1 Y50.777 E26.03317
G1 X118.1 Y50.776 E26.0332
G1 X118.1 Y49.434 E26.05479
G0 F2100 X118.872 Y51.079
G0 X119.735 Y52.692
G0 X120.896 Y54.106
G0 X122.31 Y55.267
G0 X123.926 Y56.13
G0 X125.678 Y56.662
G0 X127.156 Y56.806
G0 X189.434 Y56.9
G1 F1200 X190.719 Y56.51 E26.09754
G1 X191.179 Y56.37 E26.11284
G1 X192.837 Y55.482 E26.17271
G1 X194.291 Y54.289 E26.23258
G1 X195.484 Y52.835 E26.29245
G1 X196.372 Y51.175 E26.35237
G1 X196.51 Y50.72 E26.3675
G1 X196.9 Y49.432 E26.41034
G1 X196.9 Y50.777 E26.43198
G1 X196.9 Y50.778 E26.43201
G1 X196.9 Y56.9 E26.62688
G1 X190.777 Y56.9 E26.82178
G1 X190.776 Y56.9 E26.82181
G1 X189.434 Y56.9 E26.8434
G0 F2100 X191.079 Y56.128
G0 X192.692 Y55.265
G0 X194.106 Y54.104
G0 X195.267 Y52.69
G0 X196.13 Y51.074
G0 X196.662 Y49.322
G0 X196.841 Y47.496
G0 X196.843 Y27.492
G0 X196.661 Y25.674
G0 X196.128 Y23.921
G0 X195.265 Y22.308
G0 X194.104 Y20.894
G0 X192.69 Y19.733
G0 X191.775 Y19.245
G0 X189.432 Y18.1
G1 F1200 X190.777 Y18.1 E26.88621
G1 X190.778 Y18.1 E26.88625
G1 X196.9 Y18.1 E27.08112
G1 X196.9 Y24.223 E27.27602
G1 X196.9 Y24.224 E27.27605
G1 X196.9 Y25.566 E27.31877
G1 X196.51 Y24.281 E27.34037
G1 X196.37 Y23.821 E27.35567
G1 X195.482 Y22.163 E27.41554
G1 X194.289 Y20.709 E27.47541
G1 X192.835 Y19.516 E27.53528
G1 X191.175 Y18.628 E27.5952
G1 X190.72 Y18.49 E27.61034
G1 X189.432 Y18.1 E27.63199
G0 F2100 X167.496 Y18.159
G0 X150.811 Y18.305
G0 X155.624 Y22.068
G0 X157.241 Y27.868
G0 X156.13 Y31.074
G0 X155.267 Y32.69
G0 X154.106 Y34.104
G0 X152.692 Y35.265
G0 X151.079 Y36.128
G0 X149.326 Y36.661
G0 X147.504 Y36.841
G0 X145.678 Y36.662
G0 X143.926 Y36.13
G0 X142.31 Y35.267
G0 X139.376 Y32.932
G0 X137.726 Y27.504
G0 X139.374 Y22.07
G0 X144.191 Y18.305
G0 X130.811 Y18.305
G0 X135.624 Y22.068
G0 X137.274 Y27.496
G0 X135.626 Y32.93
G0 X133.724 Y35.004
G0 X131.079 Y36.128
G0 X129.502 Y36.607
G0 X127.485 Y36.899
G0 X127.504 Y36.701
;TYPE:WALL-OUTER
G1 F1200 X129.299 Y36.523 E27.6894
G1 X131.025 Y35.999 E27.74682
G1 X132.614 Y35.148 E27.8042
G1 X134.007 Y34.005 E27.86155
G1 X135.15 Y32.612 E27.91891
G1 X136.001 Y31.021 E27.97634
G1 X136.524 Y29.295 E28.03375
G1 X136.701 Y27.496 E28.09129
G1 X136.523 Y25.701 E28.14871
G1 X135.999 Y23.975 E28.20612
G1 X135.148 Y22.386 E28.2635
G1 X134.005 Y20.993 E28.32086
G1 X132.612 Y19.85 E28.37821
G1 X131.021 Y18.999 E28.43565
G1 X129.295 Y18.476 E28.49305
G1 X127.496 Y18.299 E28.55059
G1 X125.701 Y18.477 E28.60801
G1 X123.975 Y19.001 E28.66543
G1 X122.386 Y19.852 E28.7228
G1 X120.993 Y20.995 E28.78016
G1 X119.85 Y22.388 E28.83752
G1 X118.999 Y23.979 E28.89495
G1 X118.476 Y25.705 E28.95236
G1 X118.299 Y27.504 E29.0099
G1 X118.477 Y29.299 E29.06731
G1 X119.001 Y31.025 E29.12473
G1 X119.852 Y32.614 E29.18211
G1 X120.995 Y34.007 E29.23946
G1 X122.388 Y35.15 E29.29682
G1 X123.979 Y36.001 E29.35425
G1 X125.705 Y36.524 E29.41166
G1 X127.504 Y36.701 E29.4692
G0 F2100 X127.703 Y36.682
G0 X127.745 Y37.12
G0 X132.932 Y35.624
G0 X136.531 Y31.241
G0 X137.085 Y25.588
G0 X134.41 Y20.588
G0 X130.811 Y18.305
G0 X144.191 Y18.305
G0 X139.374 Y22.07
G0 X137.726 Y27.504
G0 X139.376 Y32.932
G0 X142.925 Y35.847
G0 X145.686 Y36.722
G0 X145.705 Y36.524
G1 F1200 X147.504 Y36.701 E29.52674
G1 X149.299 Y36.523 E29.58416
G1 X151.025 Y35.999 E29.64157
G1 X152.614 Y35.148 E29.69895
G1 X154.007 Y34.005 E29.75631
G1 X155.15 Y32.612 E29.81366
G1 X156.001 Y31.021 E29.87109
G1 X156.524 Y29.295 E29.9285
G1 X156.703 Y27.492 E29.98618
G1 X156.523 Y25.701 E30.04347
G1 X155.999 Y23.975 E30.10089
G1 X155.148 Y22.386 E30.15826
G1 X154.005 Y20.993 E30.21562
G1 X152.612 Y19.85 E30.27298
G1 X151.021 Y18.999 E30.33041
G1 X149.295 Y18.476 E30.38782
G1 X147.496 Y18.299 E30.44536
G1 X145.701 Y18.477 E30.50278
G1 X143.975 Y19.001 E30.56019
G1 X142.386 Y19.852 E30.61757
G1 X140.993 Y20.995 E30.67492
G1 X139.85 Y22.388 E30.73228
G1 X138.999 Y23.979 E30.78971
G1 X138.476 Y25.705 E30.84712
G1 X138.299 Y27.504 E30.90466
G1 X138.477 Y29.299 E30.96208
G1 X139.001 Y31.025 E31.01949
G1 X139.852 Y32.614 E31.07687
G1 X140.995 Y34.007 E31.13423
G1 X142.388 Y35.15 E31.19158
G1 X143.979 Y36.001 E31.24902
G1 X145.705 Y36.524 E31.30642
G0 F2100 X145.904 Y36.543
G0 X145.86 Y36.981
G0 X151.245 Y36.529
G0 X155.626 Y32.93
G0 X157.276 Y27.492
G0 X155.624 Y22.068
G0 X150.811 Y18.305
G0 X164.191 Y18.305
G0 X159.374 Y22.07
G0 X157.726 Y27.504
G0 X159.376 Y32.932
G0 X162.925 Y35.847
G0 X165.686 Y36.722
G0 X165.705 Y36.524
G1 F1200 X167.504 Y36.701 E31.36396
G1 X169.299 Y36.523 E31.42138
G1 X171.025 Y35.999 E31.4788
G1 X172.614 Y35.148 E31.53617
G1 X174.007 Y34.005 E31.59353
G1 X175.15 Y32.612 E31.65089
G1 X176.001 Y31.021 E31.70832
G1 X176.524 Y29.295 E31.76573
G1 X176.703 Y27.492 E31.8234
G1 X176.523 Y25.701 E31.8807
G1 X175.999 Y23.975 E31.93811
G1 X175.148 Y22.386 E31.99549
G1 X174.005 Y20.993 E32.05285
G1 X172.612 Y19.85 E32.1102
G1 X171.021 Y18.999 E32.16764
G1 X169.295 Y18.476 E32.22504
G1 X167.496 Y18.299 E32.28258
G1 X165.701 Y18.477 E32.34
G1 X163.975 Y19.001 E32.39742
G1 X162.386 Y19.852 E32.45479
G1 X160.993 Y20.995 E32.51215
G1 X159.85 Y22.388 E32.56951
G1 X158.999 Y23.979 E32.62694
G1 X158.476 Y25.705 E32.68435
G1 X158.299 Y27.504 E32.74189
G1 X158.477 Y29.299 E32.7993
G1 X159.001 Y31.025 E32.85672
G1 X159.852 Y32.614 E32.9141
G1 X160.995 Y34.007 E32.97145
