;FLAVOR:Marlin
;TIME:5599
;Filament used: 3.92632m
;Layer height: 0.15
;MINX:72.071
;MINY:22.772
;MINZ:0.25
;MAXX:162.929
;MAXY:72.229
;MAXZ:10.9
;Generated with Cura_SteamEngine 4.8
M140 S60
M105
M190 S60
M104 S200
M105
M109 S200
M82 ;absolute extrusion mode
G28 ;home
G92 E0 ;Reset Extruder
G1 Z4.0 F3000 ;Move Z Axis up
G1 X1.1 Y20 Z0.28 F5000.0 ;Move to start position
G1 X1.1 Y200.0 Z0.28 F1500.0 E15 ;Draw the first line
G1 X1.4 Y200.0 Z0.28 F5000.0 ;Move to side a little
G1 X1.4 Y20 Z0.28 F1500.0 E30 ;Draw the second line
G92 E0 ;Reset Extruder
G1 Z2.0 F3000 ;Move Z Axis up
G92 E0
G92 E0
G1 F4200 E-5
;LAYER_COUNT:72
;LAYER:0
M107
G0 F2100 X72.289 Y25.17 Z0.25
;TYPE:SKIRT
G1 F4200 E0
G1 F1500 X72.358 Y24.987 E0.00813
G1 X72.573 Y24.53 E0.02913
G1 X72.857 Y24.112 E0.05014
G1 X73.204 Y23.744 E0.07117
G1 X73.605 Y23.435 E0.09221
G1 X74.113 Y23.153 E0.11637
G1 X74.578 Y22.955 E0.13738
G1 X75.069 Y22.833 E0.15842
G1 X75.536 Y22.79 E0.17791
G1 X76.521 Y22.772 E0.21887
G1 X158.743 Y22.772 E3.63727
G1 X159.451 Y22.783 E3.66671
G1 X159.954 Y22.831 E3.68771
G1 X160.53 Y22.989 E3.71254
G1 X160.713 Y23.058 E3.72068
G1 X161.17 Y23.273 E3.74167
G1 X161.588 Y23.557 E3.76268
G1 X161.956 Y23.904 E3.78371
G1 X162.265 Y24.305 E3.80476
G1 X162.546 Y24.81 E3.82879
G1 X162.744 Y25.276 E3.84984
G1 X162.866 Y25.766 E3.87083
G1 X162.909 Y26.234 E3.89037
G1 X162.928 Y27.264 E3.9332
G1 X162.927 Y31.006 E4.08877
G1 X162.911 Y32.127 E4.13538
G1 X162.9 Y33.555 E4.19475
G1 X162.9 Y39.578 E4.44516
G1 X162.918 Y40.842 E4.49772
G1 X162.926 Y41.964 E4.54437
G1 X162.927 Y52.674 E4.98964
G1 X162.91 Y53.883 E5.03991
G1 X162.9 Y55.274 E5.09774
G1 X162.9 Y61.279 E5.3474
G1 X162.918 Y62.573 E5.4012
G1 X162.926 Y63.676 E5.44706
G1 X162.929 Y67.997 E5.62671
G1 X162.917 Y68.751 E5.65806
G1 X162.869 Y69.254 E5.67907
G1 X162.713 Y69.824 E5.70363
G1 X162.644 Y70.008 E5.7118
G1 X162.43 Y70.465 E5.73278
G1 X162.146 Y70.884 E5.75383
G1 X161.8 Y71.252 E5.77483
G1 X161.4 Y71.562 E5.79587
G1 X160.887 Y71.847 E5.82027
G1 X160.422 Y72.045 E5.84128
G1 X159.931 Y72.167 E5.86231
G1 X159.464 Y72.21 E5.88181
G1 X158.479 Y72.228 E5.92277
G1 X76.262 Y72.229 E9.34095
G1 X75.558 Y72.219 E9.37023
G1 X75.054 Y72.172 E9.39127
G1 X74.466 Y72.01 E9.41663
G1 X74.274 Y71.937 E9.42517
G1 X73.817 Y71.721 E9.44618
G1 X73.4 Y71.435 E9.46721
G1 X73.033 Y71.087 E9.48823
G1 X72.725 Y70.686 E9.50926
G1 X72.449 Y70.184 E9.53307
G1 X72.253 Y69.718 E9.55409
G1 X72.132 Y69.227 E9.57511
G1 X72.092 Y68.775 E9.59398
G1 X72.072 Y67.715 E9.63806
G1 X72.073 Y63.985 E9.79313
G1 X72.089 Y62.873 E9.83937
G1 X72.1 Y61.445 E9.89874
G1 X72.1 Y55.422 E10.14915
G1 X72.082 Y54.158 E10.2017
G1 X72.074 Y53.036 E10.24835
G1 X72.073 Y42.315 E10.69408
G1 X72.09 Y41.117 E10.74389
G1 X72.1 Y39.726 E10.80172
G1 X72.1 Y33.721 E11.05138
G1 X72.082 Y32.427 E11.10519
G1 X72.074 Y31.324 E11.15105
G1 X72.071 Y26.945 E11.3331
G1 X72.083 Y26.244 E11.36225
G1 X72.132 Y25.741 E11.38326
G1 X72.289 Y25.17 E11.40788
G1 F4200 E6.40788
;MESH:suporte18650_novo-Body.stl
G0 F2100 X82.007 Y29.488
G0 X81.296 Y28.195
G0 X81.999 Y28.386
G0 X83.23 Y27.828
G0 X85.055 Y27.388
G0 X86.72 Y27.085
G0 X88.622 Y27.319
G0 X90.427 Y27.932
G0 X92.103 Y28.853
G0 X93.526 Y30.084
G0 X95.81 Y32.789
G0 X96.767 Y36.986
G0 X97.866 Y32.721
G0 X100.173 Y30.179
G0 X100.695 Y29.693
G0 X101.667 Y28.953
G0 X103.371 Y28.041
G0 X105.755 Y27.388
G0 X107.42 Y27.085
G0 X109.322 Y27.319
G0 X111.127 Y27.932
G0 X112.803 Y28.853
G0 X114.226 Y30.084
G0 X115.434 Y31.547
G0 X116.28 Y33.21
G0 X118.387 Y39.93
G0 X118.738 Y40.922
G0 X119.085 Y41.671
G0 X119.648 Y42.626
G0 X120.1 Y43.248
G0 X120.873 Y44.121
G0 X121.396 Y44.607
G0 X122.368 Y45.346
G0 X124.071 Y46.259
G0 X126.528 Y47.117
G0 X128.455 Y47.185
G0 X130.378 Y46.907
G0 X132.242 Y46.102
G0 X133.755 Y45.221
G0 X136.764 Y42.258
G0 X138.167 Y37.318
G0 X139.987 Y42.864
G0 X143.068 Y45.346
G0 X144.771 Y46.259
G0 X147.228 Y47.117
G0 X153.434 Y48.626
G0 X156.922 Y51.811
G0 X158.652 Y55.888
G0 X158.231 Y61.269
G0 X156.313 Y64.673
G0 X151.528 Y67.813
G0 X150.163 Y68.22
G0 X158.946 Y68.246
G0 X158.937 Y49.021
G0 X157.806 Y49.093
;TYPE:WALL-INNER
G1 F4200 E11.40788
G1 F1200 X158.19 Y49.094 E11.42385
G1 X158.571 Y49 E11.44016
G1 X158.778 Y48.891 E11.44989
G1 X158.912 Y48.821 E11.45618
G1 X159.127 Y48.631 E11.4681
G1 X159.127 Y48.821 E11.46938
G1 X159.127 Y48.973 E11.47446
G1 X159.127 Y53.088 E11.64554
G1 X159.1 Y53.113 E11.64707
G1 X159.1 Y63.95 E12.09762
G1 X159.126 Y63.95 E12.0987
G1 X159.129 Y67.494 E12.24604
G1 X159.128 Y68.428 E12.28488
G1 X150.043 Y68.428 E12.66259
G1 X149.396 Y68.428 E12.68949
G1 X149.381 Y68.428 E12.69011
G1 X148.986 Y68.428 E12.70653
G1 X147.008 Y68.428 E12.78877
G1 X146.98 Y68.428 E12.78993
G1 X129.343 Y68.428 E13.52319
G1 X128.696 Y68.428 E13.55009
G1 X128.681 Y68.428 E13.55072
G1 X128.286 Y68.428 E13.56714
G1 X126.309 Y68.428 E13.64933
G1 X126.28 Y68.428 E13.65054
G1 X108.643 Y68.428 E14.3838
G1 X107.996 Y68.428 E14.4107
G1 X107.981 Y68.428 E14.41132
G1 X107.586 Y68.428 E14.42774
G1 X105.609 Y68.428 E14.50994
G1 X105.581 Y68.428 E14.5111
G1 X87.943 Y68.428 E15.2444
G1 X87.296 Y68.428 E15.2713
G1 X87.281 Y68.428 E15.27193
G1 X86.886 Y68.428 E15.28835
G1 X84.909 Y68.428 E15.37054
G1 X84.881 Y68.428 E15.37171
G1 X76.071 Y68.429 E15.73798
G1 X75.872 Y68.429 E15.74626
G1 X75.872 Y68.23 E15.75161
G1 X75.873 Y63.95 E15.92955
G1 X75.9 Y63.95 E15.93068
G1 X75.9 Y58.358 E16.16316
G1 X75.9 Y58.313 E16.16503
G1 X75.9 Y57.207 E16.21102
G1 X75.9 Y57.187 E16.21185
G1 X75.9 Y52.75 E16.39632
G1 X75.874 Y52.75 E16.3974
G1 X75.874 Y48.97 E16.55455
G1 X75.874 Y48.822 E16.56071
G1 X75.874 Y48.63 E16.56869
G1 X76.092 Y48.822 E16.57409
G1 X76.223 Y48.89 E16.57903
G1 X76.437 Y49.001 E16.58906
G1 X76.809 Y49.094 E16.605
G1 X77.197 Y49.093 E16.62113
G1 X77.571 Y49 E16.63715
G1 X77.913 Y48.82 E16.65322
G1 X78.202 Y48.562 E16.66933
G1 X78.42 Y48.246 E16.68529
G1 X78.559 Y47.883 E16.70145
G1 X78.603 Y47.504 E16.71731
G1 X78.558 Y47.114 E16.73363
G1 X78.418 Y46.751 E16.74981
G1 X78.198 Y46.433 E16.76588
G1 X77.908 Y46.178 E16.78194
G1 X77.567 Y46 E16.79793
G1 X77.194 Y45.907 E16.81391
G1 X76.81 Y45.906 E16.82988
G1 X76.428 Y46.001 E16.84625
G1 X76.222 Y46.11 E16.85593
G1 X76.086 Y46.181 E16.86231
G1 X75.873 Y46.371 E16.87418
G1 X75.873 Y46.181 E16.87545
G1 X75.873 Y46.027 E16.88058
G1 X75.873 Y42.25 E17.03761
G1 X75.9 Y42.25 E17.03874
G1 X75.9 Y37.658 E17.22965
G1 X75.9 Y37.613 E17.23152
G1 X75.9 Y36.507 E17.2775
G1 X75.9 Y36.487 E17.27833
G1 X75.9 Y31.05 E17.50438
G1 X75.874 Y31.05 E17.50546
G1 X75.871 Y27.506 E17.6528
G1 X75.872 Y26.572 E17.69163
G1 X86.377 Y26.572 E18.12838
G1 X86.661 Y26.572 E18.14019
G1 X87.403 Y26.572 E18.17103
G1 X87.611 Y26.572 E18.17968
G1 X107.077 Y26.572 E18.98898
G1 X107.361 Y26.572 E19.00079
G1 X108.103 Y26.572 E19.03164
G1 X108.311 Y26.572 E19.04029
G1 X127.777 Y26.572 E19.84959
G1 X128.061 Y26.572 E19.8614
G1 X128.803 Y26.572 E19.89225
G1 X129.011 Y26.572 E19.90089
G1 X148.477 Y26.572 E20.7102
G1 X148.761 Y26.572 E20.722
G1 X149.503 Y26.572 E20.75285
G1 X149.711 Y26.572 E20.7615
G1 X158.929 Y26.572 E21.14474
G1 X159.128 Y26.572 E21.15301
G1 X159.128 Y26.771 E21.15837
G1 X159.127 Y31.05 E21.33627
G1 X159.1 Y31.05 E21.33739
G1 X159.1 Y42.25 E21.80303
G1 X159.126 Y42.25 E21.80411
G1 X159.126 Y46.029 E21.96122
G1 X159.126 Y46.177 E21.96738
G1 X159.126 Y46.369 E21.97536
G1 X158.908 Y46.177 E21.98076
G1 X158.777 Y46.11 E21.9857
G1 X158.562 Y45.999 E21.99576
G1 X158.191 Y45.906 E22.01166
G1 X157.802 Y45.907 E22.02783
G1 X157.427 Y46.002 E22.04391
G1 X157.087 Y46.181 E22.05989
G1 X156.797 Y46.438 E22.076
G1 X156.578 Y46.758 E22.09212
G1 X156.442 Y47.12 E22.1082
G1 X156.396 Y47.502 E22.12419
G1 X156.442 Y47.887 E22.14031
G1 X156.582 Y48.248 E22.15641
G1 X156.799 Y48.565 E22.17238
G1 X157.092 Y48.823 E22.18861
G1 X157.434 Y49 E22.20462
G1 X157.806 Y49.093 E22.22057
G0 F2100 X157.856 Y48.693
;TYPE:WALL-OUTER
G1 F1200 X158.142 Y48.694 E22.23246
G1 X158.428 Y48.623 E22.24471
G1 X158.683 Y48.489 E22.25668
G1 X158.9 Y48.297 E22.26873
G1 X159.063 Y48.059 E22.28072
G1 X159.128 Y47.889 E22.28829
G1 X159.167 Y47.787 E22.29283
G1 X159.2 Y47.503 E22.30472
G1 X159.166 Y47.211 E22.31694
G1 X159.128 Y47.111 E22.32139
G1 X159.062 Y46.939 E22.32905
G1 X158.899 Y46.702 E22.341
G1 X158.681 Y46.51 E22.35308
G1 X158.42 Y46.376 E22.36528
G1 X158.142 Y46.306 E22.3772
G1 X157.852 Y46.307 E22.38926
G1 X157.571 Y46.378 E22.40131
G1 X157.316 Y46.512 E22.41328
G1 X157.099 Y46.705 E22.42536
G1 X156.935 Y46.944 E22.43741
G1 X156.833 Y47.215 E22.44944
G1 X156.799 Y47.502 E22.46146
G1 X156.833 Y47.79 E22.47352
G1 X156.938 Y48.06 E22.48556
G1 X157.101 Y48.298 E22.49755
G1 X157.319 Y48.49 E22.50963
G1 X157.576 Y48.623 E22.52166
G1 X157.856 Y48.693 E22.53366
G0 F2100 X158.056 Y48.693
G0 X158.054 Y49.133
G0 X158.937 Y49.021
G0 X158.946 Y68.246
G0 X150.163 Y68.22
G0 X151.349 Y67.687
;TYPE:WALL-INNER
G1 F1200 X153.037 Y67.102 E22.60794
G1 X153.044 Y67.046 E22.61028
G1 X154.746 Y66.061 E22.69204
G1 X154.726 Y65.924 E22.6978
G1 X156.139 Y64.698 E22.77557
G1 X156.121 Y64.634 E22.77834
G1 X157.337 Y63.085 E22.86021
G1 X157.26 Y62.969 E22.866
G1 X158.086 Y61.365 E22.94101
G1 X158.042 Y61.297 E22.94437
G1 X158.492 Y59.766 E23.01072
G1 X158.675 Y57.849 E23.09078
G1 X158.483 Y55.912 E23.17171
G1 X158.368 Y55.257 E23.19935
G1 X157.884 Y53.664 E23.26857
G1 X157.782 Y53.653 E23.27284
G1 X157.562 Y53.045 E23.29972
G1 X156.998 Y51.991 E23.34942
G1 X156.818 Y51.98 E23.35692
G1 X156.477 Y51.405 E23.38471
G1 X155.752 Y50.522 E23.43221
G1 X155.549 Y50.52 E23.44065
G1 X155.371 Y50.326 E23.4516
G1 X154.981 Y49.851 E23.47715
G1 X154.284 Y49.279 E23.51463
G1 X154.007 Y49.31 E23.52622
G1 X153.791 Y49.151 E23.53737
G1 X153.337 Y48.768 E23.56207
G1 X152.565 Y48.354 E23.59849
G1 X152.265 Y48.422 E23.61128
G1 X151.601 Y48.07 E23.64252
G1 X151.451 Y47.965 E23.65013
G1 X150.705 Y47.738 E23.68255
G1 X150.381 Y47.881 E23.69728
G1 X149.922 Y47.747 E23.71716
G1 X149.823 Y47.719 E23.72143
G1 X149.503 Y47.59 E23.73578
G1 X149.373 Y47.578 E23.74121
G1 X148.98 Y47.538 E23.75763
G1 X148.761 Y47.516 E23.76678
G1 X148.38 Y47.74 E23.78516
G1 X147.525 Y47.799 E23.82079
G1 X147.123 Y47.828 E23.83754
G1 X146.563 Y47.924 E23.86117
G1 X145.251 Y48.281 E23.9177
G1 X144.666 Y48.502 E23.94369
G1 X143.498 Y49.079 E23.99786
G1 X142.919 Y49.437 E24.02616
G1 X141.927 Y50.194 E24.07804
G1 X141.386 Y50.696 E24.10872
G1 X140.597 Y51.588 E24.15823
G1 X140.13 Y52.23 E24.19124
G1 X139.554 Y53.207 E24.23839
G1 X139.197 Y53.98 E24.27379
G1 X138.837 Y54.996 E24.3186
G1 X138.622 Y55.879 E24.35639
G1 X138.477 Y56.867 E24.3979
G1 X138.444 Y57.164 E24.41033
G1 X138.376 Y57.207 E24.41367
G1 X138.376 Y58.313 E24.45965
G1 X138.444 Y58.44 E24.46564
G1 X138.474 Y58.824 E24.48166
G1 X138.622 Y59.824 E24.52368
G1 X138.838 Y60.702 E24.56128
G1 X138.915 Y60.924 E24.57105
G1 X139.198 Y61.72 E24.60617
G1 X139.554 Y62.493 E24.64155
G1 X140.13 Y63.47 E24.6887
G1 X140.597 Y64.111 E24.72168
G1 X141.386 Y65.004 E24.77122
G1 X141.927 Y65.506 E24.8019
G1 X142.92 Y66.262 E24.85379
G1 X143.497 Y66.621 E24.88204
G1 X144.666 Y67.198 E24.93624
G1 X145.249 Y67.42 E24.96218
G1 X146.563 Y67.776 E25.01878
G1 X146.959 Y67.843 E25.03547
G1 X147.003 Y68.049 E25.04423
G1 X147.008 Y68.076 E25.04532
G1 X148.986 Y68.171 E25.10817
G1 X149.381 Y68.19 E25.11837
G1 X149.396 Y68.122 E25.12077
G1 X150.036 Y68.03 E25.14452
G1 X151.35 Y67.84 E25.19972
G1 X151.349 Y67.687 E25.20608
G0 F2100 X150.947 Y67.297
;TYPE:WALL-OUTER
G1 F1200 X150.983 Y67.303 E25.2076
G1 X151.145 Y67.334 E25.21445
G1 X152.671 Y66.805 E25.2816
G1 X152.688 Y66.671 E25.28722
G1 X152.904 Y66.665 E25.2962
G1 X154.311 Y65.851 E25.36378
G1 X154.292 Y65.722 E25.3692
G1 X154.421 Y65.658 E25.37519
G1 X155.687 Y64.56 E25.44486
G1 X155.67 Y64.497 E25.44757
G1 X155.798 Y64.398 E25.4543
G1 X156.844 Y63.065 E25.52475
G1 X156.797 Y62.994 E25.52829
G1 X157.625 Y61.387 E25.60345
G1 X157.607 Y61.359 E25.60483
G1 X158.097 Y59.69 E25.67715
G1 X158.273 Y57.85 E25.75399
G1 X158.086 Y55.966 E25.83271
G1 X157.978 Y55.35 E25.85871
G1 X157.578 Y54.032 E25.91597
G1 X157.49 Y54.022 E25.91965
G1 X157.196 Y53.208 E25.95564
G1 X156.751 Y52.377 E25.99483
G1 X156.582 Y52.367 E26.00187
G1 X156.148 Y51.635 E26.03725
G1 X155.561 Y50.92 E26.07571
G1 X155.371 Y50.918 E26.08361
G1 X155.068 Y50.587 E26.10226
G1 X154.697 Y50.135 E26.12657
G1 X154.161 Y49.695 E26.1554
G1 X153.895 Y49.725 E26.16653
G1 X153.535 Y49.458 E26.18517
G1 X153.111 Y49.101 E26.20821
G1 X152.508 Y48.777 E26.23667
G1 X152.217 Y48.843 E26.24908
G1 X151.823 Y48.653 E26.26726
G1 X151.383 Y48.405 E26.28826
G1 X151.274 Y48.329 E26.29379
G1 X150.73 Y48.164 E26.31742
G1 X150.409 Y48.305 E26.332
G1 X149.684 Y48.095 E26.36338
G1 X149.406 Y47.982 E26.37585
G1 X148.851 Y47.927 E26.39904
G1 X148.502 Y48.132 E26.41587
G1 X147.171 Y48.226 E26.47134
G1 X146.649 Y48.315 E26.49336
G1 X145.374 Y48.662 E26.5483
G1 X144.826 Y48.869 E26.57265
G1 X143.692 Y49.429 E26.62523
G1 X143.146 Y49.767 E26.65193
G1 X142.185 Y50.5 E26.70218
G1 X141.673 Y50.976 E26.73124
G1 X140.909 Y51.839 E26.77916
G1 X140.465 Y52.45 E26.81056
G1 X139.909 Y53.393 E26.85608
G1 X139.568 Y54.131 E26.88988
G1 X139.221 Y55.11 E26.93306
G1 X139.015 Y55.955 E26.96922
G1 X138.874 Y56.919 E27.00972
G1 X138.819 Y57.401 E27.02989
G1 X138.776 Y57.428 E27.032
G1 X138.776 Y58.213 E27.06464
G1 X138.836 Y58.325 E27.06992
G1 X138.872 Y58.779 E27.08886
G1 X139.015 Y59.747 E27.12954
G1 X139.222 Y60.589 E27.16559
G1 X139.292 Y60.792 E27.17452
G1 X139.569 Y61.569 E27.20881
G1 X139.909 Y62.307 E27.24259
G1 X140.465 Y63.25 E27.28811
G1 X140.909 Y63.86 E27.31947
G1 X141.673 Y64.724 E27.36742
G1 X142.185 Y65.2 E27.39649
G1 X143.147 Y65.932 E27.44674
G1 X143.692 Y66.271 E27.47343
G1 X144.826 Y66.831 E27.52601
G1 X145.373 Y67.039 E27.55034
G1 X146.649 Y67.385 E27.60531
G1 X147.145 Y67.468 E27.62621
G1 X147.3 Y67.526 E27.6331
G1 X147.335 Y67.691 E27.64011
G1 X149.061 Y67.774 E27.71195
G1 X149.075 Y67.707 E27.71479
G1 X149.103 Y67.579 E27.72024
G1 X149.169 Y67.589 E27.72302
G1 X149.219 Y67.705 E27.72452
G1 X149.235 Y67.741
G1 X150.948 Y67.494 E27.79647
G1 X150.948 Y67.336 E27.80058
G1 X150.947 Y67.297
G0 F2100 X150.983 Y67.303
G0 X151.145 Y67.334
G0 X151.108 Y67.531
G0 X152.793 Y66.904
G0 X154.455 Y65.921
G0 X155.838 Y64.605
G0 X157.006 Y63.071
G0 X157.779 Y61.379
G0 X158.235 Y59.716
G0 X158.413 Y57.85
G0 X158.113 Y55.318
G0 X157.68 Y53.91
G0 X156.834 Y52.247
G0 X155.626 Y50.784
G0 X154.203 Y49.553
G0 X150.694 Y47.553
G0 X149.952 Y47.547
G0 X151.349 Y46.987
;TYPE:WALL-INNER
G1 F1200 X153.037 Y46.402 E27.87486
G1 X153.044 Y46.346 E27.8772
G1 X154.746 Y45.361 E27.95896
G1 X154.726 Y45.224 E27.96472
G1 X156.139 Y43.998 E28.04249
G1 X156.121 Y43.934 E28.04526
G1 X157.337 Y42.385 E28.12713
G1 X157.26 Y42.269 E28.13292
G1 X158.086 Y40.665 E28.20793
G1 X158.042 Y40.597 E28.21129
G1 X158.492 Y39.066 E28.27764
G1 X158.675 Y37.149 E28.3577
G1 X158.483 Y35.212 E28.43863
G1 X158.368 Y34.557 E28.46627
G1 X157.884 Y32.964 E28.53549
G1 X157.782 Y32.953 E28.53976
G1 X157.562 Y32.345 E28.56664
G1 X156.998 Y31.291 E28.61634
G1 X156.818 Y31.28 E28.62384
G1 X156.477 Y30.705 E28.65163
G1 X155.752 Y29.822 E28.69913
G1 X155.549 Y29.82 E28.70757
G1 X155.371 Y29.626 E28.71852
G1 X154.981 Y29.151 E28.74407
G1 X154.284 Y28.579 E28.78155
G1 X154.007 Y28.61 E28.79314
G1 X153.791 Y28.451 E28.80429
G1 X153.337 Y28.068 E28.82899
G1 X152.565 Y27.654 E28.86541
G1 X152.265 Y27.722 E28.8782
G1 X151.601 Y27.37 E28.90944
G1 X151.451 Y27.265 E28.91705
G1 X150.705 Y27.038 E28.94947
G1 X150.381 Y27.181 E28.9642
G1 X149.823 Y27.019 E28.98835
G1 X149.695 Y26.967 E28.9941
G1 X149.503 Y26.89 E29.00184
G1 X148.761 Y26.816 E29.0237
G1 X148.516 Y26.96 E29.0333
G1 X148.38 Y27.04 E29.03986
G1 X147.123 Y27.128 E29.09225
G1 X146.563 Y27.224 E29.11587
G1 X145.251 Y27.581 E29.1724
G1 X144.666 Y27.802 E29.1984
G1 X143.498 Y28.379 E29.25256
G1 X142.919 Y28.737 E29.28086
G1 X141.927 Y29.494 E29.33274
G1 X141.386 Y29.996 E29.36343
G1 X140.597 Y30.888 E29.41294
G1 X140.13 Y31.53 E29.44594
G1 X139.554 Y32.507 E29.4931
G1 X139.197 Y33.28 E29.5285
