;FLAVOR:Marlin
;TIME:4328
;Filament used: 2.30343m
;Layer height: 0.15
;MINX:74.3
;MINY:34.3
;MINZ:0.25
;MAXX:160.7
;MAXY:80.7
;MAXZ:10.9
;Generated with Cura_SteamEngine 4.8
M140 S100
M105
M190 S100
M104 S250
M105
M109 S250
M82 ;absolute extrusion mode
G28 ;home
G92 E0 ;Reset Extruder
G1 Z4.0 F3000 ;Move Z Axis up
G1 X1.1 Y20 Z0.28 F5000.0 ;Move to start position
G1 X1.1 Y200.0 Z0.28 F1500.0 E15 ;Draw the first line
G1 X1.4 Y200.0 Z0.28 F5000.0 ;Move to side a little
G1 X1.4 Y20 Z0.28 F1500.0 E30 ;Draw the second line
G92 E0 ;Reset Extruder
G1 Z2.0 F3000 ;Move Z Axis up
G92 E0
G92 E0
G1 F4200 E-5
;LAYER_COUNT:72
;LAYER:0
M107
G0 F2100 X74.686 Y36.004 Z0.25
;TYPE:SKIRT
G1 F4200 E0
G1 F1500 X74.958 Y35.578 E0.01609
G1 X75.294 Y35.201 E0.03216
G1 X75.685 Y34.88 E0.04827
G1 X76.122 Y34.626 E0.06436
G1 X76.593 Y34.443 E0.08044
G1 X77.088 Y34.337 E0.09655
G1 X77.74 Y34.301 E0.11734
G1 X156.839 Y34.3 E2.63514
G1 X157.537 Y34.31 E2.65736
G1 X158.04 Y34.357 E2.67344
G1 X158.53 Y34.483 E2.68954
G1 X158.994 Y34.685 E2.70565
G1 X159.42 Y34.957 E2.72174
G1 X159.798 Y35.292 E2.73782
G1 X160.118 Y35.683 E2.7539
G1 X160.373 Y36.12 E2.77001
G1 X160.556 Y36.591 E2.78609
G1 X160.663 Y37.085 E2.80218
G1 X160.699 Y37.74 E2.82306
G1 X160.7 Y76.804 E4.06651
G1 X160.691 Y77.531 E4.08965
G1 X160.645 Y78.034 E4.10573
G1 X160.52 Y78.524 E4.12182
G1 X160.319 Y78.988 E4.13792
G1 X160.048 Y79.415 E4.15402
G1 X159.713 Y79.794 E4.17012
G1 X159.323 Y80.115 E4.1862
G1 X158.887 Y80.371 E4.20229
G1 X158.416 Y80.554 E4.21837
G1 X157.922 Y80.662 E4.23447
G1 X157.26 Y80.699 E4.25557
G1 X78.173 Y80.7 E6.77299
G1 X77.474 Y80.69 E6.79524
G1 X76.971 Y80.643 E6.81133
G1 X76.481 Y80.517 E6.82743
G1 X76.017 Y80.315 E6.84354
G1 X75.591 Y80.043 E6.85963
G1 X75.213 Y79.708 E6.8757
G1 X74.893 Y79.317 E6.89179
G1 X74.638 Y78.88 E6.90789
G1 X74.455 Y78.409 E6.92398
G1 X74.346 Y77.901 E6.94051
G1 X74.303 Y77.287 E6.96011
G1 X74.3 Y76.934 E6.97134
G1 X74.3 Y38.126 E8.20664
G1 X74.31 Y37.461 E8.22781
G1 X74.358 Y36.958 E8.24389
G1 X74.484 Y36.468 E8.26
G1 X74.686 Y36.004 E8.27611
G1 F4200 E3.27611
;MESH:suporte18650-BodyFillet001.stl
G0 F2100 X76.835 Y37.814
G0 X77.814 Y37.814
G0 X78.1 Y38.1
;TYPE:WALL-INNER
G1 F4200 E8.27611
G1 F1200 X83.438 Y38.1 E8.44602
G1 X84.26 Y38.1 E8.47219
G1 X84.429 Y38.1 E8.47757
G1 X84.26 Y38.141 E8.47794
G1 X83.513 Y38.482 E8.49262
G1 X82.547 Y38.924 E8.52643
G1 X81.013 Y40.019 E8.58642
G1 X79.715 Y41.381 E8.64631
G1 X78.697 Y42.964 E8.70622
G1 X78.484 Y43.495 E8.72443
G1 X78.1 Y44.457 E8.7574
G1 X78.1 Y43.422 E8.77417
G1 X78.1 Y43.421 E8.7742
G1 X78.1 Y38.1 E8.94357
G0 F2100 X77.903 Y48.418
G0 X78.1 Y50.546
G1 F1200 X78.484 Y51.505 E8.97646
G1 X78.699 Y52.04 E8.99481
G1 X79.716 Y53.623 E9.0547
G1 X81.019 Y54.986 E9.11472
G1 X82.552 Y56.077 E9.17462
G1 X84.264 Y56.86 E9.23454
G1 X86.089 Y57.301 E9.2943
G1 X86.094 Y57.302 E9.29446
G1 X86.107 Y57.302 E9.29488
G1 X87.975 Y57.391 E9.35441
G1 X88.595 Y57.302 E9.37434
G1 X89.838 Y57.122 E9.41432
G1 X91.616 Y56.508 E9.4742
G1 X93.246 Y55.566 E9.53412
G1 X94.668 Y54.333 E9.59403
G1 X95.831 Y52.854 E9.65392
G1 X96.694 Y51.18 E9.71387
G1 X97.224 Y49.374 E9.77378
G1 X97.291 Y48.667 E9.79639
G1 X97.315 Y48.415 E9.80445
G1 X97.403 Y47.496 E9.83383
G1 X97.318 Y46.594 E9.86267
G1 X97.293 Y46.333 E9.87102
G1 X97.225 Y45.627 E9.89359
G1 X96.691 Y43.815 E9.95372
G1 X95.829 Y42.144 E10.01357
G1 X94.666 Y40.665 E10.07346
G1 X93.243 Y39.433 E10.13338
G1 X91.624 Y38.498 E10.19289
G1 X91.612 Y38.491 E10.19333
G1 X90.48 Y38.1 E10.23145
G1 X91.612 Y38.1 E10.24884
G1 X91.626 Y38.1 E10.24928
G1 X103.437 Y38.1 E10.62524
G1 X104.259 Y38.1 E10.6514
G1 X104.427 Y38.1 E10.65675
G1 X104.259 Y38.141 E10.65712
G1 X103.512 Y38.482 E10.6718
G1 X102.547 Y38.923 E10.70557
G1 X101.013 Y40.014 E10.76549
G1 X99.712 Y41.381 E10.82556
G1 X98.697 Y42.964 E10.88542
G1 X97.998 Y44.712 E10.94534
G1 X97.689 Y46.305 E10.99699
G1 X97.64 Y46.563 E11.00456
G1 X97.64 Y47.496 E11.02555
G1 X97.64 Y48.445 E11.04699
G1 X97.688 Y48.694 E11.05433
G1 X97.997 Y50.296 E11.10626
G1 X98.7 Y52.04 E11.16612
G1 X99.715 Y53.623 E11.22597
G1 X101.019 Y54.99 E11.28611
G1 X102.554 Y56.081 E11.34605
G1 X104.257 Y56.86 E11.40566
G1 X106.088 Y57.301 E11.46561
G1 X106.093 Y57.302 E11.46578
G1 X106.108 Y57.302 E11.46625
G1 X107.968 Y57.395 E11.52553
G1 X108.602 Y57.304 E11.54592
G1 X109.832 Y57.126 E11.58548
G1 X111.617 Y56.507 E11.64562
G1 X113.245 Y55.566 E11.70547
G1 X114.67 Y54.334 E11.76543
G1 X115.831 Y52.853 E11.82533
G1 X116.693 Y51.181 E11.88521
G1 X117.226 Y49.375 E11.94515
G1 X117.293 Y48.673 E11.9676
G1 X117.317 Y48.415 E11.97585
G1 X117.405 Y47.492 E12.00536
G1 X117.318 Y46.595 E12.03404
G1 X117.293 Y46.335 E12.04236
G1 X117.223 Y45.616 E12.06535
G1 X116.694 Y43.82 E12.12495
G1 X115.829 Y42.144 E12.18499
G1 X114.666 Y40.662 E12.24495
G1 X113.243 Y39.432 E12.30482
G1 X111.624 Y38.498 E12.36432
G1 X111.612 Y38.491 E12.36476
G1 X110.48 Y38.1 E12.40288
G1 X111.612 Y38.1 E12.42027
G1 X111.626 Y38.1 E12.42071
G1 X123.437 Y38.1 E12.79667
G1 X124.259 Y38.1 E12.82283
G1 X124.427 Y38.1 E12.82818
G1 X124.259 Y38.141 E12.82855
G1 X123.512 Y38.482 E12.84323
G1 X122.547 Y38.923 E12.877
G1 X121.013 Y40.014 E12.93692
G1 X119.712 Y41.381 E12.99699
G1 X118.694 Y42.965 E13.05692
G1 X117.998 Y44.712 E13.11678
G1 X117.689 Y46.306 E13.16847
G1 X117.64 Y46.563 E13.17601
G1 X117.64 Y47.492 E13.19683
G1 X117.64 Y48.445 E13.21821
G1 X117.689 Y48.7 E13.22571
G1 X117.999 Y50.293 E13.27737
G1 X118.699 Y52.04 E13.33727
G1 X119.715 Y53.623 E13.39715
G1 X121.019 Y54.99 E13.45728
G1 X122.554 Y56.081 E13.51723
G1 X124.257 Y56.86 E13.57684
G1 X126.088 Y57.301 E13.63679
G1 X126.093 Y57.302 E13.63695
G1 X126.108 Y57.302 E13.63743
G1 X127.968 Y57.395 E13.69671
G1 X128.602 Y57.304 E13.71709
G1 X129.832 Y57.126 E13.75665
G1 X131.616 Y56.508 E13.81675
G1 X133.249 Y55.567 E13.87674
G1 X134.669 Y54.333 E13.93663
G1 X135.831 Y52.854 E13.9965
G1 X136.696 Y51.181 E14.05645
G1 X137.224 Y49.374 E14.11637
G1 X137.292 Y48.667 E14.13898
G1 X137.316 Y48.414 E14.14707
G1 X137.405 Y47.492 E14.17655
G1 X137.319 Y46.595 E14.20524
G1 X137.294 Y46.332 E14.21365
G1 X137.224 Y45.617 E14.23651
G1 X136.697 Y43.82 E14.29612
G1 X135.83 Y42.14 E14.3563
G1 X134.666 Y40.662 E14.41618
G1 X133.243 Y39.43 E14.4761
G1 X131.629 Y38.498 E14.53542
G1 X131.612 Y38.488 E14.53605
G1 X130.487 Y38.1 E14.57393
G1 X131.612 Y38.1 E14.59107
G1 X131.632 Y38.1 E14.5917
G1 X143.433 Y38.1 E14.96734
G1 X144.258 Y38.1 E14.9936
G1 X144.42 Y38.1 E14.99875
G1 X144.258 Y38.139 E14.99911
G1 X143.508 Y38.482 E15.01378
G1 X142.546 Y38.923 E15.04747
G1 X141.013 Y40.014 E15.10736
G1 X139.712 Y41.381 E15.16743
G1 X138.694 Y42.965 E15.22736
G1 X137.998 Y44.712 E15.28722
G1 X137.69 Y46.303 E15.33881
G1 X137.64 Y46.563 E15.34643
G1 X137.64 Y47.492 E15.36721
G1 X137.64 Y48.445 E15.38864
G1 X137.688 Y48.695 E15.396
G1 X137.999 Y50.293 E15.44782
G1 X138.699 Y52.04 E15.50772
G1 X139.715 Y53.623 E15.5676
G1 X141.019 Y54.99 E15.62773
G1 X142.554 Y56.081 E15.68768
G1 X144.257 Y56.86 E15.74729
G1 X146.088 Y57.301 E15.80724
G1 X146.093 Y57.302 E15.8074
G1 X146.108 Y57.302 E15.80788
G1 X147.968 Y57.395 E15.86716
G1 X148.602 Y57.304 E15.88754
G1 X149.832 Y57.126 E15.9271
G1 X151.612 Y56.513 E15.98703
G1 X153.246 Y55.566 E16.04714
G1 X154.67 Y54.334 E16.10708
G1 X155.831 Y52.854 E16.16696
G1 X156.513 Y51.536 E16.21419
G1 X156.696 Y51.181 E16.22691
G1 X156.9 Y50.483 E16.25005
G1 X156.9 Y51.181 E16.25557
G1 X156.9 Y51.581 E16.26528
G1 X156.9 Y63.424 E16.64226
G1 X156.9 Y63.815 E16.6547
G1 X156.9 Y64.524 E16.67727
G1 X156.691 Y63.815 E16.68396
G1 X156.512 Y63.468 E16.69351
G1 X155.829 Y62.144 E16.74093
G1 X154.666 Y60.665 E16.80082
G1 X153.243 Y59.433 E16.86074
G1 X151.612 Y58.491 E16.92069
G1 X149.834 Y57.877 E16.98056
G1 X148.605 Y57.7 E17.02009
G1 X147.971 Y57.609 E17.03579
G1 X146.112 Y57.696 E17.08094
G1 X146.089 Y57.698 E17.08167
G1 X146.084 Y57.699 E17.08183
G1 X144.26 Y58.141 E17.14157
G1 X142.547 Y58.924 E17.20152
G1 X141.013 Y60.019 E17.26152
G1 X139.715 Y61.381 E17.3214
G1 X138.697 Y62.964 E17.38131
G1 X137.998 Y64.712 E17.44124
G1 X137.69 Y66.312 E17.4931
G1 X137.642 Y66.561 E17.50117
G1 X137.642 Y67.496 E17.53093
G1 X137.642 Y68.443 E17.56108
G1 X137.688 Y68.685 E17.56892
G1 X137.998 Y70.292 E17.62102
G1 X138.699 Y72.04 E17.68096
G1 X139.716 Y73.623 E17.74085
G1 X141.019 Y74.986 E17.80088
G1 X142.552 Y76.077 E17.86077
G1 X143.515 Y76.518 E17.89448
G1 X144.264 Y76.86 E17.92069
G1 X144.43 Y76.9 E17.92613
G1 X144.264 Y76.9 E17.92636
G1 X143.44 Y76.9 E17.94107
G1 X131.629 Y76.9 E18.31703
G1 X131.616 Y76.9 E18.31744
G1 X130.481 Y76.9 E18.35357
G1 X131.616 Y76.508 E18.37313
G1 X131.627 Y76.502 E18.37353
G1 X133.246 Y75.566 E18.43305
G1 X134.668 Y74.333 E18.49296
G1 X135.831 Y72.854 E18.55285
G1 X136.694 Y71.18 E18.6128
G1 X137.224 Y69.374 E18.67271
G1 X137.292 Y68.657 E18.69564
G1 X137.315 Y68.412 E18.70278
G1 X137.403 Y67.496 E18.72348
G1 X137.317 Y66.592 E18.74383
G1 X137.293 Y66.34 E18.75115
G1 X137.225 Y65.627 E18.77395
G1 X136.691 Y63.815 E18.83408
G1 X135.829 Y62.144 E18.89393
G1 X134.666 Y60.665 E18.95382
G1 X133.243 Y59.433 E19.01374
G1 X131.612 Y58.491 E19.07369
G1 X129.834 Y57.877 E19.13356
G1 X128.605 Y57.7 E19.17309
G1 X127.971 Y57.609 E19.18879
G1 X126.112 Y57.696 E19.23394
G1 X126.089 Y57.698 E19.23467
G1 X126.084 Y57.699 E19.23483
G1 X124.26 Y58.141 E19.29457
G1 X122.547 Y58.924 E19.35452
G1 X121.013 Y60.019 E19.41452
G1 X119.715 Y61.381 E19.4744
G1 X118.697 Y62.964 E19.53431
G1 X117.998 Y64.712 E19.59424
G1 X117.69 Y66.312 E19.6461
G1 X117.642 Y66.561 E19.65417
G1 X117.642 Y67.496 E19.68394
G1 X117.642 Y68.443 E19.71408
G1 X117.688 Y68.685 E19.72192
G1 X117.998 Y70.292 E19.77402
G1 X118.699 Y72.04 E19.83396
G1 X119.716 Y73.623 E19.89385
G1 X121.019 Y74.986 E19.95388
G1 X122.552 Y76.077 E20.01377
G1 X123.515 Y76.518 E20.04748
G1 X124.264 Y76.86 E20.07369
G1 X124.43 Y76.9 E20.07913
G1 X124.264 Y76.9 E20.07936
G1 X123.44 Y76.9 E20.09407
G1 X111.629 Y76.9 E20.47003
G1 X111.616 Y76.9 E20.47044
G1 X110.481 Y76.9 E20.50657
G1 X111.616 Y76.508 E20.52613
G1 X111.627 Y76.502 E20.52653
G1 X113.246 Y75.566 E20.58605
G1 X114.668 Y74.333 E20.64596
G1 X115.831 Y72.854 E20.70585
G1 X116.694 Y71.18 E20.7658
G1 X117.224 Y69.374 E20.82571
G1 X117.292 Y68.657 E20.84864
G1 X117.315 Y68.412 E20.85578
G1 X117.403 Y67.496 E20.87648
G1 X117.317 Y66.592 E20.89683
G1 X117.293 Y66.34 E20.90416
G1 X117.225 Y65.627 E20.92695
G1 X116.691 Y63.815 E20.98708
G1 X115.829 Y62.144 E21.04693
G1 X114.666 Y60.665 E21.10682
G1 X113.243 Y59.433 E21.16674
G1 X111.612 Y58.491 E21.22669
G1 X109.834 Y57.877 E21.28656
G1 X108.605 Y57.7 E21.32609
G1 X107.971 Y57.609 E21.34179
G1 X106.112 Y57.696 E21.38694
G1 X106.089 Y57.698 E21.38767
G1 X106.084 Y57.699 E21.38783
G1 X104.26 Y58.141 E21.44757
G1 X102.547 Y58.924 E21.50752
G1 X101.013 Y60.019 E21.56752
G1 X99.715 Y61.381 E21.6274
G1 X98.697 Y62.964 E21.68731
G1 X97.998 Y64.712 E21.74724
G1 X97.69 Y66.312 E21.7991
G1 X97.642 Y66.561 E21.80717
G1 X97.642 Y67.496 E21.83694
G1 X97.642 Y68.443 E21.86708
G1 X97.688 Y68.685 E21.87492
G1 X97.998 Y70.292 E21.92702
G1 X98.699 Y72.04 E21.98696
G1 X99.716 Y73.623 E22.04686
G1 X101.019 Y74.986 E22.10688
G1 X102.552 Y76.077 E22.16677
G1 X103.515 Y76.518 E22.20048
G1 X104.264 Y76.86 E22.22669
G1 X104.43 Y76.9 E22.23213
G1 X104.264 Y76.9 E22.23236
G1 X103.44 Y76.9 E22.24707
G1 X91.629 Y76.9 E22.62303
G1 X91.616 Y76.9 E22.62344
G1 X90.481 Y76.9 E22.65957
G1 X91.616 Y76.508 E22.67913
G1 X91.627 Y76.502 E22.67953
G1 X93.246 Y75.566 E22.73905
G1 X94.668 Y74.333 E22.79896
G1 X95.831 Y72.854 E22.85885
G1 X96.694 Y71.18 E22.9188
G1 X97.224 Y69.374 E22.97871
G1 X97.292 Y68.657 E23.00164
G1 X97.315 Y68.412 E23.00878
G1 X97.403 Y67.496 E23.02948
G1 X97.317 Y66.592 E23.04983
G1 X97.293 Y66.34 E23.05716
G1 X97.225 Y65.627 E23.07995
G1 X96.691 Y63.815 E23.14008
G1 X95.829 Y62.144 E23.19993
G1 X94.666 Y60.665 E23.25982
G1 X93.243 Y59.433 E23.31974
G1 X91.612 Y58.491 E23.37969
G1 X89.834 Y57.877 E23.43957
G1 X88.591 Y57.698 E23.47954
G1 X87.971 Y57.609 E23.495
G1 X86.113 Y57.696 E23.54038
G1 X86.089 Y57.698 E23.54114
G1 X86.084 Y57.699 E23.54131
G1 X84.26 Y58.141 E23.60105
G1 X82.547 Y58.924 E23.661
G1 X81.013 Y60.019 E23.72099
G1 X79.715 Y61.381 E23.78088
G1 X78.697 Y62.964 E23.84079
G1 X78.484 Y63.495 E23.859
G1 X78.1 Y64.457 E23.89197
G1 X78.1 Y63.422 E23.90874
G1 X78.1 Y63.421 E23.90877
G1 X78.1 Y51.579 E24.28571
G1 X78.1 Y50.546 E24.30245
G0 F2100 X77.903 Y68.418
G0 X78.1 Y70.546
G1 F1200 X78.484 Y71.505 E24.33534
G1 X78.699 Y72.04 E24.35369
G1 X79.716 Y73.623 E24.41358
G1 X81.019 Y74.986 E24.4736
G1 X82.552 Y76.077 E24.53349
G1 X83.515 Y76.518 E24.56721
G1 X84.264 Y76.86 E24.59342
G1 X84.43 Y76.9 E24.59885
G1 X84.264 Y76.9 E24.59909
G1 X83.44 Y76.9 E24.6138
G1 X78.1 Y76.9 E24.78377
G1 X78.1 Y71.579 E24.95315
G1 X78.1 Y70.546 E24.96989
G0 F2100 X79.922 Y73.46
G0 X81.19 Y74.788
G0 X82.683 Y75.85
G0 X84.349 Y76.612
G0 X86.132 Y77.042
G0 X87.962 Y77.129
G0 X89.776 Y76.868
G0 X91.507 Y76.269
G0 X93.094 Y75.353
G0 X94.478 Y74.152
G0 X96.853 Y71.244
G0 X97.49 Y68.735
G0 X98.687 Y72.352
G0 X101.19 Y74.788
G0 X102.683 Y75.85
G0 X104.349 Y76.612
G0 X106.132 Y77.042
G0 X107.962 Y77.129
G0 X147.962 Y77.129
G0 X150.481 Y76.9
G1 F1200 X151.616 Y76.508 E25.00811
G1 X151.627 Y76.502 E25.00851
G1 X153.246 Y75.566 E25.06804
G1 X154.668 Y74.333 E25.12795
G1 X155.831 Y72.854 E25.18784
G1 X156.513 Y71.532 E25.23519
G1 X156.694 Y71.18 E25.24779
G1 X156.9 Y70.478 E25.27107
G1 X156.9 Y71.18 E25.27667
G1 X156.9 Y71.577 E25.28634
G1 X156.9 Y76.9 E25.45578
G1 X151.629 Y76.9 E25.62356
G1 X151.616 Y76.9 E25.62397
G1 X150.481 Y76.9 E25.64145
G0 F2100 X153.094 Y75.353
G0 X154.478 Y74.152
G0 X155.611 Y72.712
G0 X156.451 Y71.082
G0 X156.967 Y69.324
G0 X157.141 Y67.496
G0 X156.968 Y65.677
G0 X156.448 Y63.914
G0 X155.609 Y62.286
G0 X154.476 Y60.846
G0 X153.091 Y59.646
G0 X149.875 Y57.71
G0 X148.661 Y57.502
G0 X151.503 Y56.274
G0 X153.094 Y55.353
G0 X154.48 Y54.153
G0 X155.61 Y52.712
G0 X156.453 Y51.083
G0 X156.967 Y49.324
G0 X157.141 Y47.496
G0 X156.967 Y45.667
G0 X156.453 Y43.918
G0 X155.608 Y42.286
G0 X154.476 Y40.843
G0 X153.23 Y39.763
G0 X150.486 Y38.1
G1 F1200 X151.612 Y38.1 E25.67729
G1 X151.632 Y38.1 E25.67792
G1 X156.9 Y38.1 E25.84561
G1 X156.9 Y43.419 E26.01492
G1 X156.9 Y43.819 E26.02765
G1 X156.9 Y44.514 E26.04977
G1 X156.696 Y43.819 E26.05619
G1 X156.513 Y43.464 E26.06588
G1 X155.829 Y42.144 E26.11321
G1 X154.666 Y40.662 E26.17317
G1 X153.243 Y39.43 E26.23308
G1 X151.629 Y38.498 E26.29241
G1 X151.612 Y38.488 E26.29303
G1 X150.486 Y38.1 E26.31224
G0 F2100 X153.091 Y39.643
G0 X154.476 Y40.843
G0 X155.608 Y42.286
G0 X156.453 Y43.918
G0 X156.967 Y45.667
G0 X157.141 Y47.496
G0 X156.967 Y49.324
G0 X156.453 Y51.083
G0 X155.61 Y52.712
G0 X154.48 Y54.153
G0 X153.094 Y55.353
G0 X151.503 Y56.274
G0 X149.77 Y56.872
G0 X148.137 Y57.106
G0 X146.103 Y57.097
G0 X146.15 Y56.904
;TYPE:WALL-OUTER
G1 F1200 X147.949 Y56.994 E26.36957
G1 X149.737 Y56.736 E26.42708
G1 X151.445 Y56.147 E26.48459
G1 X153.013 Y55.239 E26.54226
G1 X154.379 Y54.057 E26.59976
G1 X155.493 Y52.637 E26.65721
G1 X156.323 Y51.032 E26.71473
G1 X156.829 Y49.298 E26.77222
G1 X156.901 Y48.551 E26.79611
G1 X157.001 Y47.496 E26.82984
G1 X156.901 Y46.44 E26.86361
G1 X156.829 Y45.693 E26.88749
G1 X156.323 Y43.969 E26.94469
G1 X155.491 Y42.361 E27.00232
G1 X154.375 Y40.939 E27.05985
G1 X153.01 Y39.757 E27.11733
G1 X151.445 Y38.854 E27.17484
G1 X149.738 Y38.265 E27.23232
G1 X148.59 Y38.099 E27.26924
G1 X147.95 Y38.007 E27.28983
G1 X146.146 Y38.096 E27.34732
G1 X146.131 Y38.099 E27.34781
G1 X144.389 Y38.519 E27.40484
G1 X142.747 Y39.271 E27.46233
G1 X141.276 Y40.318 E27.5198
G1 X140.028 Y41.629 E27.57742
G1 X139.051 Y43.149 E27.63493
G1 X138.384 Y44.825 E27.69235
G1 X138.04 Y46.601 E27.74994
G1 X138.04 Y48.407 E27.80742
G1 X138.384 Y50.179 E27.86488
G1 X139.056 Y51.856 E27.92239
G1 X140.031 Y53.375 E27.97984
G1 X141.282 Y54.686 E28.03752
G1 X142.755 Y55.733 E28.09505
G1 X144.388 Y56.48 E28.15221
G1 X146.15 Y56.904 E28.20989
G0 F2100 X146.349 Y56.913
G0 X146.327 Y57.352
