;FLAVOR:Marlin
;TIME:22260
;Filament used: 17.0171m
;Layer height: 0.15
;MINX:72.617
;MINY:22.767
;MINZ:0.25
;MAXX:162.483
;MAXY:72.234
;MAXZ:67
;Generated with Cura_SteamEngine 4.8
M140 S60
M105
M190 S60
M104 S200
M105
M109 S200
M82 ;absolute extrusion mode
G28 ;home
G92 E0 ;Reset Extruder
G1 Z4.0 F3000 ;Move Z Axis up
G1 X1.1 Y20 Z0.28 F5000.0 ;Move to start position
G1 X1.1 Y200.0 Z0.28 F1500.0 E15 ;Draw the first line
G1 X1.4 Y200.0 Z0.28 F5000.0 ;Move to side a little
G1 X1.4 Y20 Z0.28 F1500.0 E30 ;Draw the second line
G92 E0 ;Reset Extruder
G1 Z2.0 F3000 ;Move Z Axis up
G92 E0
G92 E0
G1 F4200 E-5
;LAYER_COUNT:446
;LAYER:0
M107
G0 F2100 X72.811 Y25.357 Z0.25
;TYPE:SKIRT
G1 F4200 E0
G1 F1500 X72.985 Y24.882 E0.02103
G1 X73.231 Y24.441 E0.04203
G1 X73.683 Y23.903 E0.07124
G1 X73.862 Y23.732 E0.08153
G1 X74.254 Y23.413 E0.10254
G1 X74.691 Y23.159 E0.12356
G1 X75.219 Y22.962 E0.14699
G1 X75.472 Y22.892 E0.1579
G1 X75.968 Y22.796 E0.17891
G1 X76.278 Y22.776 E0.19182
G1 X76.891 Y22.767 E0.21731
G1 X158.147 Y22.767 E3.59554
G1 X158.844 Y22.777 E3.62452
G1 X159.581 Y22.874 E3.65543
G1 X159.779 Y22.924 E3.66392
G1 X160.258 Y23.087 E3.68495
G1 X160.706 Y23.322 E3.70599
G1 X161.223 Y23.715 E3.73299
G1 X161.587 Y24.066 E3.75401
G1 X161.892 Y24.47 E3.77505
G1 X162.144 Y24.951 E3.79763
G1 X162.363 Y25.617 E3.82678
G1 X162.472 Y26.347 E3.85746
G1 X162.483 Y26.865 E3.879
G1 X162.483 Y67.896 E5.58488
G1 X162.473 Y68.592 E5.61381
G1 X162.374 Y69.335 E5.64498
G1 X162.316 Y69.563 E5.65476
G1 X162.153 Y70.041 E5.67576
G1 X161.917 Y70.488 E5.69677
G1 X161.587 Y70.922 E5.71944
G1 X161.434 Y71.091 E5.72892
G1 X161.066 Y71.437 E5.74992
G1 X160.649 Y71.722 E5.77092
G1 X160.242 Y71.918 E5.7897
G1 X159.594 Y72.121 E5.81793
G1 X158.897 Y72.222 E5.84721
G1 X158.343 Y72.233 E5.87025
G1 X76.962 Y72.234 E9.25367
G1 X76.257 Y72.224 E9.28299
G1 X75.753 Y72.177 E9.30403
G1 X75.155 Y72.023 E9.32971
G1 X74.682 Y71.844 E9.35073
G1 X74.243 Y71.593 E9.37176
G1 X73.85 Y71.276 E9.39275
G1 X73.524 Y70.93 E9.41251
G1 X73.216 Y70.529 E9.43353
G1 X72.975 Y70.085 E9.45454
G1 X72.778 Y69.524 E9.47926
G1 X72.664 Y69.031 E9.50029
G1 X72.629 Y68.609 E9.5179
G1 X72.617 Y67.833 E9.55017
G1 X72.617 Y27.107 E11.24336
G1 X72.628 Y26.4 E11.27275
G1 X72.676 Y25.897 E11.29376
G1 X72.811 Y25.357 E11.3169
G1 F4200 E6.3169
;MESH:powerBank-Base.stl
G0 F2100 X75.152 Y26.777
G0 X76.627 Y26.777
G0 X76.599 Y68.252
G0 X158.683 Y68.433
;TYPE:WALL-INNER
G1 F4200 E11.3169
G1 F1200 X76.616 Y68.434 E14.72885
G1 X76.417 Y68.434 E14.73712
G1 X76.417 Y68.235 E14.74248
G1 X76.417 Y26.567 E16.47483
G1 X158.683 Y26.567 E19.89505
G1 X158.683 Y68.433 E21.63564
G0 F2100 X158.949 Y68.784
;TYPE:WALL-OUTER
G1 F1200 X158.774 Y68.833 E21.6432
G1 X76.329 Y68.834 E25.07086
G1 X76.151 Y68.782 E25.07857
G1 X76.051 Y68.67 E25.08481
G1 X76.017 Y68.525 E25.09101
G1 X76.017 Y26.477 E26.83916
G1 X76.068 Y26.301 E26.84678
G1 X76.17 Y26.207 E26.85254
G1 X76.327 Y26.167 E26.85928
G1 X158.783 Y26.167 E30.2874
G1 X158.929 Y26.206 E30.29368
G1 X159.034 Y26.301 E30.29957
G1 X159.083 Y26.476 E30.30713
G1 X159.083 Y68.533 E32.05565
G1 X159.044 Y68.679 E32.06194
G1 X158.949 Y68.784 E32.06782
G0 F2100 X158.774 Y68.833
G0 X158.755 Y68.833
G0 X158.643 Y68.393
G0 X158.293 Y68.043
;TYPE:SKIN
G1 F1200 X76.807 Y68.044 E35.45562
G1 X76.807 Y26.957 E37.16382
G1 X158.293 Y26.957 E40.55161
G1 X158.293 Y68.043 E42.25977
G0 F2100 X158.573 Y68.043
G0 X158.573 Y27.439
G0 X158.112 Y27.439
G1 F1200 X157.809 Y27.136 E42.27758
G0 F2100 X157.244 Y27.136
G1 F1200 X158.112 Y28.004 E42.32862
G0 F2100 X158.112 Y28.57
G1 F1200 X156.678 Y27.136 E42.41293
G0 F2100 X156.112 Y27.136
G1 F1200 X158.112 Y29.136 E42.53052
G0 F2100 X158.112 Y29.702
G1 F1200 X155.547 Y27.136 E42.68137
G0 F2100 X154.981 Y27.136
G1 F1200 X158.112 Y30.267 E42.86546
G0 F2100 X158.112 Y30.833
G1 F1200 X154.415 Y27.136 E43.08283
G0 F2100 X153.85 Y27.136
G1 F1200 X158.112 Y31.399 E43.33344
G0 F2100 X158.112 Y31.964
G1 F1200 X153.284 Y27.136 E43.61731
G0 F2100 X152.718 Y27.136
G1 F1200 X158.112 Y32.53 E43.93446
G0 F2100 X158.112 Y33.096
G1 F1200 X152.153 Y27.136 E44.28485
G0 F2100 X151.587 Y27.136
G1 F1200 X158.112 Y33.661 E44.6685
G0 F2100 X158.112 Y34.227
G1 F1200 X151.021 Y27.136 E45.08542
G0 F2100 X150.456 Y27.136
G1 F1200 X158.112 Y34.793 E45.5356
G0 F2100 X158.112 Y35.358
G1 F1200 X149.89 Y27.136 E46.01902
G0 F2100 X149.324 Y27.136
G1 F1200 X158.112 Y35.924 E46.53572
G0 F2100 X158.112 Y36.49
G1 F1200 X148.759 Y27.136 E47.08567
G0 F2100 X148.193 Y27.136
G1 F1200 X158.112 Y37.055 E47.66887
G0 F2100 X158.112 Y37.621
G1 F1200 X147.627 Y27.136 E48.28535
G0 F2100 X147.061 Y27.136
G1 F1200 X158.112 Y38.187 E48.9351
G0 F2100 X158.112 Y38.752
G1 F1200 X146.496 Y27.136 E49.61808
G0 F2100 X145.93 Y27.136
G1 F1200 X158.112 Y39.318 E50.33433
G0 F2100 X158.112 Y39.884
G1 F1200 X145.364 Y27.136 E51.08387
G0 F2100 X144.799 Y27.136
G1 F1200 X158.112 Y40.45 E51.86665
G0 F2100 X158.112 Y41.015
G1 F1200 X144.233 Y27.136 E52.68268
G0 F2100 X143.667 Y27.136
G1 F1200 X158.112 Y41.581 E53.53199
G0 F2100 X158.112 Y42.147
G1 F1200 X143.102 Y27.136 E54.41455
G0 F2100 X142.536 Y27.136
G1 F1200 X158.112 Y42.712 E55.33036
G0 F2100 X158.112 Y43.278
G1 F1200 X141.97 Y27.136 E56.27945
G0 F2100 X141.405 Y27.136
G1 F1200 X158.112 Y43.844 E57.26179
G0 F2100 X158.112 Y44.409
G1 F1200 X140.839 Y27.136 E58.27737
G0 F2100 X140.273 Y27.136
G1 F1200 X158.112 Y44.975 E59.32624
G0 F2100 X158.112 Y45.541
G1 F1200 X139.708 Y27.136 E60.40835
G0 F2100 X139.142 Y27.136
G1 F1200 X158.112 Y46.106 E61.52371
G0 F2100 X158.112 Y46.672
G1 F1200 X138.576 Y27.136 E62.67236
G0 F2100 X138.01 Y27.136
G1 F1200 X158.112 Y47.238 E63.85428
G0 F2100 X158.112 Y47.803
G1 F1200 X137.445 Y27.136 E65.06942
G0 F2100 X136.879 Y27.136
G1 F1200 X158.112 Y48.369 E66.31784
G0 F2100 X158.112 Y48.935
G1 F1200 X136.313 Y27.136 E67.59953
G0 F2100 X135.748 Y27.136
G1 F1200 X158.112 Y49.501 E68.91448
G0 F2100 X158.112 Y50.066
G1 F1200 X135.182 Y27.136 E70.26268
G0 F2100 X134.616 Y27.136
G1 F1200 X158.112 Y50.632 E71.64415
G0 F2100 X158.112 Y51.198
G1 F1200 X134.051 Y27.136 E73.05888
G0 F2100 X133.485 Y27.136
G1 F1200 X158.112 Y51.763 E74.50685
G0 F2100 X158.112 Y52.329
G1 F1200 X132.919 Y27.136 E75.9881
G0 F2100 X132.354 Y27.136
G1 F1200 X158.112 Y52.895 E77.5026
G0 F2100 X158.112 Y53.46
G1 F1200 X131.788 Y27.136 E79.05035
G0 F2100 X131.222 Y27.136
G1 F1200 X158.112 Y54.026 E80.63138
G0 F2100 X158.112 Y54.592
G1 F1200 X130.657 Y27.136 E82.24566
G0 F2100 X130.091 Y27.136
G1 F1200 X158.112 Y55.157 E83.89319
G0 F2100 X158.112 Y55.723
G1 F1200 X129.525 Y27.136 E85.57399
G0 F2100 X128.96 Y27.136
G1 F1200 X158.112 Y56.289 E87.28805
G0 F2100 X158.112 Y56.854
G1 F1200 X128.394 Y27.136 E89.03535
G0 F2100 X127.828 Y27.136
G1 F1200 X158.112 Y57.42 E90.81594
G0 F2100 X158.112 Y57.986
G1 F1200 X127.262 Y27.136 E92.6298
G0 F2100 X126.697 Y27.136
G1 F1200 X158.112 Y58.551 E94.47688
G0 F2100 X158.112 Y59.117
G1 F1200 X126.131 Y27.136 E96.35724
G0 F2100 X125.565 Y27.136
G1 F1200 X158.112 Y59.683 E98.27088
G0 F2100 X158.112 Y60.249
G1 F1200 X125 Y27.136 E100.21777
G0 F2100 X124.434 Y27.136
G1 F1200 X158.112 Y60.814 E102.1979
G0 F2100 X158.112 Y61.38
G1 F1200 X123.868 Y27.136 E104.21132
G0 F2100 X123.303 Y27.136
G1 F1200 X158.112 Y61.946 E106.25798
G0 F2100 X158.112 Y62.511
G1 F1200 X122.737 Y27.136 E108.3379
G0 F2100 X122.171 Y27.136
G1 F1200 X158.112 Y63.077 E110.45109
G0 F2100 X158.112 Y63.643
G1 F1200 X121.606 Y27.136 E112.59753
G0 F2100 X121.04 Y27.136
G1 F1200 X158.112 Y64.208 E114.77723
G0 F2100 X158.112 Y64.774
G1 F1200 X120.474 Y27.136 E116.9902
G0 F2100 X119.909 Y27.136
G1 F1200 X158.112 Y65.34 E119.23642
G0 F2100 X158.112 Y65.905
G1 F1200 X119.343 Y27.136 E121.51588
G0 F2100 X118.777 Y27.136
G1 F1200 X158.112 Y66.471 E123.82863
G0 F2100 X158.112 Y67.037
G1 F1200 X118.211 Y27.136 E126.17466
G0 F2100 X117.646 Y27.136
G1 F1200 X158.112 Y67.602 E128.5539
G0 F2100 X157.807 Y67.863
G1 F1200 X117.08 Y27.136 E130.94849
G0 F2100 X116.514 Y27.136
G1 F1200 X157.241 Y67.863 E133.34309
G0 F2100 X156.675 Y67.863
G1 F1200 X115.949 Y27.136 E135.73765
G0 F2100 X115.383 Y27.136
G1 F1200 X156.11 Y67.863 E138.13224
G0 F2100 X155.544 Y67.863
G1 F1200 X114.817 Y27.136 E140.52683
G0 F2100 X114.252 Y27.136
G1 F1200 X154.978 Y67.863 E142.92139
G0 F2100 X154.413 Y67.863
G1 F1200 X113.686 Y27.136 E145.31598
G0 F2100 X113.12 Y27.136
G1 F1200 X153.847 Y67.863 E147.71058
G0 F2100 X153.281 Y67.863
G1 F1200 X112.555 Y27.136 E150.10514
G0 F2100 X111.989 Y27.136
G1 F1200 X152.715 Y67.863 E152.4997
G0 F2100 X152.15 Y67.863
G1 F1200 X111.423 Y27.136 E154.89429
G0 F2100 X110.858 Y27.136
G1 F1200 X151.584 Y67.863 E157.28885
G0 F2100 X151.018 Y67.863
G1 F1200 X110.292 Y27.136 E159.68342
G0 F2100 X109.726 Y27.136
G1 F1200 X150.453 Y67.863 E162.07801
G0 F2100 X149.887 Y67.863
G1 F1200 X109.161 Y27.136 E164.47257
G0 F2100 X108.595 Y27.136
G1 F1200 X149.321 Y67.863 E166.86713
G0 F2100 X148.756 Y67.863
G1 F1200 X108.029 Y27.136 E169.26172
G0 F2100 X107.463 Y27.136
G1 F1200 X148.19 Y67.863 E171.65632
G0 F2100 X147.624 Y67.863
G1 F1200 X106.898 Y27.136 E174.05088
G0 F2100 X106.332 Y27.136
G1 F1200 X147.059 Y67.863 E176.44547
G0 F2100 X146.493 Y67.863
G1 F1200 X105.766 Y27.136 E178.84006
G0 F2100 X105.201 Y27.136
G1 F1200 X145.927 Y67.863 E181.23462
G0 F2100 X145.362 Y67.863
G1 F1200 X104.635 Y27.136 E183.62921
G0 F2100 X104.069 Y27.136
G1 F1200 X144.796 Y67.863 E186.02381
G0 F2100 X144.23 Y67.863
G1 F1200 X103.504 Y27.136 E188.41837
G0 F2100 X102.938 Y27.136
G1 F1200 X143.665 Y67.863 E190.81296
G0 F2100 X143.099 Y67.863
G1 F1200 X102.372 Y27.136 E193.20755
G0 F2100 X101.807 Y27.136
G1 F1200 X142.533 Y67.863 E195.60211
G0 F2100 X141.967 Y67.863
G1 F1200 X101.241 Y27.136 E197.99667
G0 F2100 X100.675 Y27.136
G1 F1200 X141.402 Y67.863 E200.39127
G0 F2100 X140.836 Y67.863
G1 F1200 X100.11 Y27.136 E202.78583
G0 F2100 X99.544 Y27.136
G1 F1200 X140.27 Y67.863 E205.18039
G0 F2100 X139.705 Y67.863
G1 F1200 X98.978 Y27.136 E207.57498
G0 F2100 X98.413 Y27.136
G1 F1200 X139.139 Y67.863 E209.96954
G0 F2100 X138.573 Y67.863
G1 F1200 X97.847 Y27.136 E212.36411
G0 F2100 X97.281 Y27.136
G1 F1200 X138.008 Y67.863 E214.7587
G0 F2100 X137.442 Y67.863
G1 F1200 X96.715 Y27.136 E217.15329
G0 F2100 X96.15 Y27.136
G1 F1200 X136.876 Y67.863 E219.54785
G0 F2100 X136.311 Y67.863
G1 F1200 X95.584 Y27.136 E221.94244
G0 F2100 X95.018 Y27.136
G1 F1200 X135.745 Y67.863 E224.33703
G0 F2100 X135.179 Y67.863
G1 F1200 X94.453 Y27.136 E226.7316
G0 F2100 X93.887 Y27.136
G1 F1200 X134.614 Y67.863 E229.12619
G0 F2100 X134.048 Y67.863
G1 F1200 X93.321 Y27.136 E231.52078
G0 F2100 X92.756 Y27.136
G1 F1200 X133.482 Y67.863 E233.91534
G0 F2100 X132.916 Y67.863
G1 F1200 X92.19 Y27.136 E236.3099
G0 F2100 X91.624 Y27.136
G1 F1200 X132.351 Y67.863 E238.7045
G0 F2100 X131.785 Y67.863
G1 F1200 X91.059 Y27.136 E241.09906
G0 F2100 X90.493 Y27.136
G1 F1200 X131.219 Y67.863 E243.49362
G0 F2100 X130.654 Y67.863
G1 F1200 X89.927 Y27.136 E245.88821
G0 F2100 X89.362 Y27.136
G1 F1200 X130.088 Y67.863 E248.28277
G0 F2100 X129.522 Y67.863
G1 F1200 X88.796 Y27.136 E250.67734
G0 F2100 X88.23 Y27.136
G1 F1200 X128.957 Y67.863 E253.07193
G0 F2100 X128.391 Y67.863
G1 F1200 X87.664 Y27.136 E255.46652
G0 F2100 X87.099 Y27.136
G1 F1200 X127.825 Y67.863 E257.86108
G0 F2100 X127.26 Y67.863
G1 F1200 X86.533 Y27.136 E260.25567
G0 F2100 X85.967 Y27.136
G1 F1200 X126.694 Y67.863 E262.65026
G0 F2100 X126.128 Y67.863
G1 F1200 X85.402 Y27.136 E265.04483
G0 F2100 X84.836 Y27.136
G1 F1200 X125.563 Y67.863 E267.43942
G0 F2100 X124.997 Y67.863
G1 F1200 X84.27 Y27.136 E269.83401
G0 F2100 X83.705 Y27.136
G1 F1200 X124.431 Y67.863 E272.22857
G0 F2100 X123.866 Y67.863
G1 F1200 X83.139 Y27.136 E274.62316
G0 F2100 X82.573 Y27.136
G1 F1200 X123.3 Y67.863 E277.01775
G0 F2100 X122.734 Y67.863
G1 F1200 X82.008 Y27.136 E279.41232
G0 F2100 X81.442 Y27.136
G1 F1200 X122.168 Y67.863 E281.80688
G0 F2100 X121.603 Y67.863
G1 F1200 X80.876 Y27.136 E284.20147
G0 F2100 X80.311 Y27.136
G1 F1200 X121.037 Y67.863 E286.59603
G0 F2100 X120.471 Y67.863
G1 F1200 X79.745 Y27.136 E288.99059
G0 F2100 X79.179 Y27.136
G1 F1200 X119.906 Y67.863 E291.38519
G0 F2100 X119.34 Y67.863
G1 F1200 X78.614 Y27.136 E293.77975
G0 F2100 X78.048 Y27.136
G1 F1200 X118.774 Y67.863 E296.17431
G0 F2100 X118.209 Y67.863
G1 F1200 X77.482 Y27.136 E298.5689
G0 F2100 X76.986 Y27.205
G1 F1200 X117.643 Y67.863 E300.95941
G0 F2100 X117.078 Y67.863
G1 F1200 X76.986 Y27.771 E303.31666
G0 F2100 X76.986 Y28.337
G1 F1200 X116.512 Y67.863 E305.64064
G0 F2100 X115.947 Y67.863
G1 F1200 X76.986 Y28.902 E307.9314
G0 F2100 X76.986 Y29.468
G1 F1200 X115.381 Y67.863 E310.18888
G0 F2100 X114.815 Y67.863
G1 F1200 X76.986 Y30.034 E312.41308
G0 F2100 X76.986 Y30.6
G1 F1200 X114.25 Y67.863 E314.60403
G0 F2100 X113.684 Y67.863
G1 F1200 X76.986 Y31.165 E316.76173
G0 F2100 X76.986 Y31.731
G1 F1200 X113.118 Y67.863 E318.88615
G0 F2100 X112.553 Y67.863
G1 F1200 X76.986 Y32.297 E320.97733
G0 F2100 X76.986 Y32.862
G1 F1200 X111.987 Y67.863 E323.03525
G0 F2100 X111.421 Y67.863
G1 F1200 X76.986 Y33.428 E325.0599
G0 F2100 X76.986 Y33.994
G1 F1200 X110.855 Y67.863 E327.05126
G0 F2100 X110.29 Y67.863
G1 F1200 X76.986 Y34.559 E329.00941
G0 F2100 X76.986 Y35.125
G1 F1200 X109.724 Y67.863 E330.93428
G0 F2100 X109.158 Y67.863
G1 F1200 X76.986 Y35.691 E332.82587
G0 F2100 X76.986 Y36.256
G1 F1200 X108.593 Y67.863 E334.68424
G0 F2100 X108.027 Y67.863
G1 F1200 X76.986 Y36.822 E336.50933
G0 F2100 X76.986 Y37.388
G1 F1200 X107.461 Y67.863 E338.30115
G0 F2100 X106.896 Y67.863
G1 F1200 X76.986 Y37.953 E340.05974
G0 F2100 X76.986 Y38.519
G1 F1200 X106.33 Y67.863 E341.78505
G0 F2100 X105.764 Y67.863
G1 F1200 X76.986 Y39.085 E343.47709
G0 F2100 X76.986 Y39.651
G1 F1200 X105.199 Y67.863 E345.13588
G0 F2100 X104.633 Y67.863
G1 F1200 X76.986 Y40.216 E346.76142
G0 F2100 X76.986 Y40.782
G1 F1200 X104.067 Y67.863 E348.35367
G0 F2100 X103.502 Y67.863
G1 F1200 X76.986 Y41.348 E349.91268
G0 F2100 X76.986 Y41.913
G1 F1200 X102.936 Y67.863 E351.43844
G0 F2100 X102.37 Y67.863
G1 F1200 X76.986 Y42.479 E352.93093
G0 F2100 X76.986 Y43.045
G1 F1200 X101.804 Y67.863 E354.39013
G0 F2100 X101.239 Y67.863
G1 F1200 X76.986 Y43.61 E355.81611
G0 F2100 X76.986 Y44.176
G1 F1200 X100.673 Y67.863 E357.20882
G0 F2100 X100.107 Y67.863
G1 F1200 X76.986 Y44.742 E358.56824
G0 F2100 X76.986 Y45.307
G1 F1200 X99.542 Y67.863 E359.89445
G0 F2100 X98.976 Y67.863
G1 F1200 X76.986 Y45.873 E361.18738
G0 F2100 X76.986 Y46.439
G1 F1200 X98.41 Y67.863 E362.44703
G0 F2100 X97.845 Y67.863
G1 F1200 X76.986 Y47.004 E363.67346
G0 F2100 X76.986 Y47.57
G1 F1200 X97.279 Y67.863 E364.86661
G0 F2100 X96.713 Y67.863
G1 F1200 X76.986 Y48.136 E366.02648
G0 F2100 X76.986 Y48.701
G1 F1200 X96.148 Y67.863 E367.15313
G0 F2100 X95.582 Y67.863
G1 F1200 X76.986 Y49.267 E368.2465
G0 F2100 X76.986 Y49.833
G1 F1200 X95.016 Y67.863 E369.3066
G0 F2100 X94.451 Y67.863
G1 F1200 X76.986 Y50.399 E370.33345
G0 F2100 X76.986 Y50.964
G1 F1200 X93.885 Y67.863 E371.32704
G0 F2100 X93.319 Y67.863
G1 F1200 X76.986 Y51.53 E372.28736
G0 F2100 X76.986 Y52.096
G1 F1200 X92.754 Y67.863 E373.21443
G0 F2100 X92.188 Y67.863
G1 F1200 X76.986 Y52.661 E374.10825
G0 F2100 X76.986 Y53.227
G1 F1200 X91.622 Y67.863 E374.96879
G0 F2100 X91.056 Y67.863
G1 F1200 X76.986 Y53.793 E375.79605
G0 F2100 X76.986 Y54.358
G1 F1200 X90.491 Y67.863 E376.59009
G0 F2100 X89.925 Y67.863
G1 F1200 X76.986 Y54.924 E377.35086
G0 F2100 X76.986 Y55.49
G1 F1200 X89.359 Y67.863 E378.07834
G0 F2100 X88.794 Y67.863
G1 F1200 X76.986 Y56.055 E378.77261
G0 F2100 X76.986 Y56.621
G1 F1200 X88.228 Y67.863 E379.43359
G0 F2100 X87.662 Y67.863
G1 F1200 X76.986 Y57.187 E380.0613
G0 F2100 X76.986 Y57.752
G1 F1200 X87.097 Y67.863 E380.65579
G0 F2100 X86.531 Y67.863
G1 F1200 X76.986 Y58.318 E381.217
G0 F2100 X76.986 Y58.884
G1 F1200 X85.965 Y67.863 E381.74493
G0 F2100 X85.4 Y67.863
G1 F1200 X76.986 Y59.45 E382.23961
G0 F2100 X76.986 Y60.015
G1 F1200 X84.834 Y67.863 E382.70104
G0 F2100 X84.268 Y67.863
G1 F1200 X76.986 Y60.581 E383.1292
G0 F2100 X76.986 Y61.147
G1 F1200 X83.703 Y67.863 E383.5241
